; generated by PrusaSlicer 2.3.1+x64 on 2024-07-24 at 16:10:05 UTC

; 

; external perimeters extrusion width = 0.45mm
; perimeters extrusion width = 0.45mm
; infill extrusion width = 0.45mm
; solid infill extrusion width = 0.45mm
; top infill extrusion width = 0.40mm
; support material extrusion width = 0.35mm
; first layer extrusion width = 0.42mm

M73 P0 R106
M73 Q0 S106
M201 X1000 Y1000 Z200 E5000 ; sets maximum accelerations, mm/sec^2
M203 X200 Y200 Z12 E120 ; sets maximum feedrates, mm/sec
M204 P1250 R1250 T1250 ; sets acceleration (P, T) and retract acceleration (R), mm/sec^2
M205 X8.00 Y8.00 Z0.40 E4.50 ; sets the jerk limits, mm/sec
M205 S0 T0 ; sets the minimum extruding and travel feed rate, mm/sec
M107
;TYPE:Custom
M862.3 P "MK3S" ; printer model check
M862.1 P0.4 ; nozzle diameter check
M115 U3.9.3 ; tell printer latest fw version
G90 ; use absolute coordinates
M83 ; extruder relative mode
M104 S215 ; set extruder temp
M140 S60 ; set bed temp
M190 S60 ; wait for bed temp
M109 S215 ; wait for extruder temp
G28 W ; home all without mesh bed level
G80 ; mesh bed leveling
G1 Y-3.0 F1000.0 ; go outside print area
G92 E0.0
G1 X60.0 E9.0 F1000.0 ; intro line
M73 P0 R105
G1 X100.0 E12.5 F1000.0 ; intro line
G92 E0.0
M221 S95

; Don't change E values below. Excessive value can damage the printer.
M907 E430 ; set extruder motor current
G21 ; set units to millimeters
G90 ; use absolute coordinates
M83 ; use relative distances for extrusion
M900 K0.05 ; Filament gcode LA 1.5
M900 K30 ; Filament gcode LA 1.0
;LAYER_CHANGE
;Z:0.2
;HEIGHT:0.2
;BEFORE_LAYER_CHANGE
G92 E0.0
;0.2


G1 E-0.80000 F2100.000
G1 Z0.400 F10800.000
;AFTER_LAYER_CHANGE
;0.2
G1 X111.632 Y69.834
G1 Z0.200
G1 E0.80000 F2100.000
M204 S1000
;TYPE:Skirt
;WIDTH:0.42
G1 F1200.000
G1 X137.821 Y69.792 E0.82113
G1 X138.357 Y69.854 E0.01692
G1 X138.862 Y70.033 E0.01680
G1 X152.268 Y76.684 E0.46924
G1 X152.863 Y77.112 E0.02296
G1 X153.317 Y77.733 E0.02414
G1 X156.556 Y84.414 E0.23279
G1 X159.685 Y91.326 E0.23790
G1 X159.806 Y92.068 E0.02355
G1 X159.796 Y118.314 E0.82294
G1 X159.607 Y119.045 E0.02367
G1 X156.494 Y125.873 E0.23529
G1 X156.087 Y126.340 E0.01941
G1 X152.156 Y129.709 E0.16233
G1 X151.315 Y130.157 E0.02989
G1 X129.670 Y134.148 E0.69009
G1 X127.717 Y134.394 E0.06172
G1 X125.926 Y134.506 E0.05626
G1 X124.071 Y134.506 E0.05817
G1 X122.223 Y134.390 E0.05805
G1 X120.394 Y134.159 E0.05782
G1 X98.910 Y130.212 E0.68487
G1 X98.045 Y129.858 E0.02931
G1 X94.000 Y126.329 E0.16831
G1 X93.604 Y125.868 E0.01906
G1 X90.389 Y118.866 E0.24160
G1 X90.194 Y117.955 E0.02919
G1 X90.231 Y91.490 E0.82981
G1 X90.396 Y90.948 E0.01775
G1 X93.370 Y84.360 E0.22662
G1 X97.376 Y77.494 E0.24925
G1 X97.720 Y77.083 E0.01680
G1 X98.151 Y76.758 E0.01692
G1 X104.316 Y73.393 E0.22022
G1 X111.037 Y70.031 E0.23563
G1 X111.575 Y69.853 E0.01777
; printing object Smartwatch_Base1.stl id:0 copy 0
;WIPE_START
G1 F8640.000
G1 X114.866 Y69.845 E-0.76000
;WIPE_END
G1 E-0.04000 F2100.000
G1 Z0.600 F10800.000
G1 X101.621 Y88.233
G1 Z0.200
G1 E0.80000 F2100.000
;TYPE:Support material
G1 F1200.000
G1 X101.621 Y78.805 E0.29561
G1 X100.867 Y78.805 E0.02365
G1 X100.867 Y88.063 E0.29029
G1 X100.113 Y88.063 E0.02365
G1 X100.113 Y78.805 E0.29029
G1 X99.359 Y78.805 E0.02365
G1 X99.359 Y88.233 E0.29561
G1 X98.592 Y88.268 F10800.000
;TYPE:Support material interface
;WIDTH:0.35
G1 F1200.000
G1 X98.592 Y91.729 E0.08837
G1 X99.110 Y91.729 E0.01322
G1 X99.110 Y88.411 E0.08472
G1 X99.627 Y88.411 E0.01322
G1 X99.627 Y91.729 E0.08472
G1 X100.145 Y91.729 E0.01322
G1 X100.145 Y88.411 E0.08472
G1 X100.663 Y88.411 E0.01322
G1 X100.663 Y90.856 E0.06243
G1 X101.181 Y89.952 E0.02660
G1 X101.181 Y88.411 E0.03935
G1 X101.699 Y88.411 E0.01322
G1 X101.699 Y89.701 E0.03295
;WIPE_START
G1 F8640.000
G1 X101.699 Y88.411 E-0.29798
G1 X101.181 Y88.411 E-0.11956
G1 X101.181 Y89.894 E-0.34245
;WIPE_END
G1 E-0.04000 F2100.000
G1 Z0.600 F10800.000
G1 X100.113 Y95.856
G1 Z0.200
G1 E0.80000 F2100.000
;TYPE:Support material
;WIDTH:0.42
G1 F1200.000
G1 X100.113 Y113.918 E0.56631
G1 X100.198 Y113.856 E0.00330
G1 X100.421 Y113.753 E0.00771
G1 X100.605 Y113.700 E0.00600
G1 X100.867 Y113.672 E0.00826
G1 X100.867 Y96.328 E0.54378
G1 X101.621 Y96.342 E0.02365
G1 X101.621 Y113.658 E0.54296
G1 X102.375 Y113.648 E0.02365
G1 X102.375 Y96.352 E0.54228
G1 X102.557 Y96.370 E0.00572
G1 X102.811 Y96.447 E0.00833
G1 X103.045 Y96.573 E0.00833
G1 X103.129 Y96.642 E0.00340
G1 X103.129 Y113.575 E0.53093
;WIPE_START
G1 F8640.000
G1 X103.129 Y110.283 E-0.76000
;WIPE_END
G1 E-0.04000 F2100.000
G1 Z0.600 F10800.000
G1 X100.867 Y119.146
G1 Z0.200
G1 E0.80000 F2100.000
G1 F1200.000
G1 X100.867 Y116.998 E0.06734
G1 X100.113 Y115.384 E0.05586
G1 X100.113 Y118.093 E0.08495
;WIPE_START
G1 F8640.000
G1 X100.113 Y115.384 E-0.62557
G1 X100.359 Y115.912 E-0.13443
;WIPE_END
G1 E-0.04000 F2100.000
G1 Z0.600 F10800.000
G1 X98.592 Y118.128
G1 Z0.200
G1 E0.80000 F2100.000
;TYPE:Support material interface
;WIDTH:0.35
G1 F1200.000
G1 X98.592 Y121.589 E0.08837
G1 X99.110 Y121.589 E0.01322
G1 X99.110 Y118.271 E0.08472
G1 X99.627 Y118.271 E0.01322
G1 X99.627 Y121.589 E0.08472
G1 X100.145 Y121.589 E0.01322
G1 X100.145 Y118.271 E0.08472
G1 X100.184 Y118.271 E0.00099
G1 X100.663 Y119.144 E0.02542
M73 Q0 S105
G1 X100.663 Y121.589 E0.06243
G1 X101.181 Y121.589 E0.01322
G1 X101.181 Y120.055 E0.03917
G1 X101.213 Y120.110 E0.00162
G1 X101.380 Y120.064 E0.00444
G1 X101.699 Y120.566 E0.01517
G1 X101.699 Y121.732 E0.02978
;WIPE_START
G1 F8640.000
G1 X101.699 Y120.566 E-0.26932
G1 X101.380 Y120.064 E-0.13721
G1 X101.213 Y120.110 E-0.04016
G1 X101.181 Y120.055 E-0.01464
G1 X101.181 Y121.348 E-0.29867
;WIPE_END
G1 E-0.04000 F2100.000
G1 Z0.600 F10800.000
G1 X97.096 Y124.729
G1 Z0.200
G1 E0.80000 F2100.000
;TYPE:Support material
;WIDTH:0.42
G1 F1200.000
G1 X97.096 Y85.441 E1.23186
G1 X96.342 Y85.441 E0.02365
G1 X96.342 Y124.559 E1.22654
G1 X95.588 Y124.559 E0.02365
G1 X95.588 Y85.441 E1.22654
G1 X95.487 Y85.441 E0.00315
G1 X95.487 Y92.076 E0.20806
G1 X94.834 Y92.076 E0.02049
G1 X94.834 Y117.924 E0.81043
G1 X94.079 Y117.924 E0.02365
G1 X94.079 Y92.076 E0.81043
G1 X93.325 Y92.076 E0.02365
G1 X93.325 Y117.924 E0.81043
G1 X92.571 Y117.924 E0.02365
G1 X92.571 Y91.907 E0.81575
;WIPE_START
G1 F8640.000
G1 X92.571 Y95.198 E-0.76000
;WIPE_END
G1 E-0.04000 F2100.000
G1 Z0.600 F10800.000
G1 X107.654 Y125.400
G1 Z0.200
G1 E0.80000 F2100.000
G1 F1200.000
G1 X107.654 Y127.877 E0.07768
G1 X106.900 Y127.877 E0.02365
G1 X106.900 Y124.966 E0.09128
G1 X106.146 Y124.257 E0.03245
G1 X106.146 Y127.877 E0.11350
G1 X105.392 Y127.877 E0.02365
G1 X105.392 Y123.481 E0.13785
G1 X104.638 Y122.658 E0.03500
G1 X104.638 Y127.877 E0.16366
G1 X103.884 Y127.877 E0.02365
G1 X103.884 Y121.745 E0.19226
G1 X103.689 Y121.509 E0.00962
G1 X103.129 Y120.738 E0.02984
G1 X103.129 Y127.877 E0.22383
G1 X102.375 Y127.877 E0.02365
G1 X102.375 Y119.635 E0.25842
G1 X101.794 Y118.718 E0.03404
G1 X101.621 Y118.405 E0.01123
G1 X101.621 Y119.794 E0.04358
G1 X102.123 Y120.586 E0.02938
G1 X102.123 Y121.937 E0.04235
G1 X101.621 Y121.937 E0.01573
G1 X101.621 Y127.877 E0.18626
G1 X100.867 Y127.877 E0.02365
G1 X100.867 Y121.937 E0.18626
G1 X100.113 Y121.937 E0.02365
G1 X100.113 Y127.877 E0.18626
G1 X99.359 Y127.877 E0.02365
G1 X99.359 Y121.937 E0.18626
G1 X98.604 Y121.937 E0.02365
G1 X98.604 Y124.559 E0.08223
G1 X97.850 Y124.559 E0.02365
G1 X97.850 Y85.441 E1.22654
G1 X98.604 Y85.441 E0.02365
G1 X98.604 Y88.063 E0.08224
G1 X98.110 Y88.063 E0.01550
G1 X98.110 Y92.076 E0.12582
G1 X98.604 Y92.076 E0.01550
G1 X98.604 Y117.924 E0.81043
G1 X99.359 Y117.924 E0.02365
G1 X99.359 Y92.076 E0.81043
G1 X100.113 Y92.076 E0.02365
G1 X100.113 Y94.615 E0.07961
G1 X100.867 Y93.002 E0.05584
G1 X100.867 Y91.207 E0.05629
G1 X101.381 Y90.295 E0.03281
G1 X101.537 Y90.338 E0.00509
G1 X101.621 Y90.206 E0.00490
G1 X101.621 Y91.595 E0.04358
G1 X101.794 Y91.282 E0.01123
G1 X102.375 Y90.365 E0.03404
G1 X102.375 Y78.805 E0.36245
G1 X103.129 Y78.805 E0.02365
G1 X103.129 Y89.262 E0.32786
G1 X103.687 Y88.493 E0.02978
G1 X103.884 Y88.255 E0.00968
G1 X103.884 Y78.805 E0.29629
G1 X104.638 Y78.805 E0.02365
G1 X104.638 Y87.342 E0.26768
G1 X105.392 Y86.519 E0.03500
G1 X105.392 Y78.805 E0.24188
G1 X105.441 Y78.805 E0.00153
G1 X105.441 Y75.487 E0.10403
G1 X106.146 Y75.487 E0.02212
G1 X106.146 Y85.743 E0.32156
G1 X106.900 Y85.034 E0.03245
G1 X106.900 Y75.487 E0.29934
G1 X107.654 Y75.487 E0.02365
G1 X107.654 Y84.380 E0.27883
G1 X108.409 Y83.756 E0.03070
G1 X108.409 Y75.487 E0.25926
G1 X109.163 Y75.487 E0.02365
G1 X109.163 Y83.201 E0.24187
G1 X109.917 Y82.660 E0.02911
G1 X109.917 Y75.487 E0.22489
G1 X110.671 Y75.487 E0.02365
G1 X110.671 Y82.181 E0.20988
G1 X111.425 Y81.715 E0.02779
G1 X111.425 Y75.487 E0.19527
G1 X112.076 Y75.487 E0.02042
G1 X112.076 Y72.169 E0.10403
G1 X112.179 Y72.169 E0.00323
G1 X112.179 Y81.300 E0.28629
G1 X112.933 Y80.900 E0.02678
G1 X112.933 Y72.169 E0.27373
G1 X113.688 Y72.169 E0.02365
G1 X113.688 Y80.545 E0.26260
M73 P0 R104
G1 X114.442 Y80.201 E0.02599
G1 X114.442 Y72.169 E0.25182
G1 X115.196 Y72.169 E0.02365
G1 X115.196 Y79.902 E0.24245
G1 X115.950 Y79.609 E0.02536
G1 X115.950 Y72.169 E0.23328
G1 X116.704 Y72.169 E0.02365
G1 X116.704 Y79.364 E0.22559
G1 X117.458 Y79.119 E0.02486
G1 X117.458 Y72.169 E0.21790
G1 X118.213 Y72.169 E0.02365
G1 X118.213 Y78.924 E0.21179
M73 Q1 S105
G1 X118.967 Y78.731 E0.02441
M73 P1 R104
G1 X118.967 Y72.169 E0.20572
G1 X119.721 Y72.169 E0.02365
G1 X119.721 Y78.577 E0.20090
G1 X120.475 Y78.433 E0.02407
G1 X120.475 Y72.169 E0.19638
G1 X121.229 Y72.169 E0.02365
G1 X121.229 Y78.318 E0.19278
G1 X121.983 Y78.222 E0.02383
G1 X121.983 Y72.169 E0.18979
G1 X122.738 Y72.169 E0.02365
G1 X122.738 Y78.145 E0.18735
G1 X123.492 Y78.097 E0.02369
G1 X123.492 Y72.169 E0.18586
G1 X124.246 Y72.169 E0.02365
G1 X124.246 Y78.055 E0.18455
G1 X125.000 Y78.055 E0.02365
G1 X125.000 Y72.169 E0.18455
G1 X125.754 Y72.169 E0.02365
G1 X125.754 Y78.055 E0.18455
G1 X126.508 Y78.097 E0.02368
G1 X126.508 Y72.169 E0.18586
G1 X127.262 Y72.169 E0.02365
G1 X127.262 Y78.145 E0.18735
G1 X128.017 Y78.222 E0.02377
G1 X128.017 Y72.169 E0.18979
G1 X128.771 Y72.169 E0.02365
G1 X128.771 Y78.318 E0.19278
G1 X129.525 Y78.433 E0.02392
G1 X129.525 Y72.169 E0.19638
G1 X130.279 Y72.169 E0.02365
G1 X130.279 Y78.577 E0.20090
G1 X131.033 Y78.731 E0.02413
G1 X131.033 Y72.169 E0.20572
G1 X131.787 Y72.169 E0.02365
G1 X131.787 Y78.924 E0.21179
G1 X132.542 Y79.119 E0.02442
G1 X132.542 Y72.169 E0.21790
G1 X133.296 Y72.169 E0.02365
G1 X133.296 Y79.364 E0.22559
G1 X134.050 Y79.609 E0.02486
G1 X134.050 Y72.169 E0.23328
G1 X134.804 Y72.169 E0.02365
G1 X134.804 Y79.902 E0.24245
G1 X135.558 Y80.201 E0.02543
G1 X135.558 Y72.169 E0.25182
G1 X136.312 Y72.169 E0.02365
G1 X136.312 Y80.545 E0.26260
G1 X137.067 Y80.900 E0.02614
G1 X137.067 Y72.169 E0.27373
G1 X137.821 Y72.169 E0.02365
G1 X137.821 Y81.300 E0.28629
G1 X138.575 Y81.715 E0.02699
G1 X138.575 Y75.487 E0.19527
G1 X139.329 Y75.487 E0.02365
G1 X139.329 Y82.181 E0.20988
G1 X140.083 Y82.660 E0.02801
G1 X140.083 Y75.487 E0.22489
G1 X140.837 Y75.487 E0.02365
G1 X140.837 Y83.201 E0.24187
G1 X141.591 Y83.756 E0.02935
G1 X141.592 Y75.487 E0.25926
G1 X142.346 Y75.487 E0.02365
G1 X142.346 Y84.380 E0.27883
G1 X142.827 Y84.779 E0.01961
G1 X143.100 Y85.034 E0.01170
G1 X143.100 Y75.487 E0.29934
G1 X143.854 Y75.487 E0.02365
G1 X143.854 Y85.743 E0.32156
G1 X144.075 Y85.951 E0.00951
G1 X144.608 Y86.519 E0.02444
G1 X144.608 Y78.805 E0.24188
G1 X145.362 Y78.805 E0.02365
G1 X145.362 Y87.342 E0.26768
G1 X146.116 Y88.255 E0.03711
G1 X146.116 Y78.805 E0.29629
G1 X146.871 Y78.805 E0.02365
G1 X146.871 Y89.262 E0.32786
G1 X147.298 Y89.850 E0.02280
G1 X147.625 Y90.365 E0.01912
G1 X147.625 Y78.805 E0.36245
G1 X148.379 Y78.805 E0.02365
G1 X148.379 Y88.063 E0.29029
G1 X149.133 Y88.063 E0.02365
G1 X149.133 Y78.805 E0.29029
G1 X149.887 Y78.805 E0.02365
G1 X149.887 Y88.063 E0.29029
G1 X150.641 Y88.063 E0.02365
G1 X150.641 Y78.805 E0.29029
G1 X151.195 Y78.805 E0.01736
G1 X151.195 Y85.441 E0.20806
G1 X151.396 Y85.441 E0.00629
G1 X151.396 Y88.233 E0.08755
;WIPE_START
G1 F8640.000
G1 X151.396 Y85.441 E-0.64478
G1 X151.195 Y85.441 E-0.04633
G1 X151.195 Y85.142 E-0.06890
;WIPE_END
G1 E-0.04000 F2100.000
G1 Z0.600 F10800.000
G1 X151.408 Y91.872
G1 Z0.200
G1 E0.80000 F2100.000
;TYPE:Support material interface
;WIDTH:0.35
G1 F1200.000
G1 X151.408 Y88.411 E0.08837
G1 X150.890 Y88.411 E0.01322
G1 X150.890 Y91.729 E0.08472
G1 X150.373 Y91.729 E0.01322
G1 X150.373 Y88.411 E0.08472
G1 X149.855 Y88.411 E0.01322
G1 X149.855 Y91.729 E0.08472
G1 X149.816 Y91.729 E0.00099
G1 X149.337 Y90.856 E0.02542
G1 X149.337 Y88.411 E0.06243
G1 X148.819 Y88.411 E0.01322
G1 X148.819 Y89.945 E0.03917
G1 X148.787 Y89.890 E0.00162
G1 X148.620 Y89.936 E0.00444
G1 X148.301 Y89.434 E0.01517
G1 X148.301 Y88.268 E0.02978
;WIPE_START
G1 F8640.000
G1 X148.301 Y89.434 E-0.26933
G1 X148.620 Y89.936 E-0.13721
G1 X148.787 Y89.890 E-0.04016
G1 X148.819 Y89.945 E-0.01464
G1 X148.819 Y88.652 E-0.29866
;WIPE_END
G1 E-0.04000 F2100.000
G1 Z0.600 F10800.000
G1 X148.379 Y89.889
G1 Z0.200
G1 E0.80000 F2100.000
;TYPE:Support material
;WIDTH:0.42
G1 F1200.000
G1 X148.379 Y91.595 E0.05351
G1 X149.021 Y92.766 E0.04186
G1 X149.133 Y93.002 E0.00819
G1 X149.133 Y91.207 E0.05629
G1 X149.611 Y92.076 E0.03110
G1 X149.887 Y92.076 E0.00868
G1 X149.887 Y95.025 E0.09244
;WIPE_START
G1 F8640.000
G1 X149.887 Y92.076 E-0.68075
G1 X149.611 Y92.076 E-0.06389
G1 X149.579 Y92.018 E-0.01535
;WIPE_END
G1 E-0.04000 F2100.000
G1 Z0.600 F10800.000
G1 X146.871 Y96.621
G1 Z0.200
G1 E0.80000 F2100.000
G1 F1200.000
G1 X146.871 Y113.112 E0.51705
G1 X146.991 Y113.259 E0.00597
G1 X147.197 Y113.427 E0.00833
G1 X147.431 Y113.553 E0.00833
G1 X147.625 Y113.611 E0.00634
G1 X147.625 Y96.389 E0.54000
G1 X147.977 Y96.342 E0.01114
G1 X148.379 Y96.342 E0.01260
G1 X148.379 Y113.658 E0.54296
G1 X149.133 Y113.672 E0.02365
G1 X149.133 Y96.328 E0.54378
G1 X149.395 Y96.300 E0.00826
G1 X149.579 Y96.247 E0.00600
G1 X149.802 Y96.144 E0.00771
G1 X149.887 Y96.082 E0.00330
G1 X149.887 Y114.144 E0.56631
;WIPE_START
M73 Q1 S104
G1 F8640.000
G1 X149.887 Y110.853 E-0.76000
;WIPE_END
G1 E-0.04000 F2100.000
G1 Z0.600 F10800.000
G1 X151.396 Y118.093
G1 Z0.200
G1 E0.80000 F2100.000
G1 F1200.000
G1 X151.396 Y92.076 E0.81575
G1 X150.641 Y92.076 E0.02365
G1 X150.641 Y117.924 E0.81043
G1 X149.887 Y117.924 E0.02365
G1 X149.887 Y115.385 E0.07961
G1 X149.133 Y116.998 E0.05584
G1 X149.133 Y119.146 E0.06734
;WIPE_START
G1 F8640.000
G1 X149.133 Y116.998 E-0.49592
G1 X149.617 Y115.962 E-0.26408
;WIPE_END
G1 E-0.04000 F2100.000
G1 Z0.600 F10800.000
G1 X148.301 Y120.299
G1 Z0.200
G1 E0.80000 F2100.000
;TYPE:Support material interface
;WIDTH:0.35
G1 F1200.000
G1 X148.301 Y121.589 E0.03295
G1 X148.819 Y121.589 E0.01322
G1 X148.819 Y120.048 E0.03935
G1 X149.337 Y119.144 E0.02660
G1 X149.337 Y121.589 E0.06243
G1 X149.855 Y121.589 E0.01322
G1 X149.855 Y118.271 E0.08472
G1 X150.373 Y118.271 E0.01322
G1 X150.373 Y121.589 E0.08472
G1 X150.890 Y121.589 E0.01322
G1 X150.890 Y118.271 E0.08472
G1 X151.408 Y118.271 E0.01322
G1 X151.408 Y121.732 E0.08837
;WIPE_START
G1 F8640.000
G1 X151.408 Y118.441 E-0.76000
;WIPE_END
G1 E-0.04000 F2100.000
G1 Z0.600 F10800.000
G1 X157.429 Y118.093
G1 Z0.200
G1 E0.80000 F2100.000
;TYPE:Support material
;WIDTH:0.42
G1 F1200.000
G1 X157.429 Y92.076 E0.81575
G1 X156.675 Y92.076 E0.02365
G1 X156.675 Y117.924 E0.81043
G1 X155.921 Y117.924 E0.02365
G1 X155.921 Y92.076 E0.81043
G1 X155.166 Y92.076 E0.02365
G1 X155.166 Y117.924 E0.81043
G1 X154.513 Y117.924 E0.02049
G1 X154.513 Y124.559 E0.20806
G1 X154.412 Y124.559 E0.00315
G1 X154.412 Y85.441 E1.22654
G1 X153.658 Y85.441 E0.02365
G1 X153.658 Y124.559 E1.22654
G1 X152.904 Y124.559 E0.02365
G1 X152.904 Y85.441 E1.22654
G1 X152.150 Y85.441 E0.02365
G1 X152.150 Y124.559 E1.22654
G1 X151.396 Y124.559 E0.02365
G1 X151.396 Y121.937 E0.08224
G1 X150.641 Y121.937 E0.02365
G1 X150.641 Y127.877 E0.18626
G1 X149.887 Y127.877 E0.02365
G1 X149.887 Y121.937 E0.18626
G1 X149.133 Y121.937 E0.02365
G1 X149.133 Y127.877 E0.18626
