; generated by PrusaSlicer 2.3.1+x64 on 2024-07-23 at 01:46:08 UTC

; 

; external perimeters extrusion width = 0.45mm
; perimeters extrusion width = 0.45mm
; infill extrusion width = 0.45mm
; solid infill extrusion width = 0.45mm
; top infill extrusion width = 0.40mm
; support material extrusion width = 0.35mm
; first layer extrusion width = 0.42mm

M73 P0 R126
M73 Q0 S127
M201 X1000 Y1000 Z200 E5000 ; sets maximum accelerations, mm/sec^2
M203 X200 Y200 Z12 E120 ; sets maximum feedrates, mm/sec
M204 P1250 R1250 T1250 ; sets acceleration (P, T) and retract acceleration (R), mm/sec^2
M205 X8.00 Y8.00 Z0.40 E4.50 ; sets the jerk limits, mm/sec
M205 S0 T0 ; sets the minimum extruding and travel feed rate, mm/sec
M107
;TYPE:Custom
M862.3 P "MK3S" ; printer model check
M862.1 P0.4 ; nozzle diameter check
M115 U3.9.3 ; tell printer latest fw version
G90 ; use absolute coordinates
M83 ; extruder relative mode
M104 S215 ; set extruder temp
M140 S60 ; set bed temp
M190 S60 ; wait for bed temp
M109 S215 ; wait for extruder temp
G28 W ; home all without mesh bed level
G80 ; mesh bed leveling
G1 Y-3.0 F1000.0 ; go outside print area
G92 E0.0
G1 X60.0 E9.0 F1000.0 ; intro line
G1 X100.0 E12.5 F1000.0 ; intro line
G92 E0.0
M221 S95

; Don't change E values below. Excessive value can damage the printer.
M907 E430 ; set extruder motor current
G21 ; set units to millimeters
G90 ; use absolute coordinates
M83 ; use relative distances for extrusion
M900 K0.05 ; Filament gcode LA 1.5
M900 K30 ; Filament gcode LA 1.0
;LAYER_CHANGE
;Z:0.2
;HEIGHT:0.2
;BEFORE_LAYER_CHANGE
G92 E0.0
;0.2


G1 E-0.80000 F2100.000
G1 Z0.400 F10800.000
;AFTER_LAYER_CHANGE
;0.2
G1 X92.642 Y87.203
G1 Z0.200
G1 E0.80000 F2100.000
M204 S1000
;TYPE:Skirt
;WIDTH:0.42
G1 F1200.000
G1 X97.429 Y79.782 E0.27688
G1 X99.359 Y77.311 E0.09830
G1 X99.953 Y76.810 E0.02437
G1 X114.020 Y69.769 E0.49324
G1 X114.542 Y69.582 E0.01740
G1 X115.071 Y69.521 E0.01668
G1 X141.877 Y69.521 E0.84048
G1 X142.741 Y69.683 E0.02755
G1 X143.486 Y70.148 E0.02755
G1 X153.138 Y79.869 E0.42952
G1 X158.000 Y89.579 E0.34048
G1 X159.760 Y96.929 E0.23695
G1 X159.792 Y122.302 E0.79555
G1 X155.746 Y136.457 E0.46163
G1 X155.396 Y137.172 E0.02496
G1 X154.698 Y137.817 E0.02977
G1 X153.808 Y138.136 E0.02966
G1 X132.625 Y140.479 E0.66822
G1 X110.277 Y140.473 E0.70071
G1 X93.846 Y138.132 E0.52039
G1 X93.312 Y137.982 E0.01740
G1 X92.827 Y137.713 E0.01740
G1 X92.175 Y137.002 E0.03024
G1 X91.859 Y136.091 E0.03024
G1 X90.199 Y117.395 E0.58851
G1 X90.201 Y97.038 E0.63827
G1 X92.627 Y87.261 E0.31585
; printing object Smartwatch_Base1.stl id:0 copy 0
;WIPE_START
G1 F8640.000
G1 X94.405 Y84.491 E-0.76000
;WIPE_END
G1 E-0.04000 F2100.000
G1 Z0.600 F10800.000
G1 X92.571 Y97.224
G1 Z0.200
G1 E0.80000 F2100.000
;TYPE:Support material
G1 F1200.000
G1 X92.571 Y117.242 E0.62762
G1 X93.325 Y117.242 E0.02365
G1 X93.325 Y97.394 E0.62230
G1 X94.079 Y97.394 E0.02365
G1 X94.079 Y117.242 E0.62230
M73 Q0 S126
G1 X94.216 Y117.242 E0.00428
G1 X94.216 Y135.784 E0.58139
G1 X94.834 Y135.784 E0.01937
G1 X94.834 Y88.123 E1.49438
G1 X95.588 Y88.123 E0.02365
G1 X95.588 Y135.784 E1.49438
G1 X96.342 Y135.784 E0.02365
G1 X96.342 Y88.123 E1.49438
G1 X96.534 Y88.123 E0.00601
G1 X96.534 Y85.805 E0.07267
G1 X97.096 Y85.805 E0.01763
G1 X97.096 Y135.784 E1.56705
G1 X97.850 Y135.784 E0.02365
G1 X97.850 Y85.805 E1.56705
M73 P0 R125
G1 X98.604 Y85.805 E0.02365
G1 X98.604 Y135.954 E1.57238
;WIPE_START
G1 F8640.000
G1 X98.604 Y132.662 E-0.76000
;WIPE_END
G1 E-0.04000 F2100.000
G1 Z0.600 F10800.000
G1 X150.641 Y135.954
G1 Z0.200
G1 E0.80000 F2100.000
G1 F1200.000
G1 X150.641 Y116.937 E0.59627
G1 X149.887 Y116.937 E0.02365
G1 X149.887 Y135.784 E0.59095
G1 X149.133 Y135.784 E0.02365
G1 X149.133 Y116.937 E0.59095
G1 X148.840 Y116.937 E0.00918
G1 X149.133 Y116.301 E0.02194
G1 X149.133 Y116.113 E0.00589
G1 X148.820 Y116.791 E0.02341
G1 X148.379 Y117.625 E0.02957
G1 X148.379 Y135.784 E0.56937
G1 X147.625 Y135.784 E0.02365
G1 X147.625 Y118.932 E0.52840
G1 X147.363 Y119.365 E0.01587
G1 X146.871 Y120.087 E0.02741
G1 X146.871 Y135.784 E0.49217
G1 X146.116 Y135.784 E0.02365
G1 X146.116 Y121.125 E0.45963
G1 X145.642 Y121.744 E0.02444
G1 X145.362 Y122.070 E0.01349
G1 X145.362 Y135.784 E0.42999
G1 X144.608 Y135.784 E0.02365
G1 X144.608 Y122.940 E0.40271
G1 X143.854 Y123.725 E0.03414
G1 X143.854 Y135.784 E0.37809
G1 X143.100 Y135.784 E0.02365
G1 X143.100 Y124.450 E0.35536
G1 X142.346 Y125.131 E0.03185
G1 X142.346 Y133.466 E0.26136
G1 X141.591 Y133.466 E0.02365
G1 X141.591 Y125.759 E0.24166
G1 X140.837 Y126.333 E0.02971
G1 X140.837 Y133.466 E0.22366
G1 X140.083 Y133.466 E0.02365
G1 X140.083 Y126.879 E0.20653
G1 X139.329 Y127.377 E0.02833
G1 X139.329 Y135.784 E0.26360
G1 X138.575 Y135.784 E0.02365
G1 X138.575 Y127.840 E0.24906
G1 X137.821 Y128.280 E0.02737
G1 X137.821 Y135.784 E0.23528
G1 X137.067 Y135.784 E0.02365
G1 X137.067 Y128.671 E0.22303
G1 X136.312 Y129.048 E0.02644
G1 X136.312 Y135.784 E0.21120
G1 X135.558 Y135.784 E0.02365
G1 X135.558 Y129.382 E0.20073
G1 X134.804 Y129.698 E0.02564
G1 X134.804 Y135.784 E0.19082
G1 X134.050 Y135.784 E0.02365
G1 X134.050 Y129.983 E0.18189
G1 X133.296 Y130.243 E0.02501
G1 X133.296 Y135.784 E0.17374
G1 X132.606 Y135.784 E0.02163
G1 X132.606 Y138.102 E0.07267
G1 X132.542 Y138.102 E0.00202
G1 X132.542 Y130.481 E0.23896
G1 X131.787 Y130.688 E0.02453
G1 X131.787 Y138.102 E0.23244
G1 X131.033 Y138.102 E0.02365
G1 X131.033 Y130.881 E0.22640
G1 X130.279 Y131.040 E0.02416
G1 X130.279 Y138.102 E0.22143
G1 X129.525 Y138.102 E0.02365
G1 X129.525 Y131.188 E0.21677
G1 X128.771 Y131.300 E0.02391
G1 X128.771 Y138.102 E0.21326
G1 X128.017 Y138.102 E0.02365
G1 X128.017 Y131.406 E0.20995
G1 X127.262 Y131.473 E0.02374
G1 X127.262 Y138.102 E0.20785
G1 X126.508 Y138.102 E0.02365
G1 X126.508 Y131.536 E0.20588
G1 X125.754 Y131.558 E0.02366
G1 X125.754 Y138.102 E0.20517
G1 X125.000 Y138.102 E0.02365
G1 X125.000 Y131.579 E0.20451
G1 X124.246 Y131.558 E0.02366
G1 X124.246 Y138.102 E0.20517
G1 X123.492 Y138.102 E0.02365
G1 X123.492 Y131.536 E0.20588
G1 X122.738 Y131.473 E0.02373
G1 X122.738 Y138.102 E0.20785
G1 X121.983 Y138.102 E0.02365
G1 X121.983 Y131.406 E0.20995
G1 X121.229 Y131.300 E0.02388
G1 X121.229 Y138.102 E0.21326
G1 X120.475 Y138.102 E0.02365
G1 X120.475 Y131.188 E0.21677
G1 X119.721 Y131.040 E0.02410
G1 X119.721 Y138.102 E0.22143
G1 X118.967 Y138.102 E0.02365
G1 X118.967 Y130.881 E0.22640
G1 X118.213 Y130.688 E0.02441
G1 X118.213 Y138.102 E0.23244
G1 X117.458 Y138.102 E0.02365
G1 X117.458 Y130.481 E0.23896
G1 X116.704 Y130.243 E0.02480
G1 X116.704 Y138.102 E0.24642
G1 X115.950 Y138.102 E0.02365
G1 X115.950 Y129.983 E0.25456
G1 X115.196 Y129.698 E0.02528
G1 X115.196 Y138.102 E0.26350
G1 X114.442 Y138.102 E0.02365
G1 X114.442 Y129.382 E0.27340
G1 X113.688 Y129.048 E0.02586
G1 X113.688 Y138.102 E0.28387
G1 X112.933 Y138.102 E0.02365
G1 X112.933 Y128.671 E0.29570
G1 X112.179 Y128.280 E0.02663
G1 X112.179 Y138.102 E0.30795
G1 X111.425 Y138.102 E0.02365
G1 X111.425 Y127.840 E0.32174
G1 X110.671 Y127.377 E0.02775
G1 X110.671 Y138.102 E0.33627
G1 X110.441 Y138.102 E0.00722
G1 X110.441 Y133.466 E0.14535
G1 X109.917 Y133.466 E0.01642
G1 X109.917 Y126.879 E0.20653
G1 X109.163 Y126.333 E0.02920
G1 X109.163 Y133.466 E0.22366
G1 X108.409 Y133.466 E0.02365
G1 X108.409 Y125.759 E0.24166
G1 X107.654 Y125.131 E0.03078
G1 X107.654 Y133.466 E0.26136
G1 X106.900 Y133.466 E0.02365
G1 X106.900 Y124.450 E0.28269
G1 X106.146 Y123.725 E0.03279
G1 X106.146 Y133.466 E0.30541
G1 X105.392 Y133.466 E0.02365
G1 X105.392 Y122.940 E0.33004
G1 X104.638 Y122.070 E0.03610
G1 X104.638 Y133.466 E0.35732
G1 X103.884 Y133.466 E0.02365
G1 X103.884 Y121.125 E0.38695
G1 X103.466 Y120.581 E0.02150
G1 X103.129 Y120.087 E0.01874
G1 X103.129 Y131.148 E0.34683
G1 X102.474 Y131.148 E0.02054
G1 X102.474 Y135.784 E0.14535
G1 X102.375 Y135.784 E0.00311
G1 X102.375 Y118.932 E0.52839
G1 X101.871 Y118.096 E0.03059
G1 X101.621 Y117.625 E0.01673
G1 X101.621 Y135.784 E0.56937
G1 X100.867 Y135.784 E0.02365
G1 X100.867 Y116.937 E0.59095
M73 P1 R125
M73 Q1 S126
G1 X100.113 Y116.937 E0.02365
G1 X100.113 Y135.784 E0.59095
G1 X99.359 Y135.784 E0.02365
G1 X99.359 Y116.767 E0.59627
G1 X99.627 Y116.732 F10800.000
;TYPE:Support material interface
;WIDTH:0.35
G1 F1200.000
G1 X99.627 Y114.271 E0.06283
G1 X99.805 Y114.271 E0.00453
G1 X99.762 Y114.389 E0.00321
G1 X99.753 Y114.492 E0.00264
G1 X99.785 Y114.696 E0.00525
G1 X100.145 Y115.562 E0.02395
G1 X100.145 Y116.732 E0.02988
G1 X100.867 Y116.707 F10800.000
;TYPE:Support material
;WIDTH:0.42
G1 F1200.000
G1 X100.867 Y116.113 E0.01860
G1 X100.205 Y114.639 E0.05066
G1 X100.204 Y114.349 E0.00909
G1 X100.260 Y114.231 E0.00412
G1 X100.148 Y114.343 E0.00496
G1 X100.113 Y114.441 E0.00327
G1 X100.113 Y115.041 E0.01881
;WIPE_START
G1 F8640.000
G1 X100.113 Y114.441 E-0.13854
G1 X100.148 Y114.343 E-0.02411
G1 X100.260 Y114.231 E-0.03655
G1 X100.204 Y114.349 E-0.03031
G1 X100.205 Y114.639 E-0.06696
G1 X100.867 Y116.113 E-0.37308
G1 X100.867 Y116.505 E-0.09044
;WIPE_END
G1 E-0.04000 F2100.000
G1 Z0.600 F10800.000
G1 X100.145 Y94.798
G1 Z0.200
G1 E0.80000 F2100.000
;TYPE:Support material interface
;WIDTH:0.35
G1 F1200.000
G1 X100.145 Y93.411 E0.03541
G1 X99.627 Y93.411 E0.01322
G1 X99.627 Y95.872 E0.06283
G1 X100.113 Y95.871 F10800.000
;TYPE:Support material
;WIDTH:0.42
G1 F1200.000
G1 X100.118 Y95.407 E0.01456
G1 X100.487 Y94.524 E0.03001
G1 X100.867 Y93.699 E0.02847
G1 X100.867 Y94.292 E0.01860
;WIPE_START
G1 F8640.000
G1 X100.867 Y93.699 E-0.13699
G1 X100.487 Y94.524 E-0.20969
G1 X100.118 Y95.407 E-0.22103
G1 X100.113 Y95.871 E-0.10721
;WIPE_END
G1 E-0.12507 F2100.000
G1 Z0.600 F10800.000
G1 X103.129 Y96.260
G1 Z0.200
G1 E0.80000 F2100.000
G1 F1200.000
G1 X103.129 Y113.534 E0.54161
G1 X103.046 Y113.592 E0.00319
G1 X102.810 Y113.702 E0.00815
G1 X102.559 Y113.769 E0.00815
G1 X102.375 Y113.785 E0.00579
G1 X102.375 Y96.215 E0.55091
G1 X101.621 Y96.207 E0.02365
G1 X101.621 Y113.793 E0.55142
M73 Q1 S125
G1 X101.313 Y113.794 E0.00966
G1 X100.867 Y113.839 E0.01406
G1 X100.867 Y96.161 E0.55429
G1 X100.531 Y96.024 E0.01139
G1 X100.316 Y95.841 E0.00886
G1 X100.241 Y96.076 E0.00775
G1 X100.113 Y96.076 E0.00402
G1 X100.113 Y113.924 E0.55959
G1 X99.359 Y113.924 E0.02365
G1 X99.359 Y96.076 E0.55959
G1 X99.157 Y96.076 E0.00633
G1 X99.157 Y93.063 E0.09447
G1 X99.359 Y93.063 E0.00634
G1 X99.359 Y81.169 E0.37293
G1 X100.113 Y81.169 E0.02365
G1 X100.113 Y93.063 E0.37293
G1 X100.867 Y93.063 E0.02365
G1 X100.867 Y81.169 E0.37293
G1 X101.169 Y81.169 E0.00948
G1 X101.169 Y78.852 E0.07267
G1 X101.621 Y78.852 E0.01416
G1 X101.621 Y92.375 E0.42403
G1 X101.871 Y91.904 E0.01673
G1 X102.375 Y91.068 E0.03059
G1 X102.375 Y78.852 E0.38305
G1 X103.129 Y78.852 E0.02365
G1 X103.129 Y89.913 E0.34683
G1 X103.466 Y89.419 E0.01874
G1 X103.884 Y88.875 E0.02150
G1 X103.884 Y78.852 E0.31428
G1 X104.638 Y78.852 E0.02365
G1 X104.638 Y87.930 E0.28464
G1 X105.392 Y87.060 E0.03610
G1 X105.392 Y78.852 E0.25737
G1 X105.805 Y78.852 E0.01295
G1 X105.805 Y76.534 E0.07267
G1 X106.146 Y76.534 E0.01069
G1 X106.146 Y86.275 E0.30541
G1 X106.900 Y85.550 E0.03279
G1 X106.900 Y76.534 E0.28269
G1 X107.654 Y76.534 E0.02365
G1 X107.654 Y84.869 E0.26136
G1 X108.409 Y84.241 E0.03078
G1 X108.409 Y76.534 E0.24166
G1 X109.163 Y76.534 E0.02365
G1 X109.163 Y83.667 E0.22366
G1 X109.917 Y83.121 E0.02920
G1 X109.917 Y76.534 E0.20653
G1 X110.441 Y76.534 E0.01642
G1 X110.441 Y74.216 E0.07267
G1 X110.671 Y74.216 E0.00722
G1 X110.671 Y82.623 E0.26360
G1 X111.425 Y82.160 E0.02775
G1 X111.425 Y74.216 E0.24907
G1 X112.179 Y74.216 E0.02365
G1 X112.179 Y81.720 E0.23528
G1 X112.933 Y81.329 E0.02663
G1 X112.933 Y74.216 E0.22303
G1 X113.688 Y74.216 E0.02365
G1 X113.688 Y80.952 E0.21120
M73 P1 R124
G1 X114.442 Y80.618 E0.02586
G1 X114.442 Y74.216 E0.20073
G1 X115.076 Y74.216 E0.01989
G1 X115.076 Y71.898 E0.07267
G1 X115.196 Y71.898 E0.00375
G1 X115.196 Y80.302 E0.26350
G1 X115.950 Y80.017 E0.02528
G1 X115.950 Y71.898 E0.25456
G1 X116.704 Y71.898 E0.02365
G1 X116.704 Y79.757 E0.24642
G1 X117.458 Y79.519 E0.02480
G1 X117.458 Y71.898 E0.23896
G1 X118.213 Y71.898 E0.02365
G1 X118.213 Y79.312 E0.23244
G1 X118.967 Y79.119 E0.02441
G1 X118.967 Y71.898 E0.22640
G1 X119.721 Y71.898 E0.02365
G1 X119.721 Y78.960 E0.22143
G1 X120.475 Y78.812 E0.02410
G1 X120.475 Y71.898 E0.21677
G1 X121.229 Y71.898 E0.02365
G1 X121.229 Y78.700 E0.21326
G1 X121.983 Y78.594 E0.02388
G1 X121.983 Y71.898 E0.20995
G1 X122.738 Y71.898 E0.02365
G1 X122.738 Y78.527 E0.20785
G1 X123.492 Y78.464 E0.02373
G1 X123.492 Y71.898 E0.20588
G1 X124.246 Y71.898 E0.02365
G1 X124.246 Y78.442 E0.20517
G1 X125.000 Y78.421 E0.02366
G1 X125.000 Y71.898 E0.20451
G1 X125.754 Y71.898 E0.02365
G1 X125.754 Y78.442 E0.20517
G1 X126.508 Y78.464 E0.02366
G1 X126.508 Y71.898 E0.20588
G1 X127.262 Y71.898 E0.02365
G1 X127.262 Y78.527 E0.20785
G1 X128.017 Y78.594 E0.02374
G1 X128.017 Y71.898 E0.20995
G1 X128.771 Y71.898 E0.02365
G1 X128.771 Y78.700 E0.21326
G1 X129.525 Y78.812 E0.02391
G1 X129.525 Y71.898 E0.21677
G1 X130.279 Y71.898 E0.02365
G1 X130.279 Y78.960 E0.22143
G1 X131.033 Y79.119 E0.02416
G1 X131.033 Y71.898 E0.22640
G1 X131.787 Y71.898 E0.02365
G1 X131.787 Y79.312 E0.23244
G1 X132.542 Y79.519 E0.02453
G1 X132.542 Y71.898 E0.23896
G1 X132.606 Y71.898 E0.00202
G1 X132.606 Y74.216 E0.07267
G1 X133.296 Y74.216 E0.02163
G1 X133.296 Y79.757 E0.17374
G1 X134.050 Y80.017 E0.02501
G1 X134.050 Y71.898 E0.25456
G1 X134.804 Y71.898 E0.02365
G1 X134.804 Y80.302 E0.26350
G1 X135.558 Y80.618 E0.02564
G1 X135.558 Y71.898 E0.27340
G1 X136.312 Y71.898 E0.02365
G1 X136.312 Y80.952 E0.28387
G1 X137.067 Y81.329 E0.02644
G1 X137.067 Y71.898 E0.29570
G1 X137.821 Y71.898 E0.02365
G1 X137.821 Y81.720 E0.30795
G1 X138.575 Y82.160 E0.02737
G1 X138.575 Y71.898 E0.32174
G1 X139.329 Y71.898 E0.02365
G1 X139.329 Y82.623 E0.33627
G1 X140.083 Y83.121 E0.02833
G1 X140.083 Y71.898 E0.35188
G1 X140.837 Y71.898 E0.02365
G1 X140.837 Y83.667 E0.36901
G1 X141.591 Y84.241 E0.02971
G1 X141.592 Y71.898 E0.38700
G1 X141.877 Y71.898 E0.00896
G1 X141.877 Y76.534 E0.14535
G1 X142.346 Y76.534 E0.01469
G1 X142.346 Y84.869 E0.26136
G1 X143.100 Y85.550 E0.03185
G1 X143.100 Y76.534 E0.28269
G1 X143.854 Y76.534 E0.02365
G1 X143.854 Y86.275 E0.30541
G1 X144.608 Y87.060 E0.03414
G1 X144.608 Y78.852 E0.25737
G1 X145.362 Y78.852 E0.02365
G1 X145.362 Y87.930 E0.28464
G1 X145.642 Y88.256 E0.01349
G1 X146.116 Y88.875 E0.02444
G1 X146.116 Y78.852 E0.31428
G1 X146.871 Y78.852 E0.02365
G1 X146.871 Y89.913 E0.34683
G1 X147.366 Y90.639 E0.02756
G1 X147.625 Y91.068 E0.01571
G1 X147.625 Y78.852 E0.38305
G1 X148.379 Y78.852 E0.02365
G1 X148.379 Y92.375 E0.42403
G1 X148.820 Y93.209 E0.02957
G1 X149.133 Y93.887 E0.02341
G1 X149.133 Y93.699 E0.00589
G1 X148.840 Y93.063 E0.02194
G1 X149.133 Y93.063 E0.00918
G1 X149.133 Y81.169 E0.37293
G1 X149.887 Y81.169 E0.02365
G1 X149.887 Y93.063 E0.37293
G1 X150.641 Y93.063 E0.02365
G1 X150.641 Y81.169 E0.37293
G1 X151.148 Y81.169 E0.01590
G1 X151.148 Y85.805 E0.14535
G1 X151.396 Y85.805 E0.00775
G1 X151.396 Y135.784 E1.56705
G1 X152.150 Y135.784 E0.02365
G1 X152.150 Y85.805 E1.56705
G1 X152.904 Y85.805 E0.02365
G1 X152.904 Y135.784 E1.56705
G1 X153.466 Y135.784 E0.01763
G1 X153.466 Y128.831 E0.21802
G1 X153.658 Y128.831 E0.00602
G1 X153.658 Y90.441 E1.20369
G1 X154.412 Y90.441 E0.02365
G1 X154.412 Y128.831 E1.20369
G1 X155.166 Y128.831 E0.02365
G1 X155.166 Y90.441 E1.20369
G1 X155.784 Y90.441 E0.01937
G1 X155.784 Y97.394 E0.21802
G1 X155.921 Y97.394 E0.00428
G1 X155.921 Y121.877 E0.76765
G1 X156.675 Y121.877 E0.02365
G1 X156.675 Y97.394 E0.76765
G1 X157.429 Y97.394 E0.02365
G1 X157.429 Y122.047 E0.77297
;WIPE_START
G1 F8640.000
G1 X157.429 Y118.755 E-0.76000
;WIPE_END
G1 E-0.04000 F2100.000
G1 Z0.600 F10800.000
G1 X150.373 Y116.732
G1 Z0.200
G1 E0.80000 F2100.000
;TYPE:Support material interface
;WIDTH:0.35
G1 F1200.000
G1 X150.373 Y114.271 E0.06283
G1 X150.196 Y114.271 E0.00451
G1 X150.245 Y114.473 E0.00530
G1 X150.222 Y114.669 E0.00503
G1 X149.855 Y115.562 E0.02465
G1 X149.855 Y116.732 E0.02989
;WIPE_START
G1 F8640.000
