; generated by PrusaSlicer 2.3.1+x64 on 2024-07-24 at 18:13:07 UTC

; 

; external perimeters extrusion width = 0.45mm
; perimeters extrusion width = 0.45mm
; infill extrusion width = 0.45mm
; solid infill extrusion width = 0.45mm
; top infill extrusion width = 0.40mm
; support material extrusion width = 0.35mm
; first layer extrusion width = 0.42mm

M73 P0 R52
M73 Q0 S53
M201 X1000 Y1000 Z200 E5000 ; sets maximum accelerations, mm/sec^2
M203 X200 Y200 Z12 E120 ; sets maximum feedrates, mm/sec
M204 P1250 R1250 T1250 ; sets acceleration (P, T) and retract acceleration (R), mm/sec^2
M205 X8.00 Y8.00 Z0.40 E4.50 ; sets the jerk limits, mm/sec
M205 S0 T0 ; sets the minimum extruding and travel feed rate, mm/sec
M107
;TYPE:Custom
M862.3 P "MK3S" ; printer model check
M862.1 P0.4 ; nozzle diameter check
M115 U3.9.3 ; tell printer latest fw version
G90 ; use absolute coordinates
M83 ; extruder relative mode
M104 S230 ; set extruder temp
M140 S50 ; set bed temp
M190 S50 ; wait for bed temp
M109 S230 ; wait for extruder temp
G28 W ; home all without mesh bed level
G80 ; mesh bed leveling
G1 Y-3.0 F1000.0 ; go outside print area
G92 E0.0
G1 X60.0 E9.0 F1000.0 ; intro line
G1 X100.0 E12.5 F1000.0 ; intro line
G92 E0.0
M221 S95

; Don't change E values below. Excessive value can damage the printer.
M907 E430 ; set extruder motor current
G21 ; set units to millimeters
G90 ; use absolute coordinates
M83 ; use relative distances for extrusion
M900 K0
;LAYER_CHANGE
;Z:0.2
;HEIGHT:0.2
;BEFORE_LAYER_CHANGE
G92 E0.0
;0.2


G1 E-1.00000 F2100.000
G1 Z0.200 F10800.000
;AFTER_LAYER_CHANGE
;0.2
G1 X44.910 Y83.072
G1 E1.00000 F1500.000
M204 S1000
;TYPE:Skirt
;WIDTH:0.42
G1 F1200.000
G1 X45.816 Y82.894 E0.03185
G1 X55.045 Y83.071 E0.31835
G1 X196.569 Y94.500 E4.89701
M73 Q0 S52
G1 X197.501 Y94.706 E0.03292
G1 X198.430 Y95.052 E0.03420
G1 X199.311 Y95.531 E0.03459
G1 X200.030 Y96.060 E0.03078
G1 X200.956 Y96.991 E0.04530
G1 X201.483 Y97.711 E0.03078
G1 X201.992 Y98.675 E0.03759
G1 X202.295 Y99.503 E0.03039
G1 X202.481 Y100.329 E0.02921
G1 X202.579 Y101.387 E0.03667
G1 X202.582 Y108.523 E0.24610
G1 X202.500 Y109.570 E0.03622
G1 X202.284 Y110.533 E0.03406
G1 X201.872 Y111.583 E0.03890
G1 X201.459 Y112.327 E0.02934
G1 X200.959 Y113.006 E0.02907
G1 X200.246 Y113.753 E0.03562
G1 X199.353 Y114.442 E0.03890
G1 X198.454 Y114.936 E0.03537
G1 X197.483 Y115.299 E0.03577
G1 X196.431 Y115.520 E0.03708
G1 X55.042 Y127.099 E4.89278
G1 X45.413 Y126.902 E0.33219
G1 X44.658 Y126.637 E0.02759
G1 X44.034 Y126.136 E0.02759
G1 X43.612 Y125.457 E0.02759
G1 X43.439 Y124.672 E0.02772
G1 X43.436 Y85.248 E1.35972
G1 X43.623 Y84.347 E0.03172
G1 X44.140 Y83.582 E0.03185
G1 X44.860 Y83.105 E0.02978
; printing object Smartwatch_WristStrapF.stl id:0 copy 0
G1 X45.813 Y85.271 F10800.000
;TYPE:Support material
G1 F1200.000
G1 X45.813 Y124.559 E1.35504
G1 X46.567 Y124.559 E0.02601
G1 X46.567 Y85.441 E1.34919
G1 X47.322 Y85.441 E0.02601
G1 X47.322 Y124.559 E1.34919
M73 P1 R52
M73 Q1 S52
G1 X48.076 Y124.559 E0.02601
G1 X48.076 Y85.441 E1.34919
G1 X48.830 Y85.441 E0.02601
G1 X48.830 Y88.063 E0.09046
G1 X49.584 Y88.063 E0.02601
G1 X49.584 Y85.441 E0.09046
G1 X50.338 Y85.441 E0.02601
G1 X50.338 Y88.063 E0.09046
G1 X51.092 Y88.063 E0.02601
G1 X51.092 Y85.441 E0.09046
G1 X51.847 Y85.441 E0.02601
G1 X51.847 Y88.233 E0.09631
G1 X48.882 Y88.268 F10800.000
;TYPE:Support material interface
;WIDTH:0.35
G1 F1200.000
G1 X48.882 Y101.682 E0.37677
G1 X49.400 Y101.682 E0.01454
G1 X49.400 Y88.411 E0.37275
G1 X49.918 Y88.411 E0.01454
G1 X49.918 Y91.524 E0.08745
G1 X50.074 Y91.385 E0.00589
G1 X50.436 Y91.289 E0.01050
G1 X50.436 Y88.411 E0.08084
G1 X50.953 Y88.411 E0.01454
G1 X50.953 Y91.601 E0.08960
G1 E-1.00000 F2100.000
G1 X49.918 Y101.825 F10800.000
G1 E1.00000 F1500.000
G1 F1200.000
G1 X49.918 Y97.722 E0.11525
G1 E-1.00000 F2100.000
G1 X54.863 Y96.868 F10800.000
G1 E1.00000 F1500.000
;TYPE:Support material
;WIDTH:0.42
G1 F1200.000
G1 X54.863 Y85.441 E0.39412
G1 X54.109 Y85.441 E0.02601
G1 X54.109 Y96.698 E0.38827
G1 X53.355 Y96.698 E0.02601
G1 X53.355 Y85.441 E0.38827
G1 X52.601 Y85.441 E0.02601
G1 X52.601 Y96.698 E0.38827
G1 X52.477 Y96.698 E0.00426
G1 X52.223 Y96.668 E0.00883
G1 X52.050 Y96.624 E0.00618
G1 X51.847 Y96.612 E0.00701
G1 X51.847 Y96.523 E0.00307
G1 X51.718 Y96.504 E0.00447
G1 X51.337 Y96.471 E0.01321
G1 X51.092 Y96.508 E0.00852
G1 X51.092 Y97.022 E0.01773
G1 X51.471 Y96.276 F10800.000
;TYPE:Support material interface
;WIDTH:0.35
G1 F1200.000
G1 X51.471 Y88.411 E0.22092
G1 X51.989 Y88.411 E0.01454
G1 X51.989 Y96.340 E0.22269
G1 X51.092 Y94.509 F10800.000
;TYPE:Support material
;WIDTH:0.42
G1 F1200.000
G1 X51.092 Y93.900 E0.02103
G1 X51.042 Y93.084 E0.02818
G1 X50.936 Y91.979 E0.03830
G1 X50.870 Y91.800 E0.00656
G1 X50.753 Y91.696 E0.00541
G1 X50.551 Y91.636 E0.00726
G1 X50.449 Y91.636 E0.00350
G1 X50.338 Y91.669 E0.00399
G1 X50.338 Y94.556 E0.09956
G1 X50.338 Y94.651 F10800.000
G1 F1200.000
G1 X50.338 Y115.181 E0.70809
G1 X50.815 Y115.175 E0.01646
G1 X51.000 Y113.471 E0.05912
G1 X51.092 Y113.488 E0.00323
G1 X51.092 Y113.190 E0.01029
G1 X51.360 Y113.306 E0.01005
G1 X51.627 Y113.382 E0.00958
G1 X51.847 Y113.397 E0.00759
G1 X51.847 Y113.650 E0.00872
G1 E-1.00000 F2100.000
G1 X51.092 Y118.097 F10800.000
G1 E1.00000 F1500.000
G1 F1200.000
G1 X51.092 Y115.665 E0.08387
G1 X50.575 Y115.633 E0.01789
G1 X50.574 Y115.612 E0.00072
G1 X50.338 Y115.625 E0.00813
G1 X50.338 Y118.508 E0.09941
G1 E-1.00000 F2100.000
G1 X51.989 Y121.732 F10800.000
G1 E1.00000 F1500.000
;TYPE:Support material interface
;WIDTH:0.35
G1 F1200.000
G1 X51.989 Y113.806 E0.22262
G1 X51.471 Y113.868 E0.01465
G1 X51.471 Y121.589 E0.21686
M73 P1 R51
G1 X50.953 Y121.589 E0.01454
G1 X50.953 Y118.590 E0.08422
G1 X50.926 Y118.615 E0.00104
G1 X50.601 Y118.711 E0.00951
G1 X50.436 Y118.711 E0.00465
G1 X50.436 Y121.589 E0.08083
G1 X49.918 Y121.589 E0.01454
G1 X49.918 Y118.476 E0.08745
G1 X49.841 Y118.407 E0.00288
G1 X49.720 Y118.077 E0.00989
G1 X49.550 Y116.070 E0.05656
G1 X49.508 Y115.324 E0.02100
G1 X49.860 Y115.304 E0.00991
G1 X49.727 Y114.309 E0.02818
G1 X49.658 Y113.505 E0.02267
G1 X49.658 Y112.148 E0.03814
G1 X49.918 Y112.148 E0.00729
G1 X49.918 Y111.370 E0.02184
G1 X49.846 Y111.159 E0.00626
G1 X49.847 Y108.318 E0.07980
G1 X49.400 Y108.318 E0.01257
G1 X49.400 Y121.589 E0.37275
G1 X48.882 Y121.589 E0.01454
G1 X48.882 Y108.175 E0.37677
G1 X49.584 Y108.140 F10800.000
;TYPE:Support material
;WIDTH:0.42
G1 F1200.000
G1 X49.584 Y102.030 E0.21074
G1 X48.830 Y102.030 E0.02601
G1 X48.830 Y107.970 E0.20489
G1 X48.343 Y107.970 E0.01680
G1 X48.343 Y118.430 E0.36076
G1 X48.343 Y121.937 E0.12094
G1 X48.830 Y121.937 E0.01680
G1 X48.830 Y124.559 E0.09046
G1 X49.584 Y124.559 E0.02601
G1 X49.584 Y121.937 E0.09046
G1 X50.338 Y121.937 E0.02601
G1 X50.338 Y124.559 E0.09046
G1 X51.092 Y124.559 E0.02601
G1 X51.092 Y121.937 E0.09046
G1 X51.847 Y121.937 E0.02601
G1 X51.847 Y124.559 E0.09046
G1 X52.601 Y124.559 E0.02601
G1 X52.601 Y113.302 E0.38827
G1 X53.355 Y113.302 E0.02601
G1 X53.355 Y124.559 E0.38827
G1 X54.109 Y124.559 E0.02601
G1 X54.109 Y113.302 E0.38827
G1 X54.863 Y113.302 E0.02601
G1 X54.863 Y124.729 E0.39412
G1 E-1.00000 F2100.000
G1 X119.610 Y109.423 F10800.000
G1 E1.00000 F1500.000
;TYPE:Perimeter
G1 F1200.000
G1 X119.572 Y109.039 E0.01331
G1 X119.572 Y100.961 E0.27859
G1 X119.610 Y100.577 E0.01331
G1 X119.733 Y100.171 E0.01465
G1 X119.933 Y99.796 E0.01465
G1 X120.203 Y99.468 E0.01465
G1 X120.531 Y99.198 E0.01465
G1 X120.906 Y98.998 E0.01465
G1 X121.313 Y98.875 E0.01465
G1 X121.697 Y98.837 E0.01331
G1 X122.774 Y98.837 E0.03716
G1 X123.158 Y98.875 E0.01331
G1 X123.565 Y98.998 E0.01465
G1 X123.939 Y99.198 E0.01465
G1 X124.268 Y99.468 E0.01465
G1 X124.537 Y99.796 E0.01465
G1 X124.737 Y100.171 E0.01465
G1 X124.861 Y100.577 E0.01465
G1 X124.899 Y100.961 E0.01331
G1 X124.899 Y109.039 E0.27858
G1 X124.861 Y109.423 E0.01331
G1 X124.737 Y109.829 E0.01465
G1 X124.537 Y110.204 E0.01465
G1 X124.268 Y110.532 E0.01465
G1 X123.939 Y110.802 E0.01465
G1 X123.565 Y111.002 E0.01465
G1 X123.158 Y111.125 E0.01465
G1 X122.774 Y111.163 E0.01331
G1 X121.697 Y111.163 E0.03716
G1 X121.313 Y111.125 E0.01331
G1 X120.906 Y111.002 E0.01465
G1 X120.531 Y110.802 E0.01465
G1 X120.203 Y110.532 E0.01465
G1 X119.933 Y110.204 E0.01465
G1 X119.733 Y109.829 E0.01465
G1 X119.627 Y109.480 E0.01258
G1 X119.988 Y109.371 F10800.000
;TYPE:External perimeter
G1 F1200.000
G1 X119.949 Y109.020 E0.01217
G1 X119.949 Y100.980 E0.27731
G1 X119.982 Y100.651 E0.01139
G1 X120.083 Y100.316 E0.01209
G1 X120.249 Y100.007 E0.01209
G1 X120.471 Y99.736 E0.01209
G1 X120.742 Y99.513 E0.01209
G1 X121.051 Y99.348 E0.01209
G1 X121.386 Y99.246 E0.01209
G1 X121.715 Y99.214 E0.01139
G1 X122.755 Y99.214 E0.03588
G1 X123.084 Y99.246 E0.01139
G1 X123.420 Y99.348 E0.01209
G1 X123.729 Y99.513 E0.01209
G1 X124.000 Y99.736 E0.01209
G1 X124.222 Y100.007 E0.01209
G1 X124.387 Y100.316 E0.01209
G1 X124.489 Y100.651 E0.01209
G1 X124.521 Y100.980 E0.01139
G1 X124.521 Y109.020 E0.27731
G1 X124.489 Y109.349 E0.01139
G1 X124.387 Y109.684 E0.01209
G1 X124.222 Y109.993 E0.01209
G1 X124.000 Y110.264 E0.01209
G1 X123.729 Y110.487 E0.01209
G1 X123.420 Y110.652 E0.01209
G1 X123.084 Y110.754 E0.01209
G1 X122.755 Y110.786 E0.01139
G1 X121.715 Y110.786 E0.03588
G1 X121.386 Y110.754 E0.01139
G1 X121.051 Y110.652 E0.01209
G1 X120.742 Y110.487 E0.01209
G1 X120.471 Y110.264 E0.01209
G1 X120.249 Y109.993 E0.01209
G1 X120.083 Y109.684 E0.01209
G1 X120.006 Y109.428 E0.00923
G1 X119.653 Y109.261 F10800.000
G1 X117.331 Y109.423
;TYPE:Perimeter
G1 F1200.000
G1 X117.208 Y109.829 E0.01465
G1 X117.008 Y110.204 E0.01465
G1 X116.738 Y110.532 E0.01465
G1 X116.410 Y110.802 E0.01465
G1 X116.035 Y111.002 E0.01465
G1 X115.629 Y111.125 E0.01465
G1 X115.245 Y111.163 E0.01331
G1 X114.167 Y111.163 E0.03716
G1 X113.783 Y111.125 E0.01331
G1 X113.377 Y111.002 E0.01465
G1 X113.002 Y110.802 E0.01465
G1 X112.674 Y110.532 E0.01465
G1 X112.404 Y110.204 E0.01465
G1 X112.204 Y109.829 E0.01465
G1 X112.080 Y109.423 E0.01465
G1 X112.043 Y109.039 E0.01331
G1 X112.043 Y100.961 E0.27859
G1 X112.080 Y100.577 E0.01331
G1 X112.204 Y100.171 E0.01465
G1 X112.404 Y99.796 E0.01465
G1 X112.674 Y99.468 E0.01465
G1 X113.002 Y99.198 E0.01465
G1 X113.377 Y98.998 E0.01465
G1 X113.783 Y98.875 E0.01465
G1 X114.167 Y98.837 E0.01331
G1 X115.245 Y98.837 E0.03716
G1 X115.629 Y98.875 E0.01331
G1 X116.035 Y98.998 E0.01465
G1 X116.410 Y99.198 E0.01465
G1 X116.738 Y99.468 E0.01465
G1 X117.008 Y99.796 E0.01465
G1 X117.208 Y100.171 E0.01465
G1 X117.331 Y100.577 E0.01465
G1 X117.369 Y100.961 E0.01331
G1 X117.369 Y109.039 E0.27858
G1 X117.337 Y109.363 E0.01124
G1 X116.962 Y109.326 F10800.000
;TYPE:External perimeter
G1 F1200.000
G1 X116.858 Y109.684 E0.01286
G1 X116.693 Y109.993 E0.01209
G1 X116.470 Y110.264 E0.01209
G1 X116.199 Y110.487 E0.01209
G1 X115.890 Y110.652 E0.01209
G1 X115.555 Y110.754 E0.01209
G1 X115.226 Y110.786 E0.01139
G1 X114.186 Y110.786 E0.03588
G1 X113.857 Y110.754 E0.01139
G1 X113.522 Y110.652 E0.01209
G1 X113.212 Y110.487 E0.01209
G1 X112.941 Y110.264 E0.01209
G1 X112.719 Y109.993 E0.01209
G1 X112.554 Y109.684 E0.01209
G1 X112.452 Y109.349 E0.01209
G1 X112.420 Y109.020 E0.01139
G1 X112.420 Y100.980 E0.27731
G1 X112.452 Y100.651 E0.01139
G1 X112.554 Y100.316 E0.01209
G1 X112.719 Y100.007 E0.01209
G1 X112.941 Y99.736 E0.01209
G1 X113.212 Y99.513 E0.01209
G1 X113.522 Y99.348 E0.01209
G1 X113.857 Y99.246 E0.01209
G1 X114.186 Y99.214 E0.01139
G1 X115.226 Y99.214 E0.03588
G1 X115.555 Y99.246 E0.01139
G1 X115.890 Y99.348 E0.01209
G1 X116.199 Y99.513 E0.01209
G1 X116.470 Y99.736 E0.01209
G1 X116.693 Y100.007 E0.01209
G1 X116.858 Y100.316 E0.01209
G1 X116.960 Y100.651 E0.01209
G1 X116.992 Y100.980 E0.01139
G1 X116.992 Y109.020 E0.27731
G1 X116.968 Y109.266 E0.00853
G1 X117.244 Y109.570 F10800.000
G1 E-1.00000 F2100.000
G1 X109.802 Y109.423 F10800.000
G1 E1.00000 F1500.000
;TYPE:Perimeter
G1 F1200.000
G1 X109.679 Y109.829 E0.01465
G1 X109.478 Y110.204 E0.01465
G1 X109.209 Y110.532 E0.01465
G1 X108.880 Y110.802 E0.01465
G1 X108.506 Y111.002 E0.01465
G1 X108.099 Y111.125 E0.01465
G1 X107.715 Y111.163 E0.01331
G1 X106.638 Y111.163 E0.03716
G1 X106.254 Y111.125 E0.01331
G1 X105.847 Y111.002 E0.01465
G1 X105.473 Y110.802 E0.01465
G1 X105.144 Y110.532 E0.01465
G1 X104.875 Y110.204 E0.01465
G1 X104.674 Y109.829 E0.01465
G1 X104.551 Y109.423 E0.01465
G1 X104.513 Y109.039 E0.01331
G1 X104.513 Y100.961 E0.27858
G1 X104.551 Y100.577 E0.01331
G1 X104.674 Y100.171 E0.01465
G1 X104.875 Y99.796 E0.01465
G1 X105.144 Y99.468 E0.01465
G1 X105.473 Y99.198 E0.01465
G1 X105.847 Y98.998 E0.01465
G1 X106.254 Y98.875 E0.01465
G1 X106.638 Y98.837 E0.01331
G1 X107.715 Y98.837 E0.03716
G1 X108.099 Y98.875 E0.01331
G1 X108.506 Y98.998 E0.01465
G1 X108.880 Y99.198 E0.01465
G1 X109.209 Y99.468 E0.01465
G1 X109.478 Y99.796 E0.01465
G1 X109.679 Y100.171 E0.01465
G1 X109.802 Y100.577 E0.01465
G1 X109.840 Y100.961 E0.01331
G1 X109.840 Y109.039 E0.27859
G1 X109.808 Y109.363 E0.01124
G1 X109.432 Y109.326 F10800.000
;TYPE:External perimeter
G1 F1200.000
G1 X109.329 Y109.684 E0.01286
G1 X109.163 Y109.993 E0.01209
G1 X108.941 Y110.264 E0.01209
G1 X108.670 Y110.487 E0.01209
G1 X108.361 Y110.652 E0.01209
G1 X108.025 Y110.754 E0.01209
G1 X107.697 Y110.786 E0.01139
G1 X106.656 Y110.786 E0.03588
G1 X106.328 Y110.754 E0.01139
G1 X105.992 Y110.652 E0.01209
G1 X105.683 Y110.487 E0.01209
G1 X105.412 Y110.264 E0.01209
G1 X105.190 Y109.993 E0.01209
G1 X105.024 Y109.684 E0.01209
G1 X104.923 Y109.349 E0.01209
G1 X104.890 Y109.020 E0.01139
G1 X104.890 Y100.980 E0.27731
G1 X104.923 Y100.651 E0.01139
G1 X105.024 Y100.316 E0.01209
G1 X105.190 Y100.007 E0.01209
G1 X105.412 Y99.736 E0.01209
G1 X105.683 Y99.513 E0.01209
G1 X105.992 Y99.348 E0.01209
G1 X106.328 Y99.246 E0.01209
G1 X106.656 Y99.214 E0.01139
G1 X107.697 Y99.214 E0.03588
G1 X108.025 Y99.246 E0.01139
G1 X108.361 Y99.348 E0.01209
G1 X108.670 Y99.513 E0.01209
G1 X108.941 Y99.736 E0.01209
G1 X109.163 Y100.007 E0.01209
G1 X109.329 Y100.316 E0.01209
G1 X109.430 Y100.651 E0.01209
G1 X109.463 Y100.980 E0.01139
G1 X109.463 Y109.020 E0.27731
G1 X109.438 Y109.266 E0.00853
G1 X109.715 Y109.570 F10800.000
G1 E-1.00000 F2100.000
G1 X102.272 Y109.423 F10800.000
G1 E1.00000 F1500.000
;TYPE:Perimeter
G1 F1200.000
G1 X102.149 Y109.829 E0.01465
G1 X101.949 Y110.204 E0.01465
G1 X101.679 Y110.532 E0.01465
G1 X101.351 Y110.802 E0.01465
G1 X100.976 Y111.002 E0.01465
G1 X100.570 Y111.125 E0.01465
G1 X100.186 Y111.163 E0.01331
G1 X99.108 Y111.163 E0.03716
G1 X98.724 Y111.125 E0.01331
G1 X98.318 Y111.002 E0.01465
G1 X97.943 Y110.802 E0.01465
G1 X97.615 Y110.532 E0.01465
G1 X97.345 Y110.204 E0.01465
G1 X97.145 Y109.829 E0.01465
G1 X97.022 Y109.423 E0.01465
G1 X96.984 Y109.039 E0.01331
G1 X96.984 Y100.961 E0.27858
M73 P2 R51
M73 Q2 S52
G1 X97.022 Y100.577 E0.01331
G1 X97.145 Y100.171 E0.01465
G1 X97.345 Y99.796 E0.01465
G1 X97.615 Y99.468 E0.01465
G1 X97.943 Y99.198 E0.01465
G1 X98.318 Y98.998 E0.01465
G1 X98.724 Y98.875 E0.01465
G1 X99.108 Y98.837 E0.01331
G1 X100.186 Y98.837 E0.03716
G1 X100.570 Y98.875 E0.01331
G1 X100.976 Y98.998 E0.01465
G1 X101.351 Y99.198 E0.01465
G1 X101.679 Y99.468 E0.01465
G1 X101.949 Y99.796 E0.01465
G1 X102.149 Y100.171 E0.01465
G1 X102.272 Y100.577 E0.01465
G1 X102.310 Y100.961 E0.01331
G1 X102.310 Y109.039 E0.27858
G1 X102.278 Y109.363 E0.01124
G1 X101.903 Y109.326 F10800.000
;TYPE:External perimeter
G1 F1200.000
G1 X101.799 Y109.684 E0.01286
G1 X101.634 Y109.993 E0.01209
G1 X101.411 Y110.264 E0.01209
G1 X101.140 Y110.487 E0.01209
G1 X100.831 Y110.652 E0.01209
G1 X100.496 Y110.754 E0.01209
G1 X100.167 Y110.786 E0.01139
G1 X99.127 Y110.786 E0.03588
G1 X98.798 Y110.754 E0.01139
G1 X98.463 Y110.652 E0.01209
G1 X98.154 Y110.487 E0.01209
G1 X97.883 Y110.264 E0.01209
G1 X97.660 Y109.993 E0.01209
G1 X97.495 Y109.684 E0.01209
G1 X97.393 Y109.349 E0.01209
G1 X97.361 Y109.020 E0.01139
G1 X97.361 Y100.980 E0.27731
G1 X97.393 Y100.651 E0.01139
G1 X97.495 Y100.316 E0.01209
G1 X97.660 Y100.007 E0.01209
G1 X97.883 Y99.736 E0.01209
G1 X98.154 Y99.513 E0.01209
