; generated by PrusaSlicer 2.3.1+x64 on 2024-07-24 at 21:16:10 UTC

; 

; external perimeters extrusion width = 0.45mm
; perimeters extrusion width = 0.45mm
; infill extrusion width = 0.45mm
; solid infill extrusion width = 0.45mm
; top infill extrusion width = 0.40mm
; support material extrusion width = 0.35mm
; first layer extrusion width = 0.42mm

M73 P0 R120
M73 Q0 S121
M201 X1000 Y1000 Z200 E5000 ; sets maximum accelerations, mm/sec^2
M203 X200 Y200 Z12 E120 ; sets maximum feedrates, mm/sec
M204 P1250 R1250 T1250 ; sets acceleration (P, T) and retract acceleration (R), mm/sec^2
M205 X8.00 Y8.00 Z0.40 E4.50 ; sets the jerk limits, mm/sec
M205 S0 T0 ; sets the minimum extruding and travel feed rate, mm/sec
M107
;TYPE:Custom
M862.3 P "MK3S" ; printer model check
M862.1 P0.4 ; nozzle diameter check
M115 U3.9.3 ; tell printer latest fw version
G90 ; use absolute coordinates
M83 ; extruder relative mode
M104 S215 ; set extruder temp
M140 S60 ; set bed temp
M190 S60 ; wait for bed temp
M109 S215 ; wait for extruder temp
G28 W ; home all without mesh bed level
G80 ; mesh bed leveling
G1 Y-3.0 F1000.0 ; go outside print area
G92 E0.0
G1 X60.0 E9.0 F1000.0 ; intro line
G1 X100.0 E12.5 F1000.0 ; intro line
G92 E0.0
M221 S95

; Don't change E values below. Excessive value can damage the printer.
M907 E430 ; set extruder motor current
G21 ; set units to millimeters
G90 ; use absolute coordinates
M83 ; use relative distances for extrusion
M900 K0.05 ; Filament gcode LA 1.5
M900 K30 ; Filament gcode LA 1.0
;LAYER_CHANGE
;Z:0.2
;HEIGHT:0.2
;BEFORE_LAYER_CHANGE
G92 E0.0
;0.2


G1 E-0.80000 F2100.000
G1 Z0.400 F10800.000
;AFTER_LAYER_CHANGE
;0.2
G1 X90.348 Y91.064
G1 Z0.200
G1 E0.80000 F2100.000
M204 S1000
;TYPE:Skirt
;WIDTH:0.42
G1 F1200.000
G1 X93.338 Y84.425 E0.22830
G1 X93.799 Y83.767 E0.02520
G1 X100.754 Y76.897 E0.30652
G1 X104.673 Y73.622 E0.16014
G1 X111.208 Y70.000 E0.23426
G1 X111.674 Y69.847 E0.01538
G1 X112.161 Y69.792 E0.01538
G1 X137.924 Y69.792 E0.80777
G1 X138.453 Y69.852 E0.01669
G1 X138.955 Y70.028 E0.01668
G1 X145.653 Y73.377 E0.23480
G1 X146.227 Y73.794 E0.02225
G1 X156.292 Y83.986 E0.44913
G1 X156.569 Y84.441 E0.01669
G1 X159.604 Y91.117 E0.22994
G1 X159.754 Y91.584 E0.01538
G1 X159.806 Y92.071 E0.01538
G1 X159.806 Y118.105 E0.81626
G1 X159.652 Y118.936 E0.02649
G1 X156.662 Y125.575 E0.22830
G1 X156.206 Y126.227 E0.02496
G1 X146.038 Y136.374 E0.45038
G1 X138.876 Y140.008 E0.25183
G1 X137.929 Y140.208 E0.03036
G1 X112.164 Y140.208 E0.80784
G1 X111.337 Y140.053 E0.02637
M73 Q0 S120
G1 X104.735 Y136.425 E0.23622
G1 X100.530 Y132.959 E0.17086
G1 X97.113 Y129.547 E0.15139
G1 X93.576 Y125.825 E0.16100
G1 X90.386 Y118.859 E0.24025
G1 X90.194 Y117.929 E0.02977
G1 X90.194 Y91.895 E0.81626
G1 X90.337 Y91.123 E0.02461
; printing object Smartwatch_Base1.stl id:0 copy 0
;WIPE_START
G1 F8640.000
G1 X91.683 Y88.120 E-0.76000
;WIPE_END
G1 E-0.04000 F2100.000
G1 Z0.600 F10800.000
G1 X92.571 Y91.907
G1 Z0.200
G1 E0.80000 F2100.000
;TYPE:Support material
G1 F1200.000
G1 X92.571 Y117.924 E0.81575
G1 X93.325 Y117.924 E0.02365
G1 X93.325 Y92.076 E0.81043
G1 X94.079 Y92.076 E0.02365
G1 X94.079 Y117.924 E0.81043
G1 X94.834 Y117.924 E0.02365
G1 X94.834 Y92.076 E0.81043
G1 X95.487 Y92.076 E0.02049
G1 X95.487 Y85.441 E0.20806
G1 X95.588 Y85.441 E0.00315
G1 X95.588 Y124.559 E1.22654
G1 X96.342 Y124.559 E0.02365
G1 X96.342 Y85.441 E1.22654
G1 X97.096 Y85.441 E0.02365
G1 X97.096 Y124.559 E1.22654
G1 X97.850 Y124.559 E0.02365
G1 X97.850 Y85.441 E1.22654
G1 X98.604 Y85.441 E0.02365
G1 X98.604 Y88.063 E0.08224
G1 X99.359 Y88.063 E0.02365
G1 X99.359 Y82.123 E0.18626
G1 X100.113 Y82.123 E0.02365
G1 X100.113 Y88.063 E0.18626
G1 X100.867 Y88.063 E0.02365
G1 X100.867 Y82.123 E0.18626
G1 X101.621 Y82.123 E0.02365
G1 X101.621 Y88.063 E0.18626
G1 X102.123 Y88.063 E0.01573
G1 X102.123 Y89.847 E0.05592
G1 X101.621 Y90.624 E0.02900
G1 X101.621 Y92.069 E0.04532
G1 X101.249 Y92.736 E0.02395
G1 X100.867 Y93.538 E0.02786
G1 X100.867 Y91.661 E0.05887
G1 X100.641 Y92.076 E0.01483
G1 X100.113 Y92.076 E0.01656
G1 X100.113 Y117.924 E0.81043
G1 X99.359 Y117.924 E0.02365
G1 X99.359 Y92.076 E0.81043
G1 X98.604 Y92.076 E0.02365
G1 X98.604 Y117.924 E0.81043
M73 P0 R119
G1 X98.110 Y117.924 E0.01550
G1 X98.110 Y121.937 E0.12582
G1 X98.604 Y121.937 E0.01550
G1 X98.604 Y124.559 E0.08223
G1 X98.805 Y124.559 E0.00629
G1 X98.805 Y127.877 E0.10403
G1 X99.359 Y127.877 E0.01736
G1 X99.359 Y121.937 E0.18626
G1 X100.113 Y121.937 E0.02365
G1 X100.113 Y127.877 E0.18626
G1 X100.867 Y127.877 E0.02365
G1 X100.867 Y121.937 E0.18626
G1 X101.621 Y121.937 E0.02365
G1 X101.621 Y127.877 E0.18626
G1 X102.123 Y127.877 E0.01573
G1 X102.123 Y131.195 E0.10403
G1 X102.375 Y131.195 E0.00791
G1 X102.375 Y119.213 E0.37569
G1 X103.129 Y120.360 E0.04303
G1 X103.129 Y131.195 E0.33974
G1 X103.884 Y131.195 E0.02365
G1 X103.884 Y121.377 E0.30783
G1 X104.054 Y121.606 E0.00896
G1 X104.638 Y122.296 E0.02832
G1 X104.638 Y131.195 E0.27902
G1 X105.392 Y131.195 E0.02365
G1 X105.392 Y123.154 E0.25212
G1 X106.146 Y123.937 E0.03409
G1 X106.146 Y134.513 E0.33159
G1 X106.900 Y134.513 E0.02365
G1 X106.900 Y124.652 E0.30919
G1 X107.654 Y125.336 E0.03194
G1 X107.654 Y134.513 E0.28772
G1 X108.408 Y134.513 E0.02365
G1 X108.409 Y125.941 E0.26877
G1 X109.163 Y126.525 E0.02991
G1 X109.163 Y134.513 E0.25045
G1 X109.917 Y134.513 E0.02365
G1 X109.917 Y127.054 E0.23387
G1 X110.364 Y127.367 E0.01713
G1 X110.671 Y127.555 E0.01127
G1 X110.671 Y134.513 E0.21817
G1 X111.425 Y134.513 E0.02365
G1 X111.425 Y128.014 E0.20377
G1 X111.833 Y128.262 E0.01496
G1 X112.179 Y128.444 E0.01228
G1 X112.179 Y137.831 E0.29430
G1 X112.933 Y137.831 E0.02365
G1 X112.933 Y128.839 E0.28192
G1 X113.356 Y129.060 E0.01494
G1 X113.688 Y129.209 E0.01140
G1 X113.688 Y137.831 E0.27033
G1 X114.442 Y137.831 E0.02365
G1 X114.442 Y129.544 E0.25982
G1 X115.196 Y129.859 E0.02563
G1 X115.196 Y137.831 E0.24993
G1 X115.950 Y137.831 E0.02365
G1 X115.950 Y130.138 E0.24119
G1 X116.704 Y130.405 E0.02509
G1 X116.704 Y137.831 E0.23281
G1 X117.458 Y137.831 E0.02365
G1 X117.458 Y130.630 E0.22576
G1 X118.213 Y130.854 E0.02466
G1 X118.213 Y137.831 E0.21875
G1 X118.967 Y137.831 E0.02365
G1 X118.967 Y131.026 E0.21334
G1 X119.721 Y131.199 E0.02426
G1 X119.721 Y137.831 E0.20792
G1 X120.475 Y137.831 E0.02365
G1 X120.475 Y131.332 E0.20377
G1 X121.229 Y131.454 E0.02396
G1 X121.229 Y137.831 E0.19993
G1 X121.983 Y137.831 E0.02365
G1 X121.983 Y131.549 E0.19694
G1 X122.738 Y131.622 E0.02376
G1 X122.738 Y137.831 E0.19465
G1 X123.492 Y137.831 E0.02365
G1 X123.492 Y131.682 E0.19279
G1 X124.246 Y131.706 E0.02366
G1 X124.246 Y137.831 E0.19203
G1 X125.000 Y137.831 E0.02365
G1 X125.000 Y131.730 E0.19128
G1 X125.754 Y131.706 E0.02366
G1 X125.754 Y137.831 E0.19203
G1 X126.508 Y137.831 E0.02365
G1 X126.508 Y131.682 E0.19279
G1 X127.262 Y131.622 E0.02372
G1 X127.262 Y137.831 E0.19465
G1 X128.017 Y137.831 E0.02365
G1 X128.017 Y131.549 E0.19694
G1 X128.771 Y131.454 E0.02383
G1 X128.771 Y137.831 E0.19993
G1 X129.525 Y137.831 E0.02365
G1 X129.525 Y131.332 E0.20377
G1 X130.279 Y131.199 E0.02401
G1 X130.279 Y137.831 E0.20792
G1 X131.033 Y137.831 E0.02365
G1 X131.033 Y131.026 E0.21334
G1 X131.787 Y130.854 E0.02426
G1 X131.787 Y137.831 E0.21875
G1 X132.542 Y137.831 E0.02365
G1 X132.542 Y130.630 E0.22576
G1 X133.296 Y130.405 E0.02467
G1 X133.296 Y137.831 E0.23281
G1 X134.050 Y137.831 E0.02365
G1 X134.050 Y130.138 E0.24119
G1 X134.804 Y129.859 E0.02521
G1 X134.804 Y137.831 E0.24993
G1 X135.558 Y137.831 E0.02365
G1 X135.558 Y129.544 E0.25982
G1 X136.312 Y129.209 E0.02588
G1 X136.312 Y137.831 E0.27033
G1 X137.067 Y137.831 E0.02365
G1 X137.067 Y128.839 E0.28192
G1 X137.821 Y128.444 E0.02669
G1 X137.821 Y137.831 E0.29430
G1 X137.924 Y137.831 E0.00323
G1 X137.924 Y134.513 E0.10403
G1 X138.575 Y134.513 E0.02042
G1 X138.575 Y128.014 E0.20377
G1 X139.329 Y127.555 E0.02768
G1 X139.329 Y134.513 E0.21817
G1 X140.083 Y134.513 E0.02365
G1 X140.083 Y127.054 E0.23387
G1 X140.837 Y126.525 E0.02887
G1 X140.837 Y134.513 E0.25045
G1 X141.591 Y134.513 E0.02365
G1 X141.591 Y125.941 E0.26877
G1 X142.346 Y125.336 E0.03030
G1 X142.346 Y134.513 E0.28772
G1 X143.100 Y134.513 E0.02365
G1 X143.100 Y124.652 E0.30919
G1 X143.642 Y124.157 E0.02300
G1 X143.854 Y123.937 E0.00958
G1 X143.854 Y134.513 E0.33159
G1 X144.559 Y134.513 E0.02212
G1 X144.559 Y131.195 E0.10403
G1 X144.608 Y131.195 E0.00153
G1 X144.608 Y123.154 E0.25212
G1 X144.847 Y122.905 E0.01082
G1 X145.362 Y122.296 E0.02501
G1 X145.362 Y131.195 E0.27902
G1 X146.116 Y131.195 E0.02365
G1 X146.116 Y121.377 E0.30783
G1 X146.871 Y120.360 E0.03971
G1 X146.871 Y131.195 E0.33973
G1 X147.625 Y131.195 E0.02365
G1 X147.625 Y119.213 E0.37569
G1 X147.913 Y118.765 E0.01669
G1 X148.379 Y117.931 E0.02996
G1 X148.379 Y119.376 E0.04532
G1 X147.877 Y120.153 E0.02900
G1 X147.877 Y121.937 E0.05592
G1 X148.379 Y121.937 E0.01573
G1 X148.379 Y127.877 E0.18626
G1 X149.133 Y127.877 E0.02365
G1 X149.133 Y121.937 E0.18626
G1 X149.887 Y121.937 E0.02365
G1 X149.887 Y127.877 E0.18626
G1 X150.641 Y127.877 E0.02365
G1 X150.641 Y121.937 E0.18626
G1 X151.396 Y121.937 E0.02365
G1 X151.396 Y124.559 E0.08224
G1 X152.150 Y124.559 E0.02365
G1 X152.150 Y85.441 E1.22654
M73 P1 R119
M73 Q1 S120
G1 X152.904 Y85.441 E0.02365
G1 X152.904 Y124.559 E1.22654
G1 X153.658 Y124.559 E0.02365
G1 X153.658 Y85.441 E1.22654
M73 Q1 S119
G1 X154.412 Y85.441 E0.02365
G1 X154.412 Y124.559 E1.22654
G1 X154.513 Y124.559 E0.00315
G1 X154.513 Y117.924 E0.20806
G1 X155.166 Y117.924 E0.02049
G1 X155.166 Y92.076 E0.81043
G1 X155.921 Y92.076 E0.02365
G1 X155.921 Y117.924 E0.81043
G1 X156.675 Y117.924 E0.02365
G1 X156.675 Y92.076 E0.81043
G1 X157.429 Y92.076 E0.02365
G1 X157.429 Y118.093 E0.81575
;WIPE_START
G1 F8640.000
G1 X157.429 Y114.802 E-0.76000
;WIPE_END
G1 E-0.04000 F2100.000
G1 Z0.600 F10800.000
G1 X146.871 Y113.553
G1 Z0.200
G1 E0.80000 F2100.000
G1 F1200.000
G1 X146.871 Y96.664 E0.52955
G1 X146.959 Y96.592 E0.00360
G1 X147.190 Y96.468 E0.00819
G1 X147.440 Y96.392 E0.00819
G1 X147.625 Y96.374 E0.00582
G1 X147.625 Y113.626 E0.54091
G1 X148.379 Y113.636 E0.02365
G1 X148.379 Y96.364 E0.54155
G1 X148.696 Y96.363 E0.00993
G1 X149.133 Y96.322 E0.01378
G1 X149.133 Y113.852 E0.54964
;WIPE_START
G1 F8640.000
G1 X149.133 Y110.560 E-0.76000
;WIPE_END
G1 E-0.04000 F2100.000
G1 Z0.600 F10800.000
G1 X149.133 Y116.067
G1 Z0.200
G1 E0.80000 F2100.000
G1 F1200.000
G1 X149.133 Y118.687 E0.08215
;WIPE_START
G1 F8640.000
G1 X149.133 Y116.067 E-0.60499
;WIPE_END
G1 E-0.19501 F2100.000
G1 Z0.600 F10800.000
G1 X148.301 Y119.873
G1 Z0.200
G1 E0.80000 F2100.000
;TYPE:Support material interface
;WIDTH:0.35
G1 F1200.000
G1 X148.301 Y121.589 E0.04381
G1 X148.819 Y121.589 E0.01322
G1 X148.819 Y119.649 E0.04955
G1 X149.337 Y118.687 E0.02789
G1 X149.337 Y121.589 E0.07410
G1 X149.855 Y121.589 E0.01322
G1 X149.855 Y118.271 E0.08472
G1 X150.373 Y118.271 E0.01322
G1 X150.373 Y121.589 E0.08472
G1 X150.890 Y121.589 E0.01322
G1 X150.890 Y118.271 E0.08472
G1 X151.408 Y118.271 E0.01322
G1 X151.408 Y121.732 E0.08837
;WIPE_START
G1 F8640.000
G1 X151.408 Y118.441 E-0.76000
;WIPE_END
G1 E-0.04000 F2100.000
G1 Z0.600 F10800.000
G1 X151.396 Y118.093
G1 Z0.200
G1 E0.80000 F2100.000
;TYPE:Support material
;WIDTH:0.42
G1 F1200.000
G1 X151.396 Y92.076 E0.81575
G1 X150.641 Y92.076 E0.02365
G1 X150.641 Y117.924 E0.81043
G1 X149.887 Y117.924 E0.02365
G1 X149.887 Y92.076 E0.81043
G1 X149.359 Y92.076 E0.01656
G1 X149.133 Y91.657 E0.01493
G1 X149.133 Y93.538 E0.05899
G1 X148.751 Y92.736 E0.02786
G1 X148.379 Y92.069 E0.02395
G1 X148.379 Y90.624 E0.04532
G1 X147.877 Y89.847 E0.02900
G1 X147.877 Y88.063 E0.05591
G1 X148.379 Y88.063 E0.01573
G1 X148.379 Y82.123 E0.18626
G1 X149.133 Y82.123 E0.02365
G1 X149.133 Y88.063 E0.18626
G1 X149.887 Y88.063 E0.02365
G1 X149.887 Y82.123 E0.18626
G1 X150.641 Y82.123 E0.02365
G1 X150.641 Y88.063 E0.18626
G1 X151.396 Y88.063 E0.02365
G1 X151.396 Y85.271 E0.08755
;WIPE_START
G1 F8640.000
G1 X151.396 Y88.063 E-0.64478
G1 X150.897 Y88.063 E-0.11522
;WIPE_END
G1 E-0.04000 F2100.000
G1 Z0.600 F10800.000
M73 P1 R118
G1 X151.408 Y91.872
G1 Z0.200
G1 E0.80000 F2100.000
;TYPE:Support material interface
;WIDTH:0.35
G1 F1200.000
G1 X151.408 Y88.411 E0.08837
G1 X150.890 Y88.411 E0.01322
G1 X150.890 Y91.729 E0.08472
G1 X150.373 Y91.729 E0.01322
G1 X150.373 Y88.411 E0.08472
G1 X149.855 Y88.411 E0.01322
G1 X149.855 Y91.729 E0.08472
G1 X149.567 Y91.729 E0.00736
G1 X149.337 Y91.304 E0.01234
G1 X149.337 Y88.411 E0.07386
G1 X148.819 Y88.411 E0.01322
G1 X148.819 Y90.368 E0.04997
G1 X148.808 Y90.347 E0.00061
G1 X148.642 Y90.390 E0.00437
G1 X148.301 Y89.863 E0.01602
G1 X148.301 Y88.268 E0.04073
;WIPE_START
G1 F8640.000
G1 X148.301 Y89.863 E-0.36835
G1 X148.642 Y90.390 E-0.14483
G1 X148.808 Y90.347 E-0.03956
G1 X148.819 Y90.368 E-0.00554
G1 X148.819 Y89.494 E-0.20173
;WIPE_END
G1 E-0.04000 F2100.000
G1 Z0.600 F10800.000
G1 X147.625 Y91.100
G1 Z0.200
G1 E0.80000 F2100.000
;TYPE:Support material
;WIDTH:0.42
G1 F1200.000
G1 X147.625 Y78.805 E0.38550
G1 X146.871 Y78.805 E0.02365
G1 X146.871 Y89.640 E0.33974
G1 X146.116 Y88.623 E0.03971
G1 X146.116 Y78.805 E0.30783
G1 X145.362 Y78.805 E0.02365
G1 X145.362 Y87.704 E0.27902
G1 X144.847 Y87.095 E0.02501
G1 X144.608 Y86.846 E0.01082
G1 X144.608 Y78.805 E0.25212
G1 X144.559 Y78.805 E0.00153
G1 X144.559 Y75.487 E0.10403
G1 X143.854 Y75.487 E0.02212
G1 X143.854 Y86.063 E0.33159
G1 X143.642 Y85.843 E0.00958
G1 X143.100 Y85.348 E0.02300
G1 X143.100 Y75.487 E0.30919
G1 X142.346 Y75.487 E0.02365
G1 X142.346 Y84.664 E0.28772
G1 X141.591 Y84.059 E0.03030
G1 X141.592 Y75.487 E0.26877
G1 X140.837 Y75.487 E0.02365
G1 X140.837 Y83.475 E0.25045
G1 X140.083 Y82.946 E0.02887
G1 X140.083 Y75.487 E0.23388
G1 X139.329 Y75.487 E0.02365
G1 X139.329 Y82.445 E0.21817
G1 X138.575 Y81.986 E0.02768
G1 X138.575 Y75.487 E0.20377
G1 X137.924 Y75.487 E0.02042
G1 X137.924 Y72.169 E0.10403
G1 X137.821 Y72.169 E0.00323
G1 X137.821 Y81.556 E0.29430
G1 X137.067 Y81.161 E0.02669
G1 X137.067 Y72.169 E0.28192
G1 X136.312 Y72.169 E0.02365
G1 X136.312 Y80.791 E0.27034
G1 X135.558 Y80.456 E0.02588
G1 X135.558 Y72.169 E0.25983
G1 X134.804 Y72.169 E0.02365
G1 X134.804 Y80.141 E0.24993
G1 X134.050 Y79.862 E0.02521
G1 X134.050 Y72.169 E0.24119
G1 X133.296 Y72.169 E0.02365
G1 X133.296 Y79.595 E0.23281
G1 X132.542 Y79.370 E0.02467
G1 X132.542 Y72.169 E0.22576
G1 X131.787 Y72.169 E0.02365
G1 X131.787 Y79.146 E0.21876
G1 X131.033 Y78.974 E0.02426
G1 X131.033 Y72.169 E0.21334
G1 X130.279 Y72.169 E0.02365
G1 X130.279 Y78.801 E0.20792
G1 X129.525 Y78.668 E0.02401
G1 X129.525 Y72.169 E0.20377
G1 X128.771 Y72.169 E0.02365
G1 X128.771 Y78.546 E0.19993
G1 X128.017 Y78.451 E0.02383
G1 X128.017 Y72.169 E0.19694
G1 X127.262 Y72.169 E0.02365
G1 X127.262 Y78.378 E0.19465
G1 X126.508 Y78.318 E0.02372
G1 X126.508 Y72.169 E0.19279
G1 X125.754 Y72.169 E0.02365
G1 X125.754 Y78.294 E0.19203
G1 X125.000 Y78.270 E0.02366
G1 X125.000 Y72.169 E0.19128
G1 X124.246 Y72.169 E0.02365
G1 X124.246 Y78.294 E0.19203
G1 X123.492 Y78.318 E0.02366
G1 X123.492 Y72.169 E0.19279
G1 X122.738 Y72.169 E0.02365
G1 X122.738 Y78.378 E0.19465
G1 X121.983 Y78.451 E0.02376
G1 X121.983 Y72.169 E0.19694
G1 X121.229 Y72.169 E0.02365
G1 X121.229 Y78.546 E0.19993
G1 X120.475 Y78.668 E0.02396
G1 X120.475 Y72.169 E0.20377
G1 X119.721 Y72.169 E0.02365
G1 X119.721 Y78.801 E0.20792
G1 X118.967 Y78.974 E0.02426
G1 X118.967 Y72.169 E0.21334
G1 X118.213 Y72.169 E0.02365
G1 X118.213 Y79.146 E0.21876
G1 X117.458 Y79.370 E0.02466
G1 X117.458 Y72.169 E0.22576
G1 X116.704 Y72.169 E0.02365
G1 X116.704 Y79.595 E0.23281
G1 X115.950 Y79.862 E0.02509
G1 X115.950 Y72.169 E0.24119
G1 X115.196 Y72.169 E0.02365
G1 X115.196 Y80.141 E0.24993
G1 X114.442 Y80.456 E0.02563
G1 X114.442 Y72.169 E0.25983
G1 X113.688 Y72.169 E0.02365
G1 X113.688 Y80.791 E0.27034
G1 X113.356 Y80.940 E0.01140
G1 X112.933 Y81.161 E0.01494
G1 X112.933 Y72.169 E0.28192
G1 X112.179 Y72.169 E0.02365
G1 X112.179 Y81.556 E0.29430
G1 X111.833 Y81.738 E0.01228
G1 X111.425 Y81.986 E0.01496
G1 X111.425 Y75.487 E0.20377
G1 X110.671 Y75.487 E0.02365
G1 X110.671 Y82.445 E0.21817
