; generated by PrusaSlicer 2.3.1+x64 on 2024-07-23 at 12:51:18 UTC

; 

; external perimeters extrusion width = 0.45mm
; perimeters extrusion width = 0.45mm
; infill extrusion width = 0.45mm
; solid infill extrusion width = 0.45mm
; top infill extrusion width = 0.40mm
; support material extrusion width = 0.35mm
; first layer extrusion width = 0.42mm

M73 P0 R122
M73 Q0 S122
M201 X1000 Y1000 Z200 E5000 ; sets maximum accelerations, mm/sec^2
M203 X200 Y200 Z12 E120 ; sets maximum feedrates, mm/sec
M204 P1250 R1250 T1250 ; sets acceleration (P, T) and retract acceleration (R), mm/sec^2
M205 X8.00 Y8.00 Z0.40 E4.50 ; sets the jerk limits, mm/sec
M205 S0 T0 ; sets the minimum extruding and travel feed rate, mm/sec
M107
;TYPE:Custom
M862.3 P "MK3S" ; printer model check
M862.1 P0.4 ; nozzle diameter check
M115 U3.9.3 ; tell printer latest fw version
G90 ; use absolute coordinates
M83 ; extruder relative mode
M104 S215 ; set extruder temp
M140 S60 ; set bed temp
M190 S60 ; wait for bed temp
M109 S215 ; wait for extruder temp
G28 W ; home all without mesh bed level
G80 ; mesh bed leveling
G1 Y-3.0 F1000.0 ; go outside print area
G92 E0.0
G1 X60.0 E9.0 F1000.0 ; intro line
G1 X100.0 E12.5 F1000.0 ; intro line
G92 E0.0
M221 S95

; Don't change E values below. Excessive value can damage the printer.
M907 E430 ; set extruder motor current
G21 ; set units to millimeters
G90 ; use absolute coordinates
M83 ; use relative distances for extrusion
M900 K0.05 ; Filament gcode LA 1.5
M900 K30 ; Filament gcode LA 1.0
;LAYER_CHANGE
;Z:0.2
;HEIGHT:0.2
;BEFORE_LAYER_CHANGE
G92 E0.0
;0.2


M73 P0 R121
G1 E-0.80000 F2100.000
G1 Z0.400 F10800.000
;AFTER_LAYER_CHANGE
;0.2
G1 X90.298 Y71.475
G1 Z0.200
G1 E0.80000 F2100.000
M204 S1000
;TYPE:Skirt
;WIDTH:0.42
G1 F1200.000
G1 X90.591 Y70.854 E0.02154
G1 X90.961 Y70.420 E0.01787
G1 X91.424 Y70.087 E0.01787
G1 X91.953 Y69.874 E0.01787
G1 X92.517 Y69.793 E0.01787
G1 X137.928 Y69.792 E1.42382
G1 X138.456 Y69.853 E0.01668
G1 X138.958 Y70.029 E0.01669
G1 X145.653 Y73.377 E0.23468
G1 X146.233 Y73.799 E0.02249
G1 X152.887 Y80.453 E0.29505
G1 X156.300 Y83.996 E0.15427
G1 X156.571 Y84.446 E0.01645
G1 X159.709 Y91.403 E0.23929
G1 X159.806 Y92.068 E0.02107
G1 X159.799 Y118.280 E0.82187
G1 X156.828 Y131.734 E0.43200
G1 X156.491 Y132.513 E0.02661
G1 X156.026 Y133.028 E0.02178
G1 X155.431 Y133.387 E0.02178
G1 X138.796 Y140.042 E0.56178
G1 X138.195 Y140.192 E0.01941
G1 X92.560 Y140.377 E1.43088
G1 X91.880 Y140.275 E0.02154
G1 X91.256 Y139.980 E0.02166
G1 X90.817 Y139.604 E0.01811
G1 X90.482 Y139.134 E0.01811
G1 X90.270 Y138.597 E0.01811
G1 X90.194 Y138.024 E0.01811
G1 X90.194 Y72.154 E2.06531
G1 X90.289 Y71.534 E0.01966
; printing object Smartwatch_Base1.stl id:0 copy 0
;WIPE_START
G1 F8640.000
G1 X90.591 Y70.854 E-0.17196
G1 X90.961 Y70.420 E-0.13161
G1 X91.424 Y70.087 E-0.13161
G1 X91.953 Y69.874 E-0.13161
G1 X92.517 Y69.793 E-0.13161
G1 X92.784 Y69.793 E-0.06161
;WIPE_END
G1 E-0.04000 F2100.000
G1 Z0.600 F10800.000
G1 X98.604 Y88.233
G1 Z0.200
G1 E0.80000 F2100.000
;TYPE:Support material
G1 F1200.000
G1 X98.604 Y72.169 E0.50367
G1 X99.359 Y72.169 E0.02365
G1 X99.359 Y88.063 E0.49835
G1 X100.113 Y88.063 E0.02365
G1 X100.113 Y72.169 E0.49835
G1 X100.867 Y72.169 E0.02365
G1 X100.867 Y88.233 E0.50367
;WIPE_START
G1 F8640.000
G1 X100.867 Y84.942 E-0.76000
;WIPE_END
G1 E-0.04000 F2100.000
G1 Z0.600 F10800.000
G1 X101.699 Y90.188
G1 Z0.200
G1 E0.80000 F2100.000
;TYPE:Support material interface
;WIDTH:0.35
G1 F1200.000
G1 X101.699 Y88.411 E0.04538
G1 X101.181 Y88.411 E0.01322
G1 X101.181 Y90.472 E0.05262
G1 X100.663 Y91.377 E0.02663
G1 X100.663 Y88.411 E0.07574
G1 X100.145 Y88.411 E0.01322
G1 X100.145 Y91.729 E0.08472
G1 X99.627 Y91.729 E0.01322
G1 X99.627 Y88.411 E0.08472
G1 X99.110 Y88.411 E0.01322
G1 X99.110 Y91.729 E0.08472
G1 X98.592 Y91.729 E0.01322
G1 X98.592 Y88.268 E0.08837
;WIPE_START
G1 F8640.000
G1 X98.592 Y91.559 E-0.76000
;WIPE_END
G1 E-0.04000 F2100.000
G1 Z0.600 F10800.000
G1 X103.129 Y113.603
G1 Z0.200
G1 E0.80000 F2100.000
;TYPE:Support material
;WIDTH:0.42
G1 F1200.000
G1 X103.129 Y96.604 E0.53301
G1 X102.989 Y96.506 E0.00536
G1 X102.772 Y96.404 E0.00754
G1 X102.539 Y96.342 E0.00754
G1 X102.375 Y96.328 E0.00517
G1 X102.375 Y113.672 E0.54383
G1 X101.621 Y113.681 E0.02365
G1 X101.621 Y96.319 E0.54437
G1 X101.307 Y96.318 E0.00985
G1 X100.867 Y96.276 E0.01387
G1 X100.867 Y113.898 E0.55254
;WIPE_START
G1 F8640.000
G1 X100.867 Y110.607 E-0.76000
;WIPE_END
G1 E-0.04000 F2100.000
G1 Z0.600 F10800.000
G1 X100.867 Y118.628
G1 Z0.200
G1 E0.80000 F2100.000
G1 F1200.000
G1 X100.867 Y116.382 E0.07041
G1 X101.079 Y116.843 E0.01590
G1 X101.621 Y117.865 E0.03627
G1 X101.621 Y119.623 E0.05511
;WIPE_START
G1 F8640.000
G1 X101.621 Y117.865 E-0.40582
G1 X101.079 Y116.843 E-0.26714
G1 X100.921 Y116.500 E-0.08705
;WIPE_END
G1 E-0.04000 F2100.000
G1 Z0.600 F10800.000
G1 X101.699 Y121.732
G1 Z0.200
G1 E0.80000 F2100.000
;TYPE:Support material interface
;WIDTH:0.35
G1 F1200.000
G1 X101.699 Y120.076 E0.04229
G1 X101.376 Y119.561 E0.01551
G1 X101.224 Y119.602 E0.00403
G1 X101.181 Y119.528 E0.00219
G1 X101.181 Y121.589 E0.05263
G1 X100.663 Y121.589 E0.01322
G1 X100.663 Y118.623 E0.07574
G1 X100.477 Y118.271 E0.01016
G1 X100.145 Y118.271 E0.00847
G1 X100.145 Y121.589 E0.08472
G1 X99.627 Y121.589 E0.01322
G1 X99.627 Y118.271 E0.08472
G1 X99.110 Y118.271 E0.01322
G1 X99.110 Y121.589 E0.08472
G1 X98.592 Y121.589 E0.01322
G1 X98.592 Y118.128 E0.08837
;WIPE_START
G1 F8640.000
G1 X98.592 Y121.420 E-0.76000
;WIPE_END
G1 E-0.04000 F2100.000
G1 Z0.600 F10800.000
G1 X97.850 Y138.000
G1 Z0.200
G1 E0.80000 F2100.000
;TYPE:Support material
;WIDTH:0.42
G1 F1200.000
G1 X97.850 Y72.169 E2.06408
G1 X97.096 Y72.169 E0.02365
G1 X97.096 Y137.831 E2.05876
G1 X96.342 Y137.831 E0.02365
G1 X96.342 Y72.169 E2.05876
G1 X95.588 Y72.169 E0.02365
G1 X95.588 Y137.831 E2.05876
G1 X94.834 Y137.831 E0.02365
G1 X94.834 Y72.169 E2.05876
M73 Q0 S121
G1 X94.079 Y72.169 E0.02365
G1 X94.079 Y137.831 E2.05876
G1 X93.325 Y137.831 E0.02365
G1 X93.325 Y72.169 E2.05876
G1 X92.571 Y72.169 E0.02365
G1 X92.571 Y138.000 E2.06408
;WIPE_START
G1 F8640.000
G1 X92.571 Y134.709 E-0.76000
;WIPE_END
G1 E-0.04000 F2100.000
G1 Z0.600 F10800.000
G1 X149.133 Y94.023
G1 Z0.200
G1 E0.80000 F2100.000
G1 F1200.000
G1 X149.133 Y91.735 E0.07176
G1 X148.609 Y90.803 E0.03351
G1 X148.461 Y90.843 E0.00481
G1 X148.379 Y90.706 E0.00501
G1 X148.379 Y92.135 E0.04481
G1 X148.226 Y91.847 E0.01022
G1 X147.625 Y90.851 E0.03649
G1 X147.625 Y78.805 E0.37768
G1 X146.871 Y78.805 E0.02365
G1 X146.871 Y89.714 E0.34203
G1 X146.624 Y89.352 E0.01372
G1 X146.116 Y88.690 E0.02615
G1 X146.116 Y78.805 E0.30994
G1 X145.362 Y78.805 E0.02365
G1 X145.362 Y87.757 E0.28069
G1 X144.608 Y86.898 E0.03586
G1 X144.608 Y78.805 E0.25374
G1 X144.559 Y78.805 E0.00153
G1 X144.559 Y75.487 E0.10403
G1 X143.854 Y75.487 E0.02212
G1 X143.854 Y86.112 E0.33314
G1 X143.100 Y85.396 E0.03261
G1 X143.100 Y75.487 E0.31068
G1 X142.346 Y75.487 E0.02365
G1 X142.346 Y84.723 E0.28958
M73 P0 R120
G1 X141.591 Y84.095 E0.03078
G1 X141.592 Y75.487 E0.26988
G1 X140.837 Y75.487 E0.02365
G1 X140.837 Y83.527 E0.25208
G1 X140.083 Y82.986 E0.02910
G1 X140.083 Y75.487 E0.23512
G1 X139.329 Y75.487 E0.02365
G1 X139.329 Y82.488 E0.21951
G1 X138.575 Y82.029 E0.02768
G1 X138.575 Y75.487 E0.20512
G1 X137.924 Y75.487 E0.02042
G1 X137.924 Y72.169 E0.10403
G1 X137.821 Y72.169 E0.00323
G1 X137.821 Y81.590 E0.29536
G1 X137.067 Y81.203 E0.02658
G1 X137.067 Y72.169 E0.28323
G1 X136.312 Y72.169 E0.02365
G1 X136.312 Y80.829 E0.27151
G1 X135.558 Y80.495 E0.02586
G1 X135.558 Y72.169 E0.26104
G1 X134.804 Y72.169 E0.02365
G1 X134.804 Y80.182 E0.25122
G1 X134.050 Y79.897 E0.02528
G1 X134.050 Y72.169 E0.24229
G1 X133.296 Y72.169 E0.02365
G1 X133.296 Y79.639 E0.23421
G1 X132.542 Y79.401 E0.02480
G1 X132.542 Y72.169 E0.22675
G1 X131.787 Y72.169 E0.02365
G1 X131.787 Y79.196 E0.22030
G1 X131.033 Y79.003 E0.02441
G1 X131.033 Y72.169 E0.21426
G1 X130.279 Y72.169 E0.02365
G1 X130.279 Y78.846 E0.20933
G1 X129.525 Y78.697 E0.02410
G1 X129.525 Y72.169 E0.20467
G1 X128.771 Y72.169 E0.02365
M73 Q1 S121
G1 X128.771 Y78.586 E0.20119
M73 P1 R120
G1 X128.017 Y78.481 E0.02388
G1 X128.017 Y72.169 E0.19789
G1 X127.262 Y72.169 E0.02365
G1 X127.262 Y78.415 E0.19581
G1 X126.508 Y78.351 E0.02373
G1 X126.508 Y72.169 E0.19383
G1 X125.754 Y72.169 E0.02365
G1 X125.754 Y78.329 E0.19313
G1 X125.000 Y78.308 E0.02366
G1 X125.000 Y72.169 E0.19248
G1 X124.246 Y72.169 E0.02365
G1 X124.246 Y78.329 E0.19313
G1 X123.492 Y78.351 E0.02366
G1 X123.492 Y72.169 E0.19383
G1 X122.738 Y72.169 E0.02365
G1 X122.738 Y78.415 E0.19581
G1 X121.983 Y78.481 E0.02374
G1 X121.983 Y72.169 E0.19789
G1 X121.229 Y72.169 E0.02365
G1 X121.229 Y78.586 E0.20119
G1 X120.475 Y78.697 E0.02390
G1 X120.475 Y72.169 E0.20467
G1 X119.721 Y72.169 E0.02365
G1 X119.721 Y78.846 E0.20933
G1 X118.967 Y79.003 E0.02415
G1 X118.967 Y72.169 E0.21426
G1 X118.213 Y72.169 E0.02365
G1 X118.213 Y79.196 E0.22030
G1 X117.458 Y79.401 E0.02451
G1 X117.458 Y72.169 E0.22675
G1 X116.704 Y72.169 E0.02365
G1 X116.704 Y79.639 E0.23421
G1 X115.950 Y79.897 E0.02499
G1 X115.950 Y72.169 E0.24229
G1 X115.196 Y72.169 E0.02365
G1 X115.196 Y80.182 E0.25122
G1 X114.442 Y80.495 E0.02560
G1 X114.442 Y72.169 E0.26104
G1 X113.688 Y72.169 E0.02365
G1 X113.688 Y80.829 E0.27151
G1 X112.933 Y81.203 E0.02639
G1 X112.933 Y72.169 E0.28323
G1 X112.179 Y72.169 E0.02365
G1 X112.179 Y81.590 E0.29536
G1 X111.425 Y82.029 E0.02737
G1 X111.425 Y72.169 E0.30915
G1 X110.671 Y72.169 E0.02365
G1 X110.671 Y82.488 E0.32354
G1 X109.917 Y82.986 E0.02833
G1 X109.917 Y72.169 E0.33915
G1 X109.163 Y72.169 E0.02365
G1 X109.163 Y83.527 E0.35611
G1 X108.409 Y84.095 E0.02960
G1 X108.409 Y72.169 E0.37391
G1 X107.654 Y72.169 E0.02365
G1 X107.654 Y84.723 E0.39361
G1 X107.347 Y84.980 E0.01257
G1 X106.900 Y85.396 E0.01913
G1 X106.900 Y72.169 E0.41471
G1 X106.146 Y72.169 E0.02365
G1 X106.146 Y86.112 E0.43716
G1 X105.392 Y86.898 E0.03414
G1 X105.392 Y72.169 E0.46179
G1 X104.638 Y72.169 E0.02365
G1 X104.638 Y87.757 E0.48874
G1 X104.269 Y88.187 E0.01774
G1 X103.884 Y88.690 E0.01989
G1 X103.884 Y72.169 E0.51800
G1 X103.129 Y72.169 E0.02365
G1 X103.129 Y89.713 E0.55008
G1 X102.543 Y90.573 E0.03263
G1 X102.375 Y90.851 E0.01017
G1 X102.375 Y72.169 E0.58574
G1 X101.621 Y72.169 E0.02365
G1 X101.621 Y88.063 E0.49834
G1 X102.123 Y88.063 E0.01573
G1 X102.123 Y89.913 E0.05799
G1 X101.621 Y90.710 E0.02954
G1 X101.621 Y92.135 E0.04467
G1 X101.079 Y93.157 E0.03628
G1 X100.867 Y93.618 E0.01590
G1 X100.867 Y91.735 E0.05904
G1 X100.686 Y92.076 E0.01212
G1 X100.113 Y92.076 E0.01797
G1 X100.113 Y117.924 E0.81043
G1 X99.359 Y117.924 E0.02365
G1 X99.359 Y92.076 E0.81043
G1 X98.604 Y92.076 E0.02365
G1 X98.604 Y117.924 E0.81043
G1 X98.110 Y117.924 E0.01550
G1 X98.110 Y121.937 E0.12582
G1 X98.604 Y121.937 E0.01550
G1 X98.604 Y137.831 E0.49834
G1 X99.359 Y137.831 E0.02365
G1 X99.359 Y121.937 E0.49834
G1 X100.113 Y121.937 E0.02365
G1 X100.113 Y137.831 E0.49835
G1 X100.867 Y137.831 E0.02365
G1 X100.867 Y121.937 E0.49835
G1 X101.621 Y121.937 E0.02365
G1 X101.621 Y127.877 E0.18626
G1 X102.123 Y127.877 E0.01573
G1 X102.123 Y134.513 E0.20806
G1 X102.375 Y134.513 E0.00791
G1 X102.375 Y119.149 E0.48170
G1 X102.540 Y119.423 E0.01001
G1 X103.129 Y120.286 E0.03278
G1 X103.129 Y134.513 E0.44605
G1 X103.884 Y134.513 E0.02365
G1 X103.884 Y121.310 E0.41397
G1 X104.269 Y121.813 E0.01989
G1 X104.638 Y122.243 E0.01774
G1 X104.638 Y134.513 E0.38472
G1 X105.392 Y134.513 E0.02365
G1 X105.392 Y123.102 E0.35776
G1 X106.146 Y123.888 E0.03414
G1 X106.146 Y134.513 E0.33313
G1 X106.900 Y134.513 E0.02365
G1 X106.900 Y124.604 E0.31068
G1 X107.347 Y125.020 E0.01913
G1 X107.654 Y125.277 E0.01257
G1 X107.654 Y134.513 E0.28958
G1 X108.408 Y134.513 E0.02365
G1 X108.409 Y125.905 E0.26988
G1 X109.163 Y126.473 E0.02960
G1 X109.163 Y137.831 E0.35611
M73 Q1 S120
G1 X109.917 Y137.831 E0.02365
G1 X109.917 Y127.014 E0.33915
G1 X110.671 Y127.512 E0.02833
G1 X110.671 Y137.831 E0.32354
G1 X111.425 Y137.831 E0.02365
G1 X111.425 Y127.971 E0.30915
G1 X112.179 Y128.410 E0.02737
G1 X112.179 Y137.831 E0.29536
G1 X112.933 Y137.831 E0.02365
G1 X112.933 Y128.797 E0.28323
G1 X113.688 Y129.171 E0.02639
G1 X113.688 Y137.831 E0.27151
G1 X114.442 Y137.831 E0.02365
G1 X114.442 Y129.505 E0.26104
G1 X115.196 Y129.818 E0.02560
G1 X115.196 Y137.831 E0.25122
G1 X115.950 Y137.831 E0.02365
G1 X115.950 Y130.103 E0.24229
G1 X116.704 Y130.361 E0.02499
G1 X116.704 Y137.831 E0.23421
G1 X117.458 Y137.831 E0.02365
G1 X117.458 Y130.599 E0.22675
G1 X118.213 Y130.804 E0.02451
G1 X118.213 Y137.831 E0.22030
G1 X118.967 Y137.831 E0.02365
G1 X118.967 Y130.997 E0.21426
G1 X119.721 Y131.154 E0.02415
G1 X119.721 Y137.831 E0.20933
G1 X120.475 Y137.831 E0.02365
G1 X120.475 Y131.303 E0.20467
G1 X121.229 Y131.414 E0.02390
G1 X121.229 Y137.831 E0.20119
G1 X121.983 Y137.831 E0.02365
G1 X121.983 Y131.519 E0.19789
G1 X122.738 Y131.585 E0.02374
G1 X122.738 Y137.831 E0.19581
G1 X123.492 Y137.831 E0.02365
G1 X123.492 Y131.649 E0.19383
G1 X124.246 Y131.671 E0.02366
G1 X124.246 Y137.831 E0.19313
G1 X125.000 Y137.831 E0.02365
G1 X125.000 Y131.692 E0.19248
G1 X125.754 Y131.671 E0.02366
G1 X125.754 Y137.831 E0.19313
G1 X126.508 Y137.831 E0.02365
G1 X126.508 Y131.649 E0.19383
G1 X127.262 Y131.585 E0.02373
G1 X127.262 Y137.831 E0.19581
G1 X128.017 Y137.831 E0.02365
G1 X128.017 Y131.519 E0.19789
G1 X128.771 Y131.414 E0.02388
G1 X128.771 Y137.831 E0.20119
G1 X129.525 Y137.831 E0.02365
G1 X129.525 Y131.303 E0.20467
G1 X130.279 Y131.154 E0.02410
G1 X130.279 Y137.831 E0.20933
G1 X131.033 Y137.831 E0.02365
G1 X131.033 Y130.997 E0.21426
G1 X131.787 Y130.804 E0.02441
G1 X131.787 Y137.831 E0.22030
G1 X132.542 Y137.831 E0.02365
G1 X132.542 Y130.599 E0.22675
G1 X133.296 Y130.361 E0.02480
G1 X133.296 Y137.831 E0.23421
G1 X134.050 Y137.831 E0.02365
G1 X134.050 Y130.103 E0.24229
G1 X134.804 Y129.818 E0.02528
G1 X134.804 Y137.831 E0.25122
G1 X135.558 Y137.831 E0.02365
G1 X135.558 Y129.505 E0.26104
G1 X136.312 Y129.171 E0.02586
G1 X136.312 Y137.831 E0.27151
G1 X137.067 Y137.831 E0.02365
G1 X137.067 Y128.797 E0.28323
G1 X137.821 Y128.410 E0.02658
G1 X137.821 Y137.831 E0.29536
G1 X137.924 Y137.831 E0.00323
G1 X137.924 Y134.513 E0.10403
G1 X138.575 Y134.513 E0.02042
G1 X138.575 Y127.971 E0.20512
G1 X139.329 Y127.512 E0.02768
G1 X139.329 Y134.513 E0.21951
M73 P1 R119
G1 X140.083 Y134.513 E0.02365
G1 X140.083 Y127.014 E0.23512
G1 X140.837 Y126.473 E0.02910
G1 X140.837 Y134.513 E0.25208
G1 X141.591 Y134.513 E0.02365
G1 X141.591 Y125.905 E0.26988
G1 X142.346 Y125.277 E0.03078
G1 X142.346 Y134.513 E0.28958
G1 X143.100 Y134.513 E0.02365
G1 X143.100 Y124.604 E0.31068
G1 X143.854 Y123.888 E0.03261
G1 X143.854 Y134.513 E0.33313
G1 X144.559 Y134.513 E0.02212
G1 X144.559 Y131.195 E0.10403
G1 X144.608 Y131.195 E0.00153
G1 X144.608 Y123.102 E0.25374
G1 X145.362 Y122.243 E0.03585
G1 X145.362 Y131.195 E0.28069
G1 X146.116 Y131.195 E0.02365
G1 X146.116 Y121.310 E0.30994
G1 X146.624 Y120.648 E0.02615
G1 X146.871 Y120.287 E0.01371
G1 X146.871 Y131.195 E0.34202
G1 X147.625 Y131.195 E0.02365
G1 X147.625 Y119.149 E0.37768
G1 X148.226 Y118.153 E0.03648
G1 X148.379 Y117.865 E0.01022
G1 X148.379 Y119.290 E0.04467
G1 X147.877 Y120.087 E0.02955
G1 X147.877 Y121.937 E0.05798
G1 X148.379 Y121.937 E0.01573
G1 X148.379 Y131.195 E0.29029
G1 X149.133 Y131.195 E0.02365
G1 X149.133 Y121.937 E0.29029
G1 X149.887 Y121.937 E0.02365
G1 X149.887 Y131.195 E0.29029
G1 X150.641 Y131.195 E0.02365
G1 X150.641 Y121.937 E0.29029
G1 X151.396 Y121.937 E0.02365
G1 X151.396 Y131.195 E0.29029
G1 X152.150 Y131.195 E0.02365
G1 X152.150 Y85.441 E1.43459
G1 X152.904 Y85.441 E0.02365
G1 X152.904 Y131.195 E1.43459
G1 X153.658 Y131.195 E0.02365
G1 X153.658 Y85.441 E1.43459
G1 X154.412 Y85.441 E0.02365
G1 X154.412 Y131.195 E1.43459
G1 X154.513 Y131.195 E0.00315
G1 X154.513 Y117.924 E0.41611
G1 X155.166 Y117.924 E0.02049
G1 X155.166 Y92.076 E0.81043
G1 X155.921 Y92.076 E0.02365
G1 X155.921 Y117.924 E0.81043
M73 P2 R119
M73 Q2 S120
G1 X156.675 Y117.924 E0.02365
G1 X156.675 Y92.076 E0.81043
