; generated by PrusaSlicer 2.3.1+x64 on 2024-07-27 at 22:20:20 UTC

; 

; external perimeters extrusion width = 0.45mm
; perimeters extrusion width = 0.45mm
; infill extrusion width = 0.45mm
; solid infill extrusion width = 0.45mm
; top infill extrusion width = 0.40mm
; support material extrusion width = 0.35mm
; first layer extrusion width = 0.42mm

M73 P0 R40
M73 Q0 S40
M201 X1000 Y1000 Z200 E5000 ; sets maximum accelerations, mm/sec^2
M203 X200 Y200 Z12 E120 ; sets maximum feedrates, mm/sec
M204 P1250 R1250 T1250 ; sets acceleration (P, T) and retract acceleration (R), mm/sec^2
M205 X8.00 Y8.00 Z0.40 E4.50 ; sets the jerk limits, mm/sec
M205 S0 T0 ; sets the minimum extruding and travel feed rate, mm/sec
M107
;TYPE:Custom
M862.3 P "MK3S" ; printer model check
M862.1 P0.4 ; nozzle diameter check
M115 U3.9.3 ; tell printer latest fw version
G90 ; use absolute coordinates
M83 ; extruder relative mode
M104 S215 ; set extruder temp
M140 S60 ; set bed temp
M190 S60 ; wait for bed temp
M109 S215 ; wait for extruder temp
G28 W ; home all without mesh bed level
G80 ; mesh bed leveling
G1 Y-3.0 F1000.0 ; go outside print area
G92 E0.0
G1 X60.0 E9.0 F1000.0 ; intro line
G1 X100.0 E12.5 F1000.0 ; intro line
G92 E0.0
M221 S95

; Don't change E values below. Excessive value can damage the printer.
M907 E430 ; set extruder motor current
G21 ; set units to millimeters
G90 ; use absolute coordinates
M83 ; use relative distances for extrusion
M900 K0.05 ; Filament gcode LA 1.5
M900 K30 ; Filament gcode LA 1.0
;LAYER_CHANGE
;Z:0.2
;HEIGHT:0.2
;BEFORE_LAYER_CHANGE
G92 E0.0
;0.2


G1 E-0.80000 F2100.000
G1 Z0.400 F10800.000
;AFTER_LAYER_CHANGE
;0.2
G1 X103.961 Y73.626
G1 Z0.200
G1 E0.80000 F2100.000
M204 S1000
;TYPE:Skirt
;WIDTH:0.42
G1 F1200.000
G1 X111.103 Y70.001 E0.25111
G1 X111.568 Y69.847 E0.01538
G1 X112.060 Y69.792 E0.01550
G1 X137.821 Y69.792 E0.80772
G1 X138.372 Y69.857 E0.01740
G1 X138.893 Y70.048 E0.01740
G1 X145.111 Y73.470 E0.22254
G1 X149.540 Y77.106 E0.17966
G1 X156.343 Y84.054 E0.30491
G1 X159.601 Y91.110 E0.24366
G1 X159.754 Y91.580 E0.01550
G1 X159.806 Y92.071 E0.01550
G1 X159.806 Y118.105 E0.81626
G1 X159.652 Y118.936 E0.02649
G1 X156.662 Y125.575 E0.22830
G1 X156.201 Y126.233 E0.02520
G1 X149.498 Y132.934 E0.29719
G1 X145.328 Y136.378 E0.16957
G1 X138.771 Y140.009 E0.23500
G1 X137.824 Y140.208 E0.03036
G1 X112.061 Y140.208 E0.80777
M73 P0 R39
G1 X111.234 Y140.053 E0.02637
G1 X103.958 Y136.371 E0.25570
G1 X93.893 Y126.226 E0.44806
G1 X93.441 Y125.580 E0.02473
G1 X90.384 Y118.855 E0.23161
G1 X90.194 Y117.929 E0.02966
G1 X90.194 Y91.895 E0.81626
G1 X90.348 Y91.064 E0.02649
G1 X93.338 Y84.425 E0.22830
G1 X93.794 Y83.773 E0.02496
G1 X103.919 Y73.669 E0.44850
; printing object Smartwatch_Top1_ThreadTest.stl id:0 copy 0
;WIPE_START
G1 F8640.000
G1 X106.850 Y72.172 E-0.76000
;WIPE_END
G1 E-0.04000 F2100.000
G1 Z0.600 F10800.000
G1 X108.409 Y87.219
G1 Z0.200
G1 E0.80000 F2100.000
;TYPE:Support material
G1 F1200.000
G1 X108.409 Y86.971 E0.00778
G1 X109.163 Y86.304 E0.03155
G1 X109.163 Y86.353 E0.00152
G1 X109.917 Y85.760 E0.03008
G1 X109.917 Y85.697 E0.00197
G1 X110.643 Y85.135 E0.02880
G1 X110.671 Y85.117 E0.00105
G1 X110.671 Y85.204 E0.00274
G1 X111.425 Y84.708 E0.02830
G1 X111.425 Y84.608 E0.00312
G1 X112.179 Y84.119 E0.02819
G1 X112.179 Y84.230 E0.00348
G1 X112.933 Y83.811 E0.02706
G1 X112.933 Y83.679 E0.00413
G1 X113.347 Y83.438 E0.01502
G1 X113.688 Y83.268 E0.01193
G1 X113.688 Y83.407 E0.00437
G1 X114.442 Y83.052 E0.02614
G1 X114.442 Y82.892 E0.00502
G1 X114.776 Y82.725 E0.01172
G1 X115.196 Y82.548 E0.01427
G1 X115.196 Y84.746 E0.06889
G1 X115.950 Y84.746 E0.02365
G1 X115.950 Y82.232 E0.07883
G1 X116.249 Y82.106 E0.01016
G1 X116.704 Y81.949 E0.01511
G1 X116.704 Y84.746 E0.08769
G1 X117.458 Y84.746 E0.02365
G1 X117.458 Y81.688 E0.09586
G1 X118.213 Y81.460 E0.02470
G1 X118.213 Y84.746 E0.10301
G1 X118.967 Y84.746 E0.02365
G1 X118.967 Y81.254 E0.10948
G1 X119.721 Y81.076 E0.02429
G1 X119.721 Y84.746 E0.11505
G1 X120.475 Y84.746 E0.02365
G1 X120.475 Y80.922 E0.11989
G1 X120.864 Y80.842 E0.01243
G1 X121.229 Y80.792 E0.01157
G1 X121.229 Y84.746 E0.12397
G1 X121.983 Y84.746 E0.02365
G1 X121.983 Y80.688 E0.12723
G1 X122.444 Y80.624 E0.01458
G1 X122.738 Y80.605 E0.00923
G1 X122.738 Y84.915 E0.13514
;WIPE_START
G1 F8640.000
G1 X122.738 Y81.624 E-0.76000
;WIPE_END
G1 E-0.04000 F2100.000
G1 Z0.600 F10800.000
G1 X127.262 Y80.435
G1 Z0.200
G1 E0.80000 F2100.000
G1 F1200.000
G1 X127.262 Y84.746 E0.13515
G1 X128.017 Y84.746 E0.02365
G1 X128.017 Y80.688 E0.12723
G1 X128.771 Y80.792 E0.02387
G1 X128.771 Y84.746 E0.12397
G1 X129.525 Y84.746 E0.02365
M73 Q0 S39
G1 X129.525 Y80.922 E0.11989
G1 X130.279 Y81.076 E0.02414
G1 X130.279 Y84.746 E0.11505
M73 Q1 S39
G1 X131.033 Y84.746 E0.02365
G1 X131.033 Y81.254 E0.10948
M73 P1 R39
G1 X131.787 Y81.460 E0.02452
G1 X131.787 Y84.746 E0.10301
G1 X132.542 Y84.746 E0.02365
G1 X132.542 Y81.688 E0.09586
G1 X133.296 Y81.949 E0.02502
G1 X133.296 Y84.746 E0.08769
G1 X134.050 Y84.746 E0.02365
G1 X134.050 Y82.232 E0.07883
G1 X134.804 Y82.548 E0.02565
G1 X134.804 Y84.746 E0.06889
G1 X135.014 Y84.746 E0.00660
G1 X135.310 Y82.985 E0.05599
G1 X135.558 Y83.101 E0.00860
G1 X135.558 Y82.892 E0.00658
G1 X136.312 Y83.268 E0.02643
G1 X136.312 Y83.460 E0.00602
G1 X137.067 Y83.862 E0.02681
G1 X137.067 Y83.679 E0.00575
G1 X137.821 Y84.119 E0.02737
G1 X137.821 Y84.284 E0.00517
G1 X138.575 Y84.763 E0.02801
G1 X138.575 Y84.608 E0.00486
G1 X139.329 Y85.117 E0.02852
G1 X139.329 Y85.261 E0.00451
G1 X140.083 Y85.820 E0.02944
G1 X140.083 Y85.697 E0.00385
G1 X140.620 Y86.112 E0.02128
G1 X140.837 Y86.304 E0.00909
G1 X140.837 Y86.414 E0.00345
G1 X141.591 Y87.055 E0.03103
G1 X141.591 Y86.971 E0.00266
G1 X141.817 Y87.170 E0.00944
G1 X142.346 Y87.702 E0.02352
G1 X142.346 Y87.769 E0.00210
G1 X142.867 Y88.274 E0.02277
G1 X143.100 Y88.530 E0.01084
G1 X143.100 Y88.483 E0.00146
G1 X143.854 Y89.348 E0.03599
G1 X143.854 Y89.621 E0.00856
;WIPE_START
G1 F8640.000
G1 X143.854 Y89.348 E-0.06301
G1 X143.100 Y88.483 E-0.26503
G1 X143.100 Y88.530 E-0.01078
G1 X142.867 Y88.274 E-0.07986
G1 X142.346 Y87.769 E-0.16766
G1 X142.346 Y87.702 E-0.01544
G1 X141.863 Y87.216 E-0.15823
;WIPE_END
G1 E-0.04000 F2100.000
G1 Z0.600 F10800.000
G1 X157.429 Y118.093
G1 Z0.200
G1 E0.80000 F2100.000
G1 F1200.000
G1 X157.429 Y92.076 E0.81575
G1 X156.675 Y92.076 E0.02365
G1 X156.675 Y117.924 E0.81043
G1 X155.921 Y117.924 E0.02365
G1 X155.921 Y92.076 E0.81043
G1 X155.166 Y92.076 E0.02365
G1 X155.166 Y117.924 E0.81043
G1 X154.513 Y117.924 E0.02049
G1 X154.513 Y124.559 E0.20806
G1 X154.412 Y124.559 E0.00315
G1 X154.412 Y85.441 E1.22654
G1 X153.658 Y85.441 E0.02365
G1 X153.658 Y124.559 E1.22654
G1 X152.904 Y124.559 E0.02365
G1 X152.904 Y85.441 E1.22654
G1 X152.150 Y85.441 E0.02365
G1 X152.150 Y99.542 E0.44214
G1 X151.923 Y98.529 E0.03256
G1 X151.396 Y96.734 E0.05866
G1 X151.396 Y85.441 E0.35408
G1 X151.195 Y85.441 E0.00629
G1 X151.195 Y82.123 E0.10403
G1 X150.641 Y82.123 E0.01736
G1 X150.641 Y94.734 E0.39541
G1 X150.102 Y93.503 E0.04212
G1 X149.887 Y93.085 E0.01474
G1 X149.887 Y82.123 E0.34372
G1 X149.133 Y82.123 E0.02365
G1 X149.133 Y91.667 E0.29925
G1 X148.379 Y90.415 E0.04584
G1 X148.379 Y82.123 E0.25998
G1 X147.877 Y82.123 E0.01573
G1 X147.877 Y78.805 E0.10403
G1 X147.625 Y78.805 E0.00791
G1 X147.625 Y89.323 E0.32979
G1 X147.331 Y88.901 E0.01612
G1 X146.871 Y88.322 E0.02320
G1 X146.871 Y78.805 E0.29840
G1 X146.116 Y78.805 E0.02365
G1 X146.116 Y87.391 E0.26919
G1 X145.362 Y86.559 E0.03520
G1 X145.362 Y78.805 E0.24312
G1 X144.608 Y78.805 E0.02365
G1 X144.608 Y85.784 E0.21881
G1 X143.854 Y85.055 E0.03289
G1 X143.854 Y75.487 E0.29998
G1 X143.100 Y75.487 E0.02365
G1 X143.100 Y84.400 E0.27945
G1 X142.346 Y83.764 E0.03093
G1 X142.346 Y75.487 E0.25950
G1 X141.592 Y75.487 E0.02365
G1 X141.591 Y83.203 E0.24191
G1 X140.837 Y82.654 E0.02924
G1 X140.837 Y75.487 E0.22471
G1 X140.083 Y75.487 E0.02365
G1 X140.083 Y82.166 E0.20940
M73 Q2 S39
G1 X139.329 Y81.690 E0.02796
M73 P2 R39
G1 X139.329 Y75.487 E0.19448
G1 X138.575 Y75.487 E0.02365
G1 X138.575 Y81.269 E0.18128
G1 X137.821 Y80.855 E0.02697
G1 X137.821 Y72.169 E0.27233
G1 X137.067 Y72.169 E0.02365
G1 X137.067 Y80.496 E0.26108
G1 X136.312 Y80.141 E0.02614
G1 X136.312 Y72.169 E0.24994
G1 X135.558 Y72.169 E0.02365
G1 X135.558 Y79.836 E0.24039
G1 X134.804 Y79.539 E0.02541
G1 X134.804 Y72.169 E0.23107
G1 X134.050 Y72.169 E0.02365
G1 X134.050 Y79.280 E0.22294
G1 X133.296 Y79.038 E0.02483
G1 X133.296 Y72.169 E0.21535
G1 X132.542 Y72.169 E0.02365
G1 X132.542 Y78.820 E0.20851
G1 X131.787 Y78.630 E0.02438
G1 X131.787 Y72.169 E0.20258
G1 X131.033 Y72.169 E0.02365
G1 X131.033 Y78.450 E0.19693
G1 X130.279 Y78.312 E0.02404
G1 X130.279 Y72.169 E0.19260
G1 X129.525 Y72.169 E0.02365
G1 X129.525 Y78.177 E0.18835
G1 X128.771 Y78.080 E0.02384
G1 X128.771 Y72.169 E0.18531
G1 X128.017 Y72.169 E0.02365
G1 X128.017 Y77.994 E0.18264
G1 X127.262 Y77.931 E0.02373
G1 X127.262 Y72.169 E0.18064
G1 X126.508 Y72.169 E0.02365
G1 X126.508 Y77.895 E0.17952
G1 X125.754 Y77.863 E0.02367
G1 X125.754 Y72.169 E0.17853
G1 X125.000 Y72.169 E0.02365
G1 X125.000 Y77.877 E0.17895
G1 X124.246 Y77.883 E0.02365
G1 X124.246 Y72.169 E0.17914
G1 X123.492 Y72.169 E0.02365
G1 X123.492 Y77.921 E0.18033
G1 X122.738 Y77.972 E0.02370
G1 X122.738 Y72.169 E0.18194
G1 X121.983 Y72.169 E0.02365
G1 X121.983 Y78.042 E0.18414
G1 X121.229 Y78.143 E0.02386
G1 X121.229 Y72.169 E0.18731
G1 X120.475 Y72.169 E0.02365
G1 X120.475 Y78.248 E0.19059
G1 X119.721 Y78.399 E0.02412
G1 X119.721 Y72.169 E0.19532
G1 X118.967 Y72.169 E0.02365
G1 X118.967 Y78.551 E0.20009
G1 X118.213 Y78.741 E0.02439
G1 X118.213 Y72.169 E0.20606
G1 X117.458 Y72.169 E0.02365
G1 X117.458 Y78.945 E0.21246
G1 X116.704 Y79.175 E0.02472
G1 X116.704 Y72.169 E0.21965
G1 X115.950 Y72.169 E0.02365
G1 X115.950 Y79.433 E0.22774
G1 X115.196 Y79.706 E0.02515
G1 X115.196 Y72.169 E0.23630
G1 X114.442 Y72.169 E0.02365
G1 X114.442 Y80.019 E0.24611
G1 X113.688 Y80.340 E0.02570
G1 X113.688 Y72.169 E0.25619
G1 X112.933 Y72.169 E0.02365
G1 X112.933 Y80.711 E0.26783
G1 X112.179 Y81.087 E0.02641
G1 X112.179 Y72.169 E0.27960
G1 X112.076 Y72.169 E0.00323
G1 X112.076 Y75.487 E0.10403
G1 X111.425 Y75.487 E0.02042
G1 X111.425 Y81.521 E0.18919
G1 X110.671 Y81.959 E0.02734
G1 X110.671 Y75.487 E0.20291
G1 X109.917 Y75.487 E0.02365
G1 X109.917 Y82.460 E0.21864
G1 X109.163 Y82.969 E0.02853
G1 X109.163 Y75.487 E0.23459
G1 X108.409 Y75.487 E0.02365
G1 X108.409 Y83.546 E0.25268
G1 X107.654 Y84.141 E0.03011
G1 X107.654 Y75.487 E0.27133
G1 X106.900 Y75.487 E0.02365
G1 X106.900 Y84.801 E0.29202
G1 X106.468 Y85.181 E0.01805
G1 X106.146 Y85.501 E0.01422
G1 X106.146 Y75.487 E0.31396
G1 X105.441 Y75.487 E0.02212
G1 X105.441 Y78.805 E0.10403
G1 X105.392 Y78.805 E0.00153
G1 X105.392 Y86.254 E0.23356
G1 X104.638 Y87.086 E0.03520
G1 X104.638 Y78.805 E0.25964
G1 X103.884 Y78.805 E0.02365
G1 X103.884 Y87.971 E0.28740
G1 X103.129 Y88.952 E0.03878
G1 X103.129 Y78.805 E0.31814
G1 X102.375 Y78.805 E0.02365
G1 X102.375 Y90.044 E0.35239
G1 X101.985 Y90.628 E0.02201
G1 X101.621 Y91.254 E0.02271
G1 X101.621 Y82.123 E0.28629
G1 X100.867 Y82.123 E0.02365
G1 X100.867 Y92.621 E0.32917
G1 X100.312 Y93.741 E0.03918
G1 X100.113 Y94.218 E0.01619
G1 X100.113 Y82.123 E0.37922
G1 X99.359 Y82.123 E0.02365
G1 X99.359 Y96.168 E0.44036
G1 X99.042 Y97.059 E0.02966
G1 X98.604 Y98.581 E0.04965
G1 X98.604 Y85.441 E0.41200
M73 P3 R39
M73 Q3 S39
G1 X97.850 Y85.441 E0.02365
G1 X97.850 Y124.559 E1.22654
G1 X98.604 Y124.559 E0.02365
G1 X98.604 Y112.231 E0.38654
M73 P3 R38
G1 X98.817 Y113.044 E0.02634
G1 X99.359 Y114.707 E0.05485
G1 X99.359 Y127.877 E0.41293
G1 X100.113 Y127.877 E0.02365
G1 X100.113 Y116.568 E0.35460
G1 X100.867 Y118.127 E0.05431
G1 X100.867 Y127.877 E0.30571
G1 X101.621 Y127.877 E0.02365
G1 X101.621 Y119.475 E0.26343
G1 X102.375 Y120.652 E0.04383
G1 X102.375 Y131.195 E0.33055
G1 X103.129 Y131.195 E0.02365
G1 X103.129 Y121.717 E0.29718
G1 X103.884 Y122.700 E0.03885
G1 X103.884 Y131.195 E0.26635
G1 X104.638 Y131.195 E0.02365
G1 X104.638 Y123.586 E0.23857
G1 X105.392 Y124.397 E0.03472
G1 X105.392 Y131.195 E0.21314
G1 X105.441 Y131.195 E0.00153
G1 X105.441 Y134.513 E0.10403
G1 X106.146 Y134.513 E0.02212
G1 X106.146 Y125.166 E0.29307
G1 X106.900 Y125.853 E0.03200
G1 X106.900 Y134.513 E0.27151
G1 X107.654 Y134.513 E0.02365
G1 X107.654 Y126.514 E0.25078
G1 X108.409 Y127.111 E0.03015
G1 X108.408 Y134.513 E0.23208
G1 X109.163 Y134.513 E0.02365
G1 X109.163 Y127.680 E0.21423
G1 X109.917 Y128.200 E0.02873
G1 X109.917 Y134.513 E0.19792
G1 X110.671 Y134.513 E0.02365
G1 X110.671 Y128.694 E0.18245
G1 X111.425 Y129.145 E0.02755
G1 X111.425 Y134.513 E0.16832
G1 X112.076 Y134.513 E0.02042
G1 X112.076 Y137.831 E0.10403
M73 Q3 S38
G1 X112.179 Y137.831 E0.00323
G1 X112.179 Y129.574 E0.25888
G1 X112.933 Y129.960 E0.02657
G1 X112.933 Y137.831 E0.24676
G1 X113.688 Y137.831 E0.02365
G1 X113.688 Y130.333 E0.23509
G1 X114.442 Y130.661 E0.02579
G1 X114.442 Y137.831 E0.22479
G1 X115.196 Y137.831 E0.02365
G1 X115.196 Y130.980 E0.21480
G1 X115.950 Y131.257 E0.02519
G1 X115.950 Y137.831 E0.20610
G1 X116.704 Y137.831 E0.02365
G1 X116.704 Y131.526 E0.19769
G1 X117.458 Y131.756 E0.02473
G1 X117.458 Y137.831 E0.19046
G1 X118.213 Y137.831 E0.02365
G1 X118.213 Y131.971 E0.18372
G1 X118.967 Y132.164 E0.02441
G1 X118.967 Y137.831 E0.17766
G1 X119.721 Y137.831 E0.02365
G1 X119.721 Y132.328 E0.17253
G1 X120.475 Y132.479 E0.02412
G1 X120.475 Y137.831 E0.16778
G1 X121.229 Y137.831 E0.02365
G1 X121.229 Y132.599 E0.16402
G1 X121.983 Y132.710 E0.02390
G1 X121.983 Y137.831 E0.16056
G1 X122.738 Y137.831 E0.02365
G1 X122.738 Y132.789 E0.15807
G1 X123.492 Y132.851 E0.02373
G1 X123.492 Y137.831 E0.15612
G1 X124.246 Y137.831 E0.02365
G1 X124.246 Y132.895 E0.15474
G1 X125.000 Y132.914 E0.02365
G1 X125.000 Y137.831 E0.15416
G1 X125.754 Y137.831 E0.02365
G1 X125.754 Y132.918 E0.15403
G1 X126.508 Y132.897 E0.02366
G1 X126.508 Y137.831 E0.15469
G1 X127.262 Y137.831 E0.02365
G1 X127.262 Y132.859 E0.15589
G1 X128.017 Y132.798 E0.02372
G1 X128.017 Y137.831 E0.15779
G1 X128.771 Y137.831 E0.02365
G1 X128.771 Y132.716 E0.16038
G1 X129.525 Y132.615 E0.02386
G1 X129.525 Y137.831 E0.16354
G1 X130.279 Y137.831 E0.02365
G1 X130.279 Y132.493 E0.16737
G1 X131.033 Y132.339 E0.02413
G1 X131.033 Y137.831 E0.17219
G1 X131.787 Y137.831 E0.02365
G1 X131.787 Y132.161 E0.17777
G1 X132.542 Y131.960 E0.02447
G1 X132.542 Y137.831 E0.18407
G1 X133.296 Y137.831 E0.02365
G1 X133.296 Y131.737 E0.19107
G1 X134.050 Y131.491 E0.02487
G1 X134.050 Y137.831 E0.19878
G1 X134.804 Y137.831 E0.02365
G1 X134.804 Y131.221 E0.20723
G1 X135.558 Y130.928 E0.02538
G1 X135.558 Y137.831 E0.21643
G1 X136.312 Y137.831 E0.02365
G1 X136.312 Y130.608 E0.22645
G1 X137.067 Y130.262 E0.02601
G1 X137.067 Y137.831 E0.23729
G1 X137.821 Y137.831 E0.02365
G1 X137.821 Y129.889 E0.24900
M73 P4 R38
M73 Q4 S38
G1 X138.575 Y129.485 E0.02682
G1 X138.575 Y134.513 E0.15764
G1 X139.329 Y134.513 E0.02365
G1 X139.329 Y129.051 E0.17125
G1 X140.083 Y128.585 E0.02780
G1 X140.083 Y134.513 E0.18586
G1 X140.837 Y134.513 E0.02365
G1 X140.837 Y128.085 E0.20153
G1 X141.591 Y127.543 E0.02913
G1 X141.591 Y134.513 E0.21853
G1 X142.346 Y134.513 E0.02365
G1 X142.346 Y126.976 E0.23632
G1 X143.100 Y126.351 E0.03070
G1 X143.100 Y134.513 E0.25590
G1 X143.854 Y134.513 E0.02365
G1 X143.854 Y125.694 E0.27650
G1 X144.608 Y124.978 E0.03260
G1 X144.608 Y131.195 E0.19492
G1 X145.362 Y131.195 E0.02365
G1 X145.362 Y124.209 E0.21905
G1 X146.116 Y123.379 E0.03516
G1 X146.116 Y131.195 E0.24506
G1 X146.871 Y131.195 E0.02365
G1 X146.871 Y122.472 E0.27349
G1 X147.625 Y121.483 E0.03900
G1 X147.625 Y131.195 E0.30450
G1 X147.877 Y131.195 E0.00791
G1 X147.877 Y127.877 E0.10403
G1 X148.379 Y127.877 E0.01573
G1 X148.379 Y120.399 E0.23446
G1 X149.133 Y119.186 E0.04480
G1 X149.133 Y127.877 E0.27251
G1 X149.887 Y127.877 E0.02365
G1 X149.887 Y117.795 E0.31610
G1 X150.262 Y117.010 E0.02728
G1 X150.641 Y116.140 E0.02976
G1 X150.641 Y127.877 E0.36800
G1 X151.195 Y127.877 E0.01736
G1 X151.195 Y124.559 E0.10403
G1 X151.396 Y124.559 E0.00629
