; generated by PrusaSlicer 2.3.1+x64 on 2024-07-27 at 16:56:56 UTC

; 

; external perimeters extrusion width = 0.45mm
; perimeters extrusion width = 0.45mm
; infill extrusion width = 0.45mm
; solid infill extrusion width = 0.45mm
; top infill extrusion width = 0.40mm
; support material extrusion width = 0.35mm
; first layer extrusion width = 0.42mm

M73 P0 R109
M73 Q0 S109
M201 X1000 Y1000 Z200 E5000 ; sets maximum accelerations, mm/sec^2
M203 X200 Y200 Z12 E120 ; sets maximum feedrates, mm/sec
M204 P1250 R1250 T1250 ; sets acceleration (P, T) and retract acceleration (R), mm/sec^2
M205 X8.00 Y8.00 Z0.40 E4.50 ; sets the jerk limits, mm/sec
M205 S0 T0 ; sets the minimum extruding and travel feed rate, mm/sec
M107
;TYPE:Custom
M862.3 P "MK3S" ; printer model check
M862.1 P0.4 ; nozzle diameter check
M115 U3.9.3 ; tell printer latest fw version
G90 ; use absolute coordinates
M83 ; extruder relative mode
M104 S215 ; set extruder temp
M140 S60 ; set bed temp
M190 S60 ; wait for bed temp
M109 S215 ; wait for extruder temp
G28 W ; home all without mesh bed level
G80 ; mesh bed leveling
G1 Y-3.0 F1000.0 ; go outside print area
G92 E0.0
G1 X60.0 E9.0 F1000.0 ; intro line
G1 X100.0 E12.5 F1000.0 ; intro line
G92 E0.0
M221 S95

; Don't change E values below. Excessive value can damage the printer.
M907 E430 ; set extruder motor current
G21 ; set units to millimeters
G90 ; use absolute coordinates
M83 ; use relative distances for extrusion
M900 K0.05 ; Filament gcode LA 1.5
M900 K30 ; Filament gcode LA 1.0
;LAYER_CHANGE
;Z:0.2
;HEIGHT:0.2
;BEFORE_LAYER_CHANGE
G92 E0.0
;0.2


G1 E-0.80000 F2100.000
G1 Z0.400 F10800.000
;AFTER_LAYER_CHANGE
;0.2
G1 X93.818 Y83.748
G1 Z0.200
G1 E0.80000 F2100.000
M204 S1000
;TYPE:Skirt
;WIDTH:0.42
G1 F1200.000
G1 X97.867 Y80.272 E0.16735
G1 X110.730 Y70.115 E0.51387
G1 X111.416 Y69.749 E0.02437
G1 X112.183 Y69.623 E0.02437
G1 X137.848 Y69.792 E0.80473
G1 X138.563 Y69.911 E0.02272
G1 X139.227 Y70.253 E0.02343
G1 X152.677 Y80.265 E0.52573
G1 X156.395 Y84.130 E0.16815
M73 P0 R108
G1 X159.604 Y91.117 E0.24107
G1 X159.794 Y91.843 E0.02355
G1 X159.795 Y118.325 E0.83033
G1 X159.606 Y119.048 E0.02343
G1 X156.479 Y125.895 E0.23600
G1 X156.079 Y126.348 E0.01894
G1 X151.951 Y129.861 E0.16995
G1 X151.115 Y130.207 E0.02837
G1 X129.684 Y134.401 E0.68471
G1 X127.815 Y134.638 E0.05906
G1 X125.947 Y134.756 E0.05870
G1 X124.071 Y134.756 E0.05882
G1 X122.259 Y134.643 E0.05691
G1 X120.274 Y134.391 E0.06276
G1 X98.108 Y130.150 E0.70758
G1 X97.604 Y129.928 E0.01728
G1 X97.167 Y129.599 E0.01716
G1 X93.605 Y125.870 E0.16169
G1 X90.396 Y118.883 E0.24107
G1 X90.205 Y118.149 E0.02378
G1 X90.194 Y91.895 E0.82318
G1 X90.314 Y91.161 E0.02331
G1 X93.338 Y84.425 E0.23151
G1 X93.783 Y83.797 E0.02414
; printing object Smartwatch_Base1.stl id:0 copy 0
;WIPE_START
G1 F8640.000
G1 X96.275 Y81.647 E-0.76000
;WIPE_END
G1 E-0.04000 F2100.000
G1 Z0.600 F10800.000
G1 X98.592 Y88.268
G1 Z0.200
G1 E0.80000 F2100.000
;TYPE:Support material interface
;WIDTH:0.35
G1 F1200.000
G1 X98.592 Y91.729 E0.08837
G1 X99.110 Y91.729 E0.01322
G1 X99.110 Y88.411 E0.08472
G1 X99.627 Y88.411 E0.01322
G1 X99.627 Y91.729 E0.08472
G1 X99.881 Y91.729 E0.00647
G1 X100.145 Y91.244 E0.01410
G1 X100.145 Y88.411 E0.07234
G1 X100.663 Y88.411 E0.01322
G1 X100.663 Y90.317 E0.04866
G1 X101.181 Y89.452 E0.02573
G1 X101.181 Y88.411 E0.02659
G1 X101.699 Y88.411 E0.01322
G1 X101.699 Y89.204 E0.02024
G1 X101.621 Y88.233 F10800.000
;TYPE:Support material
;WIDTH:0.42
G1 F1200.000
G1 X101.621 Y82.123 E0.19158
G1 X100.867 Y82.123 E0.02365
G1 X100.867 Y88.063 E0.18626
G1 X100.113 Y88.063 E0.02365
G1 X100.113 Y82.123 E0.18626
G1 X99.359 Y82.123 E0.02365
G1 X99.359 Y88.063 E0.18626
G1 X98.604 Y88.063 E0.02365
G1 X98.604 Y85.441 E0.08224
G1 X97.850 Y85.441 E0.02365
G1 X97.850 Y124.559 E1.22654
G1 X97.096 Y124.559 E0.02365
G1 X97.096 Y85.441 E1.22654
G1 X96.342 Y85.441 E0.02365
G1 X96.342 Y124.559 E1.22654
G1 X95.588 Y124.559 E0.02365
G1 X95.588 Y85.441 E1.22654
G1 X95.487 Y85.441 E0.00315
G1 X95.487 Y92.076 E0.20806
G1 X94.834 Y92.076 E0.02049
G1 X94.834 Y117.924 E0.81043
G1 X94.079 Y117.924 E0.02365
G1 X94.079 Y92.076 E0.81043
G1 X93.325 Y92.076 E0.02365
G1 X93.325 Y117.924 E0.81043
G1 X92.571 Y117.924 E0.02365
G1 X92.571 Y91.907 E0.81575
;WIPE_START
G1 F8640.000
G1 X92.571 Y95.198 E-0.76000
;WIPE_END
G1 E-0.04000 F2100.000
G1 Z0.600 F10800.000
G1 X107.654 Y128.047
G1 Z0.200
G1 E0.80000 F2100.000
G1 F1200.000
G1 X107.654 Y125.968 E0.06517
G1 X106.900 Y125.336 E0.03086
G1 X106.900 Y127.877 E0.07968
G1 X106.146 Y127.877 E0.02365
G1 X106.146 Y124.624 E0.10199
G1 X105.712 Y124.215 E0.01873
G1 X105.392 Y123.873 E0.01467
G1 X105.392 Y127.877 E0.12554
G1 X104.638 Y127.877 E0.02365
G1 X104.638 Y123.066 E0.15085
G1 X103.884 Y122.164 E0.03685
G1 X103.884 Y127.877 E0.17912
G1 X103.129 Y127.877 E0.02365
G1 X103.129 Y121.195 E0.20952
G1 X102.375 Y120.138 E0.04072
G1 X102.375 Y127.877 E0.24267
G1 X101.621 Y127.877 E0.02365
G1 X101.621 Y121.937 E0.18626
G1 X100.867 Y121.937 E0.02365
G1 X100.867 Y127.877 E0.18626
G1 X100.113 Y127.877 E0.02365
G1 X100.113 Y121.937 E0.18626
G1 X99.359 Y121.937 E0.02365
G1 X99.359 Y127.877 E0.18626
G1 X98.805 Y127.877 E0.01736
G1 X98.805 Y124.559 E0.10403
G1 X98.604 Y124.559 E0.00629
G1 X98.604 Y121.937 E0.08223
G1 X98.110 Y121.937 E0.01550
G1 X98.110 Y117.924 E0.12582
G1 X98.604 Y117.924 E0.01550
G1 X98.604 Y92.076 E0.81043
G1 X99.359 Y92.076 E0.02365
G1 X99.359 Y117.924 E0.81043
G1 X100.087 Y117.924 E0.02284
G1 X100.113 Y117.971 E0.00169
G1 X100.113 Y116.017 E0.06128
G1 X100.698 Y117.272 E0.04345
G1 X100.867 Y117.582 E0.01107
G1 X100.867 Y119.344 E0.05525
G1 X101.376 Y120.201 E0.03124
G1 X101.534 Y120.157 E0.00513
G1 X101.621 Y120.295 E0.00514
G1 X101.621 Y118.611 E0.05282
;WIPE_START
G1 F8640.000
G1 X101.621 Y120.295 E-0.38902
G1 X101.534 Y120.157 E-0.03786
G1 X101.376 Y120.201 E-0.03779
G1 X100.867 Y119.344 E-0.23005
G1 X100.867 Y119.062 E-0.06529
;WIPE_END
G1 E-0.04000 F2100.000
G1 Z0.600 F10800.000
G1 X98.592 Y118.128
G1 Z0.200
G1 E0.80000 F2100.000
;TYPE:Support material interface
;WIDTH:0.35
G1 F1200.000
G1 X98.592 Y121.589 E0.08837
M73 Q0 S108
G1 X99.110 Y121.589 E0.01322
G1 X99.110 Y118.271 E0.08472
G1 X99.627 Y118.271 E0.01322
G1 X99.627 Y121.589 E0.08472
G1 X100.145 Y121.589 E0.01322
G1 X100.145 Y118.756 E0.07234
G1 X100.663 Y119.685 E0.02715
G1 X100.663 Y121.589 E0.04863
G1 X101.181 Y121.589 E0.01322
G1 X101.181 Y120.550 E0.02653
G1 X101.215 Y120.607 E0.00169
G1 X101.378 Y120.561 E0.00432
G1 X101.699 Y121.041 E0.01473
G1 X101.699 Y121.732 E0.01766
;WIPE_START
G1 F8640.000
G1 X101.699 Y121.041 E-0.15967
G1 X101.378 Y120.561 E-0.13317
G1 X101.215 Y120.607 E-0.03906
G1 X101.181 Y120.550 E-0.01529
G1 X101.181 Y121.589 E-0.23988
G1 X100.663 Y121.589 E-0.11956
G1 X100.663 Y121.358 E-0.05337
;WIPE_END
G1 E-0.04000 F2100.000
G1 Z0.600 F10800.000
G1 X103.129 Y113.548
G1 Z0.200
G1 E0.80000 F2100.000
;TYPE:Support material
;WIDTH:0.42
G1 F1200.000
G1 X103.129 Y96.672 E0.52912
G1 X103.031 Y96.592 E0.00398
G1 X102.801 Y96.468 E0.00819
G1 X102.551 Y96.392 E0.00819
G1 X102.375 Y96.375 E0.00553
G1 X102.375 Y113.625 E0.54085
G1 X101.621 Y113.636 E0.02365
G1 X101.621 Y96.364 E0.54155
G1 X100.867 Y96.364 E0.02365
G1 X100.867 Y113.636 E0.54155
G1 X100.339 Y113.678 E0.01661
G1 X100.113 Y113.747 E0.00742
G1 X100.113 Y96.067 E0.55436
;WIPE_START
G1 F8640.000
G1 X100.113 Y99.358 E-0.76000
;WIPE_END
G1 E-0.04000 F2100.000
G1 Z0.600 F10800.000
G1 X100.113 Y91.675
G1 Z0.200
G1 E0.80000 F2100.000
G1 F1200.000
G1 X100.113 Y93.983 E0.07239
G1 X100.698 Y92.728 E0.04345
G1 X100.867 Y92.418 E0.01107
G1 X100.867 Y90.656 E0.05523
G1 X101.378 Y89.797 E0.03135
G1 X101.535 Y89.841 E0.00511
G1 X101.621 Y89.705 E0.00506
G1 X101.621 Y91.059 E0.04247
G1 X102.375 Y89.862 E0.04435
G1 X102.375 Y82.123 E0.24267
G1 X103.129 Y82.123 E0.02365
G1 X103.129 Y88.805 E0.20952
G1 X103.449 Y88.364 E0.01710
G1 X103.884 Y87.835 E0.02144
G1 X103.884 Y82.123 E0.17912
G1 X104.638 Y82.123 E0.02365
G1 X104.638 Y86.934 E0.15085
G1 X105.392 Y86.127 E0.03464
G1 X105.392 Y82.123 E0.12554
G1 X106.146 Y82.123 E0.02365
G1 X106.146 Y85.376 E0.10199
G1 X106.900 Y84.664 E0.03251
G1 X106.900 Y82.123 E0.07968
G1 X107.654 Y82.123 E0.02365
G1 X107.654 Y84.252 E0.06676
;WIPE_START
G1 F8640.000
G1 X107.654 Y82.123 E-0.49167
G1 X106.900 Y82.123 E-0.17414
G1 X106.900 Y82.531 E-0.09419
;WIPE_END
G1 E-0.04000 F2100.000
G1 Z0.600 F10800.000
G1 X112.179 Y72.000
G1 Z0.200
G1 E0.80000 F2100.000
G1 F1200.000
G1 X112.179 Y80.992 E0.28196
G1 X112.601 Y80.760 E0.01510
G1 X112.933 Y80.602 E0.01154
G1 X112.933 Y72.169 E0.26440
G1 X113.688 Y72.169 E0.02365
G1 X113.688 Y80.246 E0.25324
G1 X114.442 Y79.911 E0.02587
G1 X114.442 Y72.169 E0.24273
G1 X115.196 Y72.169 E0.02365
G1 X115.196 Y79.611 E0.23334
G1 X115.950 Y79.326 E0.02529
G1 X115.950 Y72.169 E0.22438
G1 X116.704 Y72.169 E0.02365
G1 X116.704 Y79.080 E0.21667
G1 X117.458 Y78.839 E0.02482
G1 X117.458 Y72.169 E0.20912
G1 X118.213 Y72.169 E0.02365
G1 X118.213 Y78.645 E0.20303
G1 X118.967 Y78.450 E0.02442
G1 X118.967 Y72.169 E0.19694
G1 X119.721 Y72.169 E0.02365
G1 X119.721 Y78.301 E0.19224
G1 X120.475 Y78.156 E0.02408
G1 X120.475 Y72.169 E0.18772
G1 X121.229 Y72.169 E0.02365
G1 X121.229 Y78.044 E0.18420
G1 X121.983 Y77.949 E0.02384
G1 X121.983 Y72.169 E0.18120
G1 X122.738 Y72.169 E0.02365
G1 X122.738 Y77.872 E0.17881
G1 X123.492 Y77.825 E0.02369
G1 X123.492 Y72.169 E0.17731
G1 X124.246 Y72.169 E0.02365
G1 X124.246 Y77.783 E0.17602
G1 X125.000 Y77.783 E0.02365
G1 X125.000 Y72.169 E0.17602
G1 X125.754 Y72.169 E0.02365
G1 X125.754 Y77.783 E0.17602
G1 X126.508 Y77.824 E0.02368
G1 X126.508 Y72.169 E0.17729
G1 X127.262 Y72.169 E0.02365
G1 X127.262 Y77.871 E0.17878
G1 X128.017 Y77.947 E0.02376
G1 X128.017 Y72.169 E0.18115
G1 X128.771 Y72.169 E0.02365
G1 X128.771 Y78.043 E0.18415
G1 X129.525 Y78.154 E0.02390
G1 X129.525 Y72.169 E0.18764
G1 X130.279 Y72.169 E0.02365
G1 X130.279 Y78.298 E0.19217
G1 X131.033 Y78.447 E0.02410
G1 X131.033 Y72.169 E0.19684
G1 X131.787 Y72.169 E0.02365
G1 X131.787 Y78.642 E0.20293
G1 X132.542 Y78.836 E0.02442
G1 X132.542 Y72.169 E0.20902
G1 X133.296 Y72.169 E0.02365
G1 X133.296 Y79.076 E0.21655
G1 X134.050 Y79.322 E0.02487
G1 X134.050 Y72.169 E0.22425
M73 Q1 S108
G1 X134.804 Y72.169 E0.02365
G1 X134.804 Y79.607 E0.23319
M73 P1 R108
G1 X135.558 Y79.906 E0.02544
G1 X135.558 Y72.169 E0.24258
G1 X136.312 Y72.169 E0.02365
G1 X136.312 Y80.240 E0.25306
G1 X137.067 Y80.596 E0.02615
G1 X137.067 Y72.169 E0.26422
G1 X137.821 Y72.169 E0.02365
G1 X137.821 Y81.179 E0.28250
;WIPE_START
G1 F8640.000
G1 X137.821 Y77.888 E-0.76000
;WIPE_END
G1 E-0.04000 F2100.000
G1 Z0.600 F10800.000
G1 X142.346 Y81.953
G1 Z0.200
G1 E0.80000 F2100.000
G1 F1200.000
G1 X142.346 Y84.021 E0.06485
G1 X143.100 Y84.653 E0.03083
G1 X143.100 Y82.123 E0.07932
G1 X143.854 Y82.123 E0.02365
G1 X143.854 Y85.364 E0.10163
G1 X144.301 Y85.785 E0.01925
G1 X144.608 Y86.114 E0.01410
G1 X144.608 Y82.123 E0.12513
G1 X145.362 Y82.123 E0.02365
G1 X145.362 Y86.921 E0.15044
G1 X146.116 Y87.821 E0.03681
G1 X146.116 Y82.123 E0.17865
G1 X146.871 Y82.123 E0.02365
G1 X146.871 Y88.788 E0.20899
G1 X147.625 Y89.843 E0.04065
G1 X147.625 Y82.123 E0.24206
G1 X148.379 Y82.123 E0.02365
G1 X148.379 Y88.063 E0.18626
G1 X149.133 Y88.063 E0.02365
G1 X149.133 Y82.123 E0.18626
M73 P1 R107
G1 X149.887 Y82.123 E0.02365
G1 X149.887 Y88.063 E0.18626
G1 X150.641 Y88.063 E0.02365
G1 X150.641 Y82.123 E0.18626
G1 X151.195 Y82.123 E0.01736
G1 X151.195 Y85.441 E0.10403
G1 X151.396 Y85.441 E0.00629
G1 X151.396 Y88.233 E0.08755
;WIPE_START
G1 F8640.000
G1 X151.396 Y85.441 E-0.64478
G1 X151.195 Y85.441 E-0.04633
G1 X151.195 Y85.142 E-0.06890
;WIPE_END
G1 E-0.04000 F2100.000
G1 Z0.600 F10800.000
G1 X151.408 Y91.872
G1 Z0.200
G1 E0.80000 F2100.000
;TYPE:Support material interface
;WIDTH:0.35
G1 F1200.000
G1 X151.408 Y88.411 E0.08837
G1 X150.890 Y88.411 E0.01322
G1 X150.890 Y91.729 E0.08472
G1 X150.373 Y91.729 E0.01322
G1 X150.373 Y88.411 E0.08472
G1 X149.855 Y88.411 E0.01322
G1 X149.855 Y91.221 E0.07176
G1 X149.337 Y90.294 E0.02711
G1 X149.337 Y88.411 E0.04809
G1 X148.819 Y88.411 E0.01322
G1 X148.819 Y89.430 E0.02601
G1 X148.797 Y89.393 E0.00108
G1 X148.634 Y89.439 E0.00432
G1 X148.301 Y88.942 E0.01526
G1 X148.301 Y88.268 E0.01722
;WIPE_START
G1 F8640.000
G1 X148.301 Y88.942 E-0.15577
G1 X148.634 Y89.439 E-0.13799
G1 X148.797 Y89.393 E-0.03906
G1 X148.819 Y89.430 E-0.00981
G1 X148.819 Y88.411 E-0.23520
G1 X149.337 Y88.411 E-0.11956
G1 X149.337 Y88.682 E-0.06261
;WIPE_END
G1 E-0.04000 F2100.000
G1 Z0.600 F10800.000
G1 X148.379 Y89.367
G1 Z0.200
G1 E0.80000 F2100.000
;TYPE:Support material
;WIDTH:0.42
G1 F1200.000
G1 X148.379 Y91.040 E0.05244
G1 X149.133 Y92.395 E0.04864
G1 X149.133 Y90.635 E0.05520
G1 X149.887 Y92.007 E0.04909
G1 X149.887 Y94.360 E0.07378
;WIPE_START
G1 F8640.000
G1 X149.887 Y92.007 E-0.54333
G1 X149.435 Y91.184 E-0.21667
;WIPE_END
G1 E-0.04000 F2100.000
G1 Z0.600 F10800.000
G1 X146.871 Y97.024
G1 Z0.200
G1 E0.80000 F2100.000
G1 F1200.000
G1 X146.871 Y112.276 E0.47822
G1 X146.899 Y112.560 E0.00894
G1 X146.974 Y112.810 E0.00819
G1 X147.098 Y113.041 E0.00819
G1 X147.263 Y113.243 E0.00819
G1 X147.465 Y113.408 E0.00819
G1 X147.625 Y113.494 E0.00566
G1 X147.625 Y96.506 E0.53263
G1 X147.946 Y96.392 E0.01069
G1 X148.379 Y96.364 E0.01360
G1 X148.379 Y113.636 E0.54155
G1 X149.133 Y113.636 E0.02365
G1 X149.133 Y96.364 E0.54155
G1 X149.673 Y96.322 E0.01699
G1 X149.887 Y96.258 E0.00701
G1 X149.887 Y113.928 E0.55403
;WIPE_START
G1 F8640.000
G1 X149.887 Y110.636 E-0.76000
;WIPE_END
G1 E-0.04000 F2100.000
G1 Z0.600 F10800.000
G1 X151.396 Y118.093
G1 Z0.200
G1 E0.80000 F2100.000
G1 F1200.000
G1 X151.396 Y92.076 E0.81575
G1 X150.641 Y92.076 E0.02365
G1 X150.641 Y117.924 E0.81043
G1 X149.925 Y117.924 E0.02245
G1 X149.887 Y117.993 E0.00249
G1 X149.887 Y116.043 E0.06116
G1 X149.314 Y117.272 E0.04254
G1 X149.133 Y117.605 E0.01187
G1 X149.133 Y119.701 E0.06572
;WIPE_START
G1 F8640.000
G1 X149.133 Y117.605 E-0.48395
G1 X149.314 Y117.272 E-0.08741
G1 X149.659 Y116.532 E-0.18865
;WIPE_END
G1 E-0.04000 F2100.000
G1 Z0.600 F10800.000
G1 X148.301 Y120.813
G1 Z0.200
G1 E0.80000 F2100.000
;TYPE:Support material interface
;WIDTH:0.35
G1 F1200.000
G1 X148.301 Y121.589 E0.01981
G1 X148.819 Y121.589 E0.01322
G1 X148.819 Y120.568 E0.02608
G1 X149.337 Y119.704 E0.02571
G1 X149.337 Y121.589 E0.04813
G1 X149.855 Y121.589 E0.01322
G1 X149.855 Y118.779 E0.07176
G1 X150.132 Y118.271 E0.01476
G1 X150.373 Y118.271 E0.00615
G1 X150.373 Y121.589 E0.08472
G1 X150.890 Y121.589 E0.01322
G1 X150.890 Y118.271 E0.08472
G1 X151.408 Y118.271 E0.01322
G1 X151.408 Y121.732 E0.08837
;WIPE_START
G1 F8640.000
G1 X151.408 Y118.441 E-0.76000
;WIPE_END
G1 E-0.04000 F2100.000
G1 Z0.600 F10800.000
G1 X157.429 Y118.093
G1 Z0.200
G1 E0.80000 F2100.000
;TYPE:Support material
;WIDTH:0.42
G1 F1200.000
G1 X157.429 Y92.076 E0.81575
G1 X156.675 Y92.076 E0.02365
G1 X156.675 Y117.924 E0.81043
G1 X155.921 Y117.924 E0.02365
G1 X155.921 Y92.076 E0.81043
G1 X155.166 Y92.076 E0.02365
G1 X155.166 Y117.924 E0.81043
G1 X154.513 Y117.924 E0.02049
G1 X154.513 Y124.559 E0.20806
G1 X154.412 Y124.559 E0.00315
G1 X154.412 Y85.441 E1.22654
G1 X153.658 Y85.441 E0.02365
G1 X153.658 Y124.559 E1.22654
G1 X152.904 Y124.559 E0.02365
G1 X152.904 Y85.441 E1.22654
G1 X152.150 Y85.441 E0.02365
G1 X152.150 Y124.559 E1.22654
G1 X151.396 Y124.559 E0.02365
G1 X151.396 Y121.937 E0.08224
G1 X150.641 Y121.937 E0.02365
G1 X150.641 Y127.877 E0.18626
G1 X149.887 Y127.877 E0.02365
G1 X149.887 Y121.937 E0.18626
G1 X149.133 Y121.937 E0.02365
G1 X149.133 Y127.877 E0.18626
G1 X148.379 Y127.877 E0.02365
G1 X148.379 Y121.937 E0.18626
G1 X147.877 Y121.937 E0.01573
G1 X147.877 Y121.051 E0.02775
G1 X148.170 Y120.645 E0.01571
G1 X148.379 Y120.315 E0.01225
G1 X148.379 Y118.960 E0.04247
G1 X147.625 Y120.157 E0.04435
G1 X147.625 Y127.877 E0.24206
G1 X146.871 Y127.877 E0.02365
G1 X146.871 Y121.212 E0.20899
G1 X146.563 Y121.636 E0.01644
G1 X146.116 Y122.179 E0.02204
G1 X146.116 Y127.877 E0.17865
G1 X145.362 Y127.877 E0.02365
