; generated by PrusaSlicer 2.3.1+x64 on 2024-07-26 at 04:51:32 UTC

; 

; external perimeters extrusion width = 0.45mm
; perimeters extrusion width = 0.45mm
; infill extrusion width = 0.45mm
; solid infill extrusion width = 0.45mm
; top infill extrusion width = 0.40mm
; support material extrusion width = 0.35mm
; first layer extrusion width = 0.42mm

M73 P0 R33
M73 Q0 S33
M201 X1000 Y1000 Z200 E5000 ; sets maximum accelerations, mm/sec^2
M203 X200 Y200 Z12 E120 ; sets maximum feedrates, mm/sec
M204 P1250 R1250 T1250 ; sets acceleration (P, T) and retract acceleration (R), mm/sec^2
M205 X8.00 Y8.00 Z0.40 E4.50 ; sets the jerk limits, mm/sec
M205 S0 T0 ; sets the minimum extruding and travel feed rate, mm/sec
M107
;TYPE:Custom
M862.3 P "MK3S" ; printer model check
M862.1 P0.4 ; nozzle diameter check
M115 U3.9.3 ; tell printer latest fw version
G90 ; use absolute coordinates
M83 ; extruder relative mode
M104 S230 ; set extruder temp
M140 S50 ; set bed temp
M190 S50 ; wait for bed temp
M109 S230 ; wait for extruder temp
G28 W ; home all without mesh bed level
G80 ; mesh bed leveling
G1 Y-3.0 F1000.0 ; go outside print area
G92 E0.0
G1 X60.0 E9.0 F1000.0 ; intro line
G1 X100.0 E12.5 F1000.0 ; intro line
G92 E0.0
M221 S95

; Don't change E values below. Excessive value can damage the printer.
M907 E430 ; set extruder motor current
G21 ; set units to millimeters
G90 ; use absolute coordinates
M83 ; use relative distances for extrusion
M900 K0
;LAYER_CHANGE
;Z:0.2
;HEIGHT:0.2
;BEFORE_LAYER_CHANGE
G92 E0.0
;0.2


G1 E-1.00000 F2100.000
G1 Z0.200 F10800.000
;AFTER_LAYER_CHANGE
;0.2
G1 X81.985 Y83.196
G1 E1.00000 F1500.000
M204 S1000
;TYPE:Skirt
;WIDTH:0.42
G1 F1200.000
G1 X82.732 Y83.064 E0.02616
G1 X91.067 Y83.064 E0.28745
G1 X161.575 Y94.282 E2.46239
G1 X162.695 Y94.544 E0.03968
G1 X163.550 Y94.871 E0.03158
G1 X164.447 Y95.362 E0.03525
G1 X165.263 Y95.971 E0.03512
G1 X165.915 Y96.613 E0.03158
G1 X166.712 Y97.677 E0.04584
G1 X167.146 Y98.487 E0.03171
G1 X167.501 Y99.442 E0.03512
G1 X167.721 Y100.448 E0.03552
G1 X167.796 Y101.422 E0.03368
G1 X167.797 Y108.511 E0.24452
G1 X167.719 Y109.567 E0.03649
G1 X167.456 Y110.695 E0.03996
G1 X167.128 Y111.554 E0.03171
G1 X166.626 Y112.466 E0.03591
G1 X166.011 Y113.283 E0.03525
G1 X165.275 Y114.019 E0.03591
G1 X164.447 Y114.638 E0.03565
G1 X163.544 Y115.132 E0.03552
G1 X162.573 Y115.497 E0.03578
G1 X161.638 Y115.707 E0.03302
G1 X91.390 Y127.083 E2.45441
G1 X82.148 Y126.935 E0.31881
G1 X81.406 Y126.794 E0.02603
G1 X80.965 Y126.580 E0.01692
G1 X80.579 Y126.283 E0.01679
G1 X77.236 Y122.839 E0.16557
G1 X76.835 Y122.230 E0.02512
G1 X76.637 Y121.529 E0.02512
G1 X76.619 Y88.585 E1.13625
G1 X76.675 Y88.075 E0.01770
G1 X76.938 Y87.399 E0.02499
G1 X77.389 Y86.837 E0.02486
G1 X81.291 Y83.577 E0.17535
G1 X81.933 Y83.225 E0.02526
; printing object Smartwatch_WriststrapM.stl id:0 copy 0
G1 E-1.00000 F2100.000
G1 X78.996 Y88.589 F10800.000
G1 E1.00000 F1500.000
;TYPE:Support material
G1 F1200.000
G1 X78.996 Y121.242 E1.12618
M73 P1 R33
M73 Q1 S33
G1 X79.750 Y121.242 E0.02601
G1 X79.750 Y88.758 E1.12033
G1 X80.505 Y88.758 E0.02601
G1 X80.505 Y121.242 E1.12033
G1 X81.259 Y121.242 E0.02601
G1 X81.259 Y88.758 E1.12033
G1 X82.013 Y88.758 E0.02601
G1 X82.013 Y91.381 E0.09046
G1 X82.767 Y91.381 E0.02601
G1 X82.767 Y85.441 E0.20489
G1 X83.521 Y85.441 E0.02601
M73 P1 R32
G1 X83.521 Y91.381 E0.20489
G1 X84.275 Y91.381 E0.02601
G1 X84.275 Y85.441 E0.20489
G1 X85.030 Y85.441 E0.02601
G1 X85.030 Y88.063 E0.09046
G1 X85.784 Y88.063 E0.02601
G1 X85.784 Y85.441 E0.09046
G1 X86.538 Y85.441 E0.02601
G1 X86.538 Y88.063 E0.09046
G1 X87.292 Y88.063 E0.02601
G1 X87.292 Y85.441 E0.09046
G1 X88.046 Y85.441 E0.02601
G1 X88.046 Y88.063 E0.09046
G1 X88.800 Y88.063 E0.02601
G1 X88.800 Y85.441 E0.09046
G1 X89.555 Y85.441 E0.02601
G1 X89.555 Y96.305 E0.37471
G1 X90.309 Y96.305 E0.02601
G1 X90.309 Y85.441 E0.37471
G1 X91.063 Y85.441 E0.02601
G1 X91.063 Y96.475 E0.38057
G1 E-1.00000 F2100.000
G1 X86.164 Y91.567 F10800.000
G1 E1.00000 F1500.000
;TYPE:Support material interface
;WIDTH:0.35
G1 F1200.000
G1 X86.164 Y88.411 E0.08866
G1 X85.647 Y88.411 E0.01454
G1 X85.647 Y91.899 E0.09796
G1 E-1.00000 F2100.000
G1 X82.022 Y91.586 F10800.000
G1 E1.00000 F1500.000
G1 F1200.000
G1 X82.022 Y98.364 E0.19039
G1 X82.540 Y98.364 E0.01454
G1 X82.540 Y91.729 E0.18638
G1 X83.057 Y91.729 E0.01454
G1 X83.057 Y98.364 E0.18638
G1 X83.575 Y98.364 E0.01454
G1 X83.575 Y91.729 E0.18638
G1 X84.093 Y91.729 E0.01454
G1 X84.093 Y98.364 E0.18638
G1 X84.611 Y98.364 E0.01454
G1 X84.611 Y92.903 E0.15338
G1 X85.072 Y92.917 E0.01296
G1 X85.075 Y93.019 E0.00288
G1 X85.129 Y93.018 E0.00151
G1 X85.129 Y93.118 E0.00281
G1 X85.647 Y93.109 E0.01455
G1 X85.647 Y93.003 E0.00298
G1 X86.164 Y92.987 E0.01455
G1 X86.164 Y93.392 E0.01136
G1 X86.232 Y93.894 E0.01422
G1 X86.303 Y95.404 E0.04245
G1 X86.387 Y95.598 E0.00595
G1 X86.314 Y95.630 E0.00226
G1 X86.315 Y95.653 E0.00065
G1 X86.682 Y95.853 E0.01175
G1 X86.682 Y88.411 E0.20903
G1 X87.200 Y88.411 E0.01454
G1 X87.200 Y96.022 E0.21379
G1 X87.718 Y96.038 E0.01455
G1 X87.718 Y88.411 E0.21423
G1 X88.236 Y88.411 E0.01454
G1 X88.236 Y96.181 E0.21825
G1 X85.784 Y96.285 F10800.000
;TYPE:Support material
;WIDTH:0.42
G1 F1200.000
G1 X85.784 Y95.763 E0.01798
G1 X85.768 Y95.753 E0.00066
G1 X85.770 Y95.712 E0.00141
G1 X85.245 Y95.712 E0.01810
G1 X85.306 Y95.852 E0.00528
G1 X85.306 Y96.028 E0.00606
G1 X85.284 Y96.167 E0.00487
G1 X85.198 Y96.365 E0.00742
G1 X85.173 Y96.488 E0.00435
G1 X85.172 Y98.712 E0.07669
G1 X85.030 Y98.712 E0.00493
G1 X85.030 Y107.970 E0.31932
G1 X84.275 Y107.970 E0.02601
G1 X84.275 Y98.712 E0.31932
G1 X83.521 Y98.712 E0.02601
G1 X83.521 Y107.970 E0.31932
M73 Q1 S32
G1 X82.767 Y107.970 E0.02601
G1 X82.767 Y98.712 E0.31932
G1 X82.013 Y98.712 E0.02601
G1 X82.013 Y107.970 E0.31932
G1 X81.521 Y107.970 E0.01697
G1 X81.521 Y118.466 E0.36198
G1 X81.581 Y118.619 E0.00567
G1 X82.013 Y118.619 E0.01491
G1 X82.013 Y121.242 E0.09046
G1 X82.216 Y121.242 E0.00700
G1 X82.216 Y124.559 E0.11443
G1 X82.767 Y124.559 E0.01901
G1 X82.767 Y118.619 E0.20489
G1 X83.521 Y118.619 E0.02601
G1 X83.521 Y124.559 E0.20489
G1 X84.275 Y124.559 E0.02601
G1 X84.275 Y118.619 E0.20489
M73 P2 R32
M73 Q2 S32
G1 X84.521 Y118.619 E0.00847
G1 X84.521 Y118.937 E0.01096
G1 X84.839 Y118.937 E0.01096
G1 X84.839 Y121.937 E0.10347
G1 X85.030 Y121.937 E0.00658
G1 X85.030 Y124.559 E0.09046
G1 X85.784 Y124.559 E0.02601
G1 X85.784 Y121.937 E0.09046
G1 X86.538 Y121.937 E0.02601
G1 X86.538 Y124.559 E0.09046
G1 X87.292 Y124.559 E0.02601
G1 X87.292 Y121.937 E0.09046
G1 X88.046 Y121.937 E0.02601
G1 X88.046 Y124.559 E0.09046
G1 X88.800 Y124.559 E0.02601
G1 X88.800 Y121.937 E0.09046
G1 X88.852 Y121.937 E0.00177
G1 X88.852 Y113.695 E0.28425
G1 X89.555 Y113.695 E0.02424
G1 X89.555 Y124.559 E0.37471
G1 X90.309 Y124.559 E0.02601
G1 X90.309 Y113.695 E0.37471
G1 X91.063 Y113.695 E0.02601
G1 X91.063 Y124.729 E0.38056
G1 E-1.00000 F2100.000
G1 X88.236 Y121.732 F10800.000
G1 E1.00000 F1500.000
;TYPE:Support material interface
;WIDTH:0.35
G1 F1200.000
G1 X88.236 Y113.962 E0.21825
G1 X87.718 Y113.962 E0.01454
G1 X87.718 Y121.589 E0.21423
G1 X87.200 Y121.589 E0.01454
G1 X87.200 Y113.975 E0.21385
G1 X86.950 Y114.026 E0.00717
G1 X86.682 Y114.109 E0.00787
G1 X86.682 Y121.589 E0.21010
G1 X86.164 Y121.589 E0.01454
G1 X86.164 Y118.625 E0.08326
G1 X85.909 Y118.771 E0.00826
G1 X85.647 Y118.830 E0.00756
G1 X85.647 Y121.732 E0.08151
G1 E-1.00000 F2100.000
G1 X86.538 Y113.566 F10800.000
G1 E1.00000 F1500.000
;TYPE:Support material
;WIDTH:0.42
G1 F1200.000
G1 X86.538 Y113.972 E0.01399
G1 E-1.00000 F2100.000
G1 X86.164 Y117.224 F10800.000
G1 E1.00000 F1500.000
;TYPE:Support material interface
;WIDTH:0.35
G1 F1200.000
G1 X86.164 Y116.836 E0.01088
G1 X85.647 Y116.857 E0.01455
G1 X85.647 Y116.993 E0.00384
G1 X85.129 Y117.008 E0.01455
G1 X85.129 Y116.877 E0.00369
G1 X84.874 Y116.887 E0.00715
G1 X84.769 Y116.112 E0.02196
G1 X84.636 Y113.522 E0.07285
G1 X84.636 Y110.839 E0.07537
G1 X85.011 Y110.839 E0.01054
G1 X85.003 Y110.489 E0.00982
G1 X84.963 Y109.340 E0.03231
G1 X84.831 Y108.806 E0.01545
G1 X84.823 Y108.318 E0.01370
G1 X84.611 Y108.318 E0.00596
G1 X84.611 Y117.023 E0.24452
G1 X84.486 Y117.027 E0.00352
G1 X84.515 Y118.040 E0.02848
G1 X84.571 Y118.271 E0.00667
G1 X84.093 Y118.271 E0.01342
G1 X84.093 Y108.318 E0.27956
G1 X83.575 Y108.318 E0.01454
G1 X83.575 Y118.271 E0.27956
G1 X83.057 Y118.271 E0.01454
G1 X83.057 Y108.318 E0.27956
G1 X82.540 Y108.318 E0.01454
G1 X82.540 Y118.271 E0.27956
G1 X82.022 Y118.271 E0.01454
G1 X82.022 Y108.175 E0.28358
G1 E-1.00000 F2100.000
G1 X119.375 Y109.423 F10800.000
G1 E1.00000 F1500.000
;TYPE:Perimeter
;WIDTH:0.42
G1 F1200.000
G1 X119.337 Y109.039 E0.01331
G1 X119.337 Y100.961 E0.27859
G1 X119.375 Y100.577 E0.01331
G1 X119.498 Y100.171 E0.01465
G1 X119.698 Y99.796 E0.01465
G1 X119.968 Y99.468 E0.01465
G1 X120.296 Y99.198 E0.01465
G1 X120.671 Y98.998 E0.01465
G1 X121.077 Y98.875 E0.01465
G1 X121.461 Y98.837 E0.01331
G1 X122.539 Y98.837 E0.03716
G1 X122.923 Y98.875 E0.01331
G1 X123.329 Y98.998 E0.01465
G1 X123.704 Y99.198 E0.01465
G1 X124.032 Y99.468 E0.01465
G1 X124.302 Y99.796 E0.01465
G1 X124.502 Y100.171 E0.01465
G1 X124.625 Y100.577 E0.01465
G1 X124.663 Y100.961 E0.01331
G1 X124.663 Y109.039 E0.27859
G1 X124.625 Y109.423 E0.01331
G1 X124.502 Y109.829 E0.01465
G1 X124.302 Y110.204 E0.01465
G1 X124.032 Y110.532 E0.01465
G1 X123.704 Y110.802 E0.01465
G1 X123.329 Y111.002 E0.01465
G1 X122.923 Y111.125 E0.01465
G1 X122.539 Y111.163 E0.01331
G1 X121.461 Y111.163 E0.03716
G1 X121.077 Y111.125 E0.01331
G1 X120.671 Y111.002 E0.01465
G1 X120.296 Y110.802 E0.01465
G1 X119.968 Y110.532 E0.01465
G1 X119.698 Y110.204 E0.01465
G1 X119.498 Y109.829 E0.01465
G1 X119.392 Y109.480 E0.01258
G1 X119.753 Y109.371 F10800.000
;TYPE:External perimeter
G1 F1200.000
G1 X119.714 Y109.020 E0.01217
G1 X119.714 Y100.980 E0.27731
G1 X119.746 Y100.651 E0.01139
G1 X119.848 Y100.316 E0.01209
G1 X120.013 Y100.007 E0.01209
G1 X120.236 Y99.736 E0.01209
G1 X120.507 Y99.513 E0.01209
G1 X120.816 Y99.348 E0.01209
G1 X121.151 Y99.246 E0.01209
G1 X121.480 Y99.214 E0.01139
G1 X122.520 Y99.214 E0.03588
G1 X122.849 Y99.246 E0.01139
G1 X123.184 Y99.348 E0.01209
G1 X123.493 Y99.513 E0.01209
G1 X123.764 Y99.736 E0.01209
G1 X123.987 Y100.007 E0.01209
G1 X124.152 Y100.316 E0.01209
G1 X124.254 Y100.651 E0.01209
G1 X124.286 Y100.980 E0.01139
G1 X124.286 Y109.020 E0.27731
G1 X124.254 Y109.349 E0.01139
G1 X124.152 Y109.684 E0.01209
G1 X123.987 Y109.993 E0.01209
G1 X123.764 Y110.264 E0.01209
G1 X123.493 Y110.487 E0.01209
G1 X123.184 Y110.652 E0.01209
G1 X122.849 Y110.754 E0.01209
G1 X122.520 Y110.786 E0.01139
G1 X121.480 Y110.786 E0.03588
G1 X121.151 Y110.754 E0.01139
G1 X120.816 Y110.652 E0.01209
G1 X120.507 Y110.487 E0.01209
G1 X120.236 Y110.264 E0.01209
G1 X120.013 Y109.993 E0.01209
G1 X119.848 Y109.684 E0.01209
G1 X119.770 Y109.428 E0.00923
G1 X119.418 Y109.261 F10800.000
G1 E-1.00000 F2100.000
G1 X131.875 Y109.423 F10800.000
G1 E1.00000 F1500.000
;TYPE:Perimeter
G1 F1200.000
G1 X131.837 Y109.039 E0.01331
G1 X131.837 Y100.961 E0.27859
G1 X131.875 Y100.577 E0.01331
G1 X131.998 Y100.171 E0.01465
G1 X132.198 Y99.796 E0.01465
G1 X132.468 Y99.468 E0.01465
G1 X132.796 Y99.198 E0.01465
G1 X133.171 Y98.998 E0.01465
G1 X133.577 Y98.875 E0.01465
G1 X133.961 Y98.837 E0.01331
G1 X135.039 Y98.837 E0.03716
G1 X135.423 Y98.875 E0.01331
G1 X135.829 Y98.998 E0.01465
G1 X136.204 Y99.198 E0.01465
G1 X136.532 Y99.468 E0.01465
G1 X136.802 Y99.796 E0.01465
G1 X137.002 Y100.171 E0.01465
G1 X137.125 Y100.577 E0.01465
G1 X137.163 Y100.961 E0.01331
G1 X137.163 Y109.039 E0.27859
G1 X137.125 Y109.423 E0.01331
G1 X137.002 Y109.829 E0.01465
G1 X136.802 Y110.204 E0.01465
G1 X136.532 Y110.532 E0.01465
G1 X136.204 Y110.802 E0.01465
G1 X135.829 Y111.002 E0.01465
G1 X135.423 Y111.125 E0.01465
G1 X135.039 Y111.163 E0.01331
G1 X133.961 Y111.163 E0.03716
G1 X133.577 Y111.125 E0.01331
G1 X133.171 Y111.002 E0.01465
G1 X132.796 Y110.802 E0.01465
G1 X132.468 Y110.532 E0.01465
G1 X132.198 Y110.204 E0.01465
G1 X131.998 Y109.829 E0.01465
G1 X131.892 Y109.480 E0.01258
G1 X132.253 Y109.371 F10800.000
;TYPE:External perimeter
G1 F1200.000
G1 X132.214 Y109.020 E0.01217
G1 X132.214 Y100.980 E0.27731
G1 X132.246 Y100.651 E0.01139
G1 X132.348 Y100.316 E0.01209
G1 X132.513 Y100.007 E0.01209
G1 X132.736 Y99.736 E0.01209
G1 X133.007 Y99.513 E0.01209
G1 X133.316 Y99.348 E0.01209
G1 X133.651 Y99.246 E0.01209
G1 X133.980 Y99.214 E0.01139
G1 X135.020 Y99.214 E0.03588
G1 X135.349 Y99.246 E0.01139
G1 X135.684 Y99.348 E0.01209
G1 X135.993 Y99.513 E0.01209
G1 X136.264 Y99.736 E0.01209
G1 X136.487 Y100.007 E0.01209
G1 X136.652 Y100.316 E0.01209
G1 X136.754 Y100.651 E0.01209
G1 X136.786 Y100.980 E0.01139
G1 X136.786 Y109.020 E0.27731
G1 X136.754 Y109.349 E0.01139
G1 X136.652 Y109.684 E0.01209
G1 X136.487 Y109.993 E0.01209
G1 X136.264 Y110.264 E0.01209
G1 X135.993 Y110.487 E0.01209
G1 X135.684 Y110.652 E0.01209
G1 X135.349 Y110.754 E0.01209
G1 X135.020 Y110.786 E0.01139
G1 X133.980 Y110.786 E0.03588
G1 X133.651 Y110.754 E0.01139
G1 X133.316 Y110.652 E0.01209
G1 X133.007 Y110.487 E0.01209
G1 X132.736 Y110.264 E0.01209
G1 X132.513 Y109.993 E0.01209
G1 X132.348 Y109.684 E0.01209
G1 X132.270 Y109.428 E0.00923
G1 X131.918 Y109.261 F10800.000
G1 E-1.00000 F2100.000
G1 X144.375 Y109.423 F10800.000
G1 E1.00000 F1500.000
;TYPE:Perimeter
G1 F1200.000
G1 X144.337 Y109.039 E0.01331
G1 X144.337 Y100.961 E0.27858
G1 X144.375 Y100.577 E0.01331
G1 X144.498 Y100.171 E0.01465
G1 X144.698 Y99.796 E0.01465
G1 X144.968 Y99.468 E0.01465
G1 X145.296 Y99.198 E0.01465
G1 X145.671 Y98.998 E0.01465
G1 X146.077 Y98.875 E0.01465
G1 X146.461 Y98.837 E0.01331
G1 X147.539 Y98.837 E0.03716
G1 X147.923 Y98.875 E0.01331
G1 X148.329 Y98.998 E0.01465
G1 X148.704 Y99.198 E0.01465
G1 X149.032 Y99.468 E0.01465
G1 X149.302 Y99.796 E0.01465
G1 X149.502 Y100.171 E0.01465
G1 X149.625 Y100.577 E0.01465
G1 X149.663 Y100.961 E0.01331
G1 X149.663 Y109.039 E0.27858
G1 X149.625 Y109.423 E0.01331
G1 X149.502 Y109.829 E0.01465
G1 X149.302 Y110.204 E0.01465
G1 X149.032 Y110.532 E0.01465
G1 X148.704 Y110.802 E0.01465
G1 X148.329 Y111.002 E0.01465
G1 X147.923 Y111.125 E0.01465
G1 X147.539 Y111.163 E0.01331
G1 X146.461 Y111.163 E0.03716
G1 X146.077 Y111.125 E0.01331
G1 X145.671 Y111.002 E0.01465
G1 X145.296 Y110.802 E0.01465
G1 X144.968 Y110.532 E0.01465
G1 X144.698 Y110.204 E0.01465
G1 X144.498 Y109.829 E0.01465
G1 X144.392 Y109.480 E0.01258
G1 X144.753 Y109.371 F10800.000
;TYPE:External perimeter
G1 F1200.000
G1 X144.714 Y109.020 E0.01217
G1 X144.714 Y100.980 E0.27731
G1 X144.746 Y100.651 E0.01139
M73 Q3 S32
G1 X144.848 Y100.316 E0.01209
G1 X145.013 Y100.007 E0.01209
G1 X145.236 Y99.736 E0.01209
G1 X145.507 Y99.513 E0.01209
G1 X145.816 Y99.348 E0.01209
G1 X146.151 Y99.246 E0.01209
G1 X146.480 Y99.214 E0.01139
M73 P3 R32
G1 X147.520 Y99.214 E0.03588
G1 X147.849 Y99.246 E0.01139
G1 X148.184 Y99.348 E0.01209
G1 X148.493 Y99.513 E0.01209
G1 X148.764 Y99.736 E0.01209
G1 X148.987 Y100.007 E0.01209
G1 X149.152 Y100.316 E0.01209
G1 X149.254 Y100.651 E0.01209
G1 X149.286 Y100.980 E0.01139
G1 X149.286 Y109.020 E0.27731
G1 X149.254 Y109.349 E0.01139
G1 X149.152 Y109.684 E0.01209
G1 X148.987 Y109.993 E0.01209
G1 X148.764 Y110.264 E0.01209
G1 X148.493 Y110.487 E0.01209
G1 X148.184 Y110.652 E0.01209
G1 X147.849 Y110.754 E0.01209
G1 X147.520 Y110.786 E0.01139
G1 X146.480 Y110.786 E0.03588
G1 X146.151 Y110.754 E0.01139
G1 X145.816 Y110.652 E0.01209
G1 X145.507 Y110.487 E0.01209
G1 X145.236 Y110.264 E0.01209
G1 X145.013 Y109.993 E0.01209
G1 X144.848 Y109.684 E0.01209
G1 X144.770 Y109.428 E0.00923
G1 X144.418 Y109.261 F10800.000
G1 E-1.00000 F2100.000
G1 X113.116 Y114.020 F10800.000
G1 E1.00000 F1500.000
;TYPE:Perimeter
G1 F1200.000
G1 X112.964 Y114.521 E0.01803
G1 X112.718 Y114.982 E0.01803
G1 X112.386 Y115.386 E0.01803
G1 X111.982 Y115.718 E0.01803
G1 X111.521 Y115.964 E0.01803
G1 X111.020 Y116.116 E0.01803
G1 X110.500 Y116.167 E0.01803
G1 X109.980 Y116.116 E0.01803
G1 X109.479 Y115.964 E0.01803
G1 X109.018 Y115.718 E0.01803
